P3
400 225
255
204 226 255
204 226 255
204 226 255
204 226 255
204 226 255
204 226 255
204 226 255
204 226 255
204 226 255
204 226 255
204 226 255
204 226 255
204 226 255
204 226 255
204 226 255
203 226 255
203 226 255
203 226 255
203 226 255
203 226 255
203 226 255
203 226 255
203 226 255
203 225 255
203 225 255
203 225 255
203 225 255
203 225 255
203 225 255
203 225 255
203 225 255
203 225 255
202 225 255
202 225 255
202 225 255
202 225 255
202 225 255
202 225 255
202 225 255
202 225 255
202 225 255
202 225 255
202 225 255
202 225 255
202 225 255
202 225 255
202 225 255
202 225 255
201 225 255
201 225 255
201 225 255
201 225 255
201 224 255
201 224 255
201 224 255
201 224 255
201 224 255
201 224 255
201 224 255
201 224 255
201 224 255
201 224 255
201 224 255
200 224 255
200 224 255
200 224 255
200 224 255
200 224 255
200 224 255
200 224 255
200 224 255
200 224 255
200 224 255
200 224 255
200 224 255
200 224 255
200 224 255
200 224 255
199 224 255
199 224 255
199 223 255
199 223 255
199 223 255
199 223 255
199 223 255
199 223 255
199 223 255
199 223 255
199 223 255
199 223 255
199 223 255
199 223 255
198 223 255
198 223 255
198 223 255
198 223 255
198 223 255
198 223 255
198 223 255
198 223 255
198 223 255
198 223 255
198 223 255
198 223 255
198 223 255
198 223 255
197 222 255
197 222 255
197 222 255
197 222 255
197 222 255
197 222 255
197 222 255
197 222 255
197 222 255
197 222 255
197 222 255
197 222 255
197 222 255
197 222 255
197 222 255
196 222 255
196 222 255
196 222 255
196 222 255
196 222 255
196 222 255
196 222 255
196 222 255
196 222 255
196 222 255
196 222 255
196 222 255
196 222 255
196 222 255
196 221 255
196 221 255
195 221 255
195 221 255
195 221 255
195 221 255
195 221 255
195 221 255
195 221 255
195 221 255
195 221 255
195 221 255
195 221 255
195 221 255
195 221 255
195 221 255
195 221 255
195 221 255
195 221 255
195 221 255
194 221 255
194 221 255
194 221 255
194 221 255
194 221 255
194 221 255
194 221 255
194 221 255
194 221 255
194 221 255
194 221 255
194 221 255
194 221 255
194 221 255
194 221 255
194 221 255
194 221 255
194 221 255
194 221 255
194 221 255
194 221 255
194 221 255
194 220 255
194 220 255
194 220 255
194 220 255
194 220 255
194 220 255
194 220 255
194 220 255
194 220 255
193 220 255
193 220 255
193 220 255
193 220 255
193 220 255
193 220 255
193 220 255
193 220 255
193 220 255
193 220 255
193 220 255
193 220 255
193 220 255
193 220 255
193 220 255
193 220 255
193 220 255
193 220 255
193 220 255
193 220 255
193 220 255
193 220 255
193 220 255
193 220 255
193 220 255
193 220 255
193 220 255
193 220 255
194 220 255
194 220 255
194 220 255
194 220 255
194 220 255
194 220 255
194 220 255
194 220 255
194 220 255
194 221 255
194 221 255
194 221 255
194 221 255
194 221 255
194 221 255
194 221 255
194 221 255
194 221 255
194 221 255
194 221 255
194 221 255
194 221 255
194 221 255
194 221 255
194 221 255
194 221 255
194 221 255
194 221 255
194 221 255
194 221 255
194 221 255
195 221 255
195 221 255
195 221 255
195 221 255
195 221 255
195 221 255
195 221 255
195 221 255
195 221 255
195 221 255
195 221 255
195 221 255
195 221 255
195 221 255
195 221 255
195 221 255
195 221 255
195 221 255
196 221 255
196 221 255
196 222 255
196 222 255
196 222 255
196 222 255
196 222 255
196 222 255
196 222 255
196 222 255
196 222 255
196 222 255
196 222 255
196 222 255
196 222 255
196 222 255
197 222 255
197 222 255
197 222 255
197 222 255
197 222 255
197 222 255
197 222 255
197 222 255
197 222 255
197 222 255
197 222 255
197 222 255
197 222 255
197 222 255
197 223 255
198 223 255
198 223 255
198 223 255
198 223 255
198 223 255
198 223 255
198 223 255
198 223 255
198 223 255
198 223 255
198 223 255
198 223 255
198 223 255
198 223 255
199 223 255
199 223 255
199 223 255
199 223 255
199 223 255
199 223 255
199 223 255
199 223 255
199 223 255
199 223 255
199 223 255
199 223 255
199 224 255
199 224 255
199 224 255
200 224 255
200 224 255
200 224 255
200 224 255
200 224 255
200 224 255
200 224 255
200 224 255
200 224 255
200 224 255
200 224 255
200 224 255
200 224 255
200 224 255
201 224 255
201 224 255
201 224 255
201 224 255
201 224 255
201 224 255
201 224 255
201 224 255
201 224 255
201 224 255
201 224 255
201 225 255
201 225 255
201 225 255
201 225 255
202 225 255
202 225 255
202 225 255
202 225 255
202 225 255
202 225 255
202 225 255
202 225 255
202 225 255
202 225 255
202 225 255
202 225 255
202 225 255
202 225 255
202 225 255
202 225 255
203 225 255
203 225 255
203 225 255
203 225 255
203 225 255
203 225 255
203 225 255
203 225 255
203 225 255
203 226 255
203 226 255
203 226 255
203 226 255
203 226 255
203 226 255
203 226 255
203 226 255
204 226 255
204 226 255
204 226 255
204 226 255
204 226 255
204 226 255
204 226 255
204 226 255
204 226 255
204 226 255
204 226 255
204 226 255
204 226 255
204 226 255
204 226 255
204 226 255
204 226 255
204 226 255
204 226 255
204 226 255
204 226 255
204 226 255
204 226 255
204 226 255
204 226 255
204 226 255
204 226 255
204 226 255
204 226 255
204 226 255
204 226 255
204 226 255
204 226 255
203 226 255
203 226 255
203 226 255
203 226 255
203 226 255
203 226 255
203 226 255
203 225 255
203 225 255
203 225 255
203 225 255
203 225 255
203 225 255
203 225 255
203 225 255
203 225 255
202 225 255
202 225 255
202 225 255
202 225 255
202 225 255
202 225 255
202 225 255
202 225 255
202 225 255
202 225 255
202 225 255
202 225 255
202 225 255
202 225 255
202 225 255
202 225 255
201 225 255
201 225 255
201 225 255
201 225 255
201 225 255
201 224 255
201 224 255
201 224 255
201 224 255
201 224 255
201 224 255
201 224 255
201 224 255
201 224 255
201 224 255
200 224 255
200 224 255
200 224 255
200 224 255
200 224 255
200 224 255
200 224 255
200 224 255
200 224 255
200 224 255
200 224 255
200 224 255
200 224 255
200 224 255
200 224 255
199 224 255
199 224 255
199 223 255
199 223 255
199 223 255
199 223 255
199 223 255
199 223 255
199 223 255
199 223 255
199 223 255
199 223 255
199 223 255
199 223 255
198 223 255
198 223 255
198 223 255
198 223 255
198 223 255
198 223 255
198 223 255
198 223 255
198 223 255
198 223 255
198 223 255
198 223 255
198 223 255
198 223 255
197 223 255
197 222 255
197 222 255
197 222 255
197 222 255
197 222 255
197 222 255
197 222 255
197 222 255
197 222 255
197 222 255
197 222 255
197 222 255
197 222 255
197 222 255
196 222 255
196 222 255
196 222 255
196 222 255
196 222 255
196 222 255
196 222 255
196 222 255
196 222 255
196 222 255
196 222 255
196 222 255
196 222 255
196 222 255
196 222 255
196 221 255
195 221 255
195 221 255
195 221 255
195 221 255
195 221 255
195 221 255
195 221 255
195 221 255
195 221 255
195 221 255
195 221 255
195 221 255
195 221 255
195 221 255
195 221 255
195 221 255
195 221 255
195 221 255
195 221 255
194 221 255
194 221 255
194 221 255
194 221 255
194 221 255
194 221 255
194 221 255
194 221 255
194 221 255
194 221 255
194 221 255
194 221 255
194 221 255
194 221 255
194 221 255
194 221 255
194 221 255
194 221 255
194 221 255
194 221 255
194 221 255
194 221 255
194 221 255
194 221 255
194 221 255
194 220 255
194 220 255
194 220 255
194 220 255
194 220 255
194 220 255
194 220 255
194 220 255
194 220 255
194 220 255
194 220 255
194 220 255
194 220 255
194 220 255
194 220 255
194 220 255
194 220 255
194 220 255
194 220 255
194 220 255
194 220 255
194 220 255
194 220 255
194 220 255
194 220 255
194 220 255
194 220 255
194 220 255
194 220 255
194 220 255
194 220 255
194 220 255
194 220 255
194 220 255
194 221 255
194 221 255
194 221 255
194 221 255
194 221 255
194 221 255
194 221 255
194 221 255
194 221 255
194 221 255
194 221 255
194 221 255
194 221 255
194 221 255
194 221 255
194 221 255
194 221 255
194 221 255
194 221 255
194 221 255
194 221 255
194 221 255
194 221 255
194 221 255
194 221 255
195 221 255
195 221 255
195 221 255
195 221 255
195 221 255
195 221 255
195 221 255
195 221 255
195 221 255
195 221 255
195 221 255
195 221 255
195 221 255
195 221 255
195 221 255
195 221 255
195 221 255
195 221 255
195 221 255
196 221 255
196 221 255
196 222 255
196 222 255
196 222 255
196 222 255
196 222 255
196 222 255
196 222 255
196 222 255
196 222 255
196 222 255
196 222 255
196 222 255
196 222 255
196 222 255
197 222 255
197 222 255
197 222 255
197 222 255
197 222 255
197 222 255
197 222 255
197 222 255
197 222 255
197 222 255
197 222 255
197 222 255
197 222 255
197 222 255
197 223 255
198 223 255
198 223 255
198 223 255
198 223 255
198 223 255
198 223 255
198 223 255
198 223 255
198 223 255
198 223 255
198 223 255
198 223 255
198 223 255
198 223 255
199 223 255
199 223 255
199 223 255
199 223 255
199 223 255
199 223 255
199 223 255
199 223 255
199 223 255
199 223 255
199 223 255
199 223 255
199 224 255
199 224 255
199 224 255
200 224 255
200 224 255
200 224 255
200 224 255
200 224 255
200 224 255
200 224 255
200 224 255
200 224 255
200 224 255
200 224 255
200 224 255
200 224 255
200 224 255
201 224 255
201 224 255
201 224 255
201 224 255
201 224 255
201 224 255
201 224 255
201 224 255
201 224 255
201 224 255
201 225 255
201 225 255
201 225 255
201 225 255
201 225 255
202 225 255
202 225 255
202 225 255
202 225 255
202 225 255
202 225 255
202 225 255
202 225 255
202 225 255
202 225 255
202 225 255
202 225 255
202 225 255
202 225 255
202 225 255
202 225 255
203 225 255
203 225 255
203 225 255
203 225 255
203 225 255
203 225 255
203 225 255
203 225 255
203 225 255
203 226 255
203 226 255
203 226 255
203 226 255
203 226 255
203 226 255
203 226 255
204 226 255
204 226 255
204 226 255
204 226 255
204 226 255
204 226 255
204 226 255
204 226 255
204 226 255
204 226 255
204 226 255
204 226 255
204 226 255
204 226 255
204 226 255
204 226 255
204 226 255
204 226 255
205 226 255
205 226 255
204 226 255
204 226 255
204 226 255
204 226 255
204 226 255
204 226 255
204 226 255
204 226 255
204 226 255
204 226 255
204 226 255
204 226 255
204 226 255
204 226 255
204 226 255
204 226 255
204 226 255
204 226 255
203 226 255
203 226 255
203 226 255
203 226 255
203 226 255
203 226 255
203 226 255
203 225 255
203 225 255
203 225 255
203 225 255
203 225 255
203 225 255
203 225 255
203 225 255
203 225 255
202 225 255
202 225 255
202 225 255
202 225 255
202 225 255
202 225 255
202 225 255
202 225 255
202 225 255
202 225 255
202 225 255
202 225 255
202 225 255
202 225 255
202 225 255
202 225 255
201 225 255
201 225 255
201 225 255
201 225 255
201 225 255
201 224 255
201 224 255
201 224 255
201 224 255
201 224 255
201 224 255
201 224 255
201 224 255
201 224 255
201 224 255
200 224 255
200 224 255
200 224 255
200 224 255
200 224 255
200 224 255
200 224 255
200 224 255
200 224 255
200 224 255
200 224 255
200 224 255
200 224 255
200 224 255
200 224 255
199 224 255
199 224 255
199 223 255
199 223 255
199 223 255
199 223 255
199 223 255
199 223 255
199 223 255
199 223 255
199 223 255
199 223 255
199 223 255
199 223 255
198 223 255
198 223 255
198 223 255
198 223 255
198 223 255
198 223 255
198 223 255
198 223 255
198 223 255
198 223 255
198 223 255
198 223 255
198 223 255
198 223 255
197 223 255
197 222 255
197 222 255
197 222 255
197 222 255
197 222 255
197 222 255
197 222 255
197 222 255
197 222 255
197 222 255
197 222 255
197 222 255
197 222 255
197 222 255
196 222 255
196 222 255
196 222 255
196 222 255
196 222 255
196 222 255
196 222 255
196 222 255
196 222 255
196 222 255
196 222 255
196 222 255
196 222 255
196 222 255
196 222 255
196 221 255
195 221 255
195 221 255
195 221 255
195 221 255
195 221 255
195 221 255
195 221 255
195 221 255
195 221 255
195 221 255
195 221 255
195 221 255
195 221 255
195 221 255
195 221 255
195 221 255
195 221 255
195 221 255
195 221 255
195 221 255
194 221 255
194 221 255
194 221 255
194 221 255
194 221 255
194 221 255
194 221 255
194 221 255
194 221 255
194 221 255
194 221 255
194 221 255
194 221 255
194 221 255
194 221 255
194 221 255
194 221 255
194 221 255
194 221 255
194 221 255
194 221 255
194 221 255
194 221 255
194 221 255
194 221 255
194 221 255
194 221 255
194 221 255
194 221 255
194 221 255
194 221 255
194 220 255
194 220 255
194 220 255
194 220 255
194 220 255
194 220 255
194 220 255
194 220 255
194 220 255
194 220 255
194 220 255
194 220 255
194 220 255
194 220 255
194 220 255
194 220 255
194 221 255
194 221 255
194 221 255
194 221 255
194 221 255
194 221 255
194 221 255
194 221 255
194 221 255
194 221 255
194 221 255
194 221 255
194 221 255
194 221 255
194 221 255
194 221 255
194 221 255
194 221 255
194 221 255
194 221 255
194 221 255
194 221 255
194 221 255
194 221 255
194 221 255
194 221 255
194 221 255
194 221 255
194 221 255
194 221 255
194 221 255
195 221 255
195 221 255
195 221 255
195 221 255
195 221 255
195 221 255
195 221 255
195 221 255
195 221 255
195 221 255
195 221 255
195 221 255
195 221 255
195 221 255
195 221 255
195 221 255
195 221 255
195 221 255
195 221 255
196 221 255
196 221 255
196 222 255
196 222 255
196 222 255
196 222 255
196 222 255
196 222 255
196 222 255
196 222 255
196 222 255
196 222 255
196 222 255
196 222 255
196 222 255
196 222 255
196 222 255
197 222 255
197 222 255
197 222 255
197 222 255
197 222 255
197 222 255
197 222 255
197 222 255
197 222 255
197 222 255
197 222 255
197 222 255
197 222 255
197 222 255
197 223 255
198 223 255
198 223 255
198 223 255
198 223 255
198 223 255
198 223 255
198 223 255
198 223 255
198 223 255
198 223 255
198 223 255
198 223 255
198 223 255
198 223 255
199 223 255
199 223 255
199 223 255
199 223 255
199 223 255
199 223 255
199 223 255
199 223 255
199 223 255
199 223 255
199 223 255
199 223 255
199 224 255
199 224 255
200 224 255
200 224 255
200 224 255
200 224 255
200 224 255
200 224 255
200 224 255
200 224 255
200 224 255
200 224 255
200 224 255
200 224 255
200 224 255
200 224 255
200 224 255
201 224 255
201 224 255
201 224 255
201 224 255
201 224 255
201 224 255
201 224 255
201 224 255
201 224 255
201 224 255
201 225 255
201 225 255
201 225 255
201 225 255
201 225 255
202 225 255
202 225 255
202 225 255
202 225 255
202 225 255
202 225 255
202 225 255
202 225 255
202 225 255
202 225 255
202 225 255
202 225 255
202 225 255
202 225 255
202 225 255
202 225 255
203 225 255
203 225 255
203 225 255
203 225 255
203 225 255
203 225 255
203 225 255
203 225 255
203 225 255
203 226 255
203 226 255
203 226 255
203 226 255
203 226 255
203 226 255
203 226 255
204 226 255
204 226 255
204 226 255
204 226 255
204 226 255
204 226 255
204 226 255
204 226 255
204 226 255
204 226 255
204 226 255
204 226 255
204 226 255
204 226 255
204 226 255
204 226 255
204 226 255
204 226 255
205 226 255
205 226 255
205 226 255
205 226 255
205 226 255
205 226 255
204 226 255
204 226 255
204 226 255
204 226 255
204 226 255
204 226 255
204 226 255
204 226 255
204 226 255
204 226 255
204 226 255
204 226 255
204 226 255
204 226 255
204 226 255
204 226 255
204 226 255
204 226 255
203 226 255
203 226 255
203 226 255
203 226 255
203 226 255
203 226 255
203 226 255
203 226 255
203 225 255
203 225 255
203 225 255
203 225 255
203 225 255
203 225 255
203 225 255
203 225 255
203 225 255
202 225 255
202 225 255
202 225 255
202 225 255
202 225 255
202 225 255
202 225 255
202 225 255
202 225 255
202 225 255
202 225 255
202 225 255
202 225 255
202 225 255
202 225 255
201 225 255
201 225 255
201 225 255
201 225 255
201 225 255
201 224 255
201 224 255
201 224 255
201 224 255
201 224 255
201 224 255
201 224 255
201 224 255
201 224 255
201 224 255
200 224 255
200 224 255
200 224 255
200 224 255
200 224 255
200 224 255
200 224 255
200 224 255
200 224 255
200 224 255
200 224 255
200 224 255
200 224 255
200 224 255
200 224 255
199 224 255
199 224 255
199 223 255
199 223 255
199 223 255
199 223 255
199 223 255
199 223 255
199 223 255
199 223 255
199 223 255
199 223 255
199 223 255
199 223 255
198 223 255
198 223 255
198 223 255
198 223 255
198 223 255
198 223 255
198 223 255
198 223 255
198 223 255
198 223 255
198 223 255
198 223 255
198 223 255
198 223 255
197 223 255
197 222 255
197 222 255
197 222 255
197 222 255
197 222 255
197 222 255
197 222 255
197 222 255
197 222 255
197 222 255
197 222 255
197 222 255
197 222 255
197 222 255
196 222 255
196 222 255
196 222 255
196 222 255
196 222 255
196 222 255
196 222 255
196 222 255
196 222 255
196 222 255
196 222 255
196 222 255
196 222 255
196 222 255
196 222 255
196 222 255
196 221 255
195 221 255
195 221 255
195 221 255
195 221 255
195 221 255
195 221 255
195 221 255
195 221 255
195 221 255
195 221 255
195 221 255
195 221 255
195 221 255
195 221 255
195 221 255
195 221 255
195 221 255
195 221 255
195 221 255
195 221 255
195 221 255
194 221 255
194 221 255
194 221 255
194 221 255
194 221 255
194 221 255
194 221 255
194 221 255
194 221 255
194 221 255
194 221 255
194 221 255
194 221 255
194 221 255
194 221 255
194 221 255
194 221 255
194 221 255
194 221 255
194 221 255
194 221 255
194 221 255
194 221 255
194 221 255
194 221 255
194 221 255
194 221 255
194 221 255
194 221 255
194 221 255
194 221 255
194 221 255
194 221 255
194 221 255
194 221 255
194 221 255
194 221 255
194 221 255
194 221 255
194 221 255
194 221 255
194 221 255
194 221 255
194 221 255
194 221 255
194 221 255
194 221 255
194 221 255
194 221 255
194 221 255
194 221 255
194 221 255
194 221 255
194 221 255
194 221 255
194 221 255
194 221 255
194 221 255
194 221 255
194 221 255
194 221 255
194 221 255
194 221 255
194 221 255
194 221 255
194 221 255
194 221 255
194 221 255
194 221 255
194 221 255
195 221 255
195 221 255
195 221 255
195 221 255
195 221 255
195 221 255
195 221 255
195 221 255
195 221 255
195 221 255
195 221 255
195 221 255
195 221 255
195 221 255
195 221 255
195 221 255
195 221 255
195 221 255
195 221 255
195 221 255
195 221 255
196 221 255
196 222 255
196 222 255
196 222 255
196 222 255
196 222 255
196 222 255
196 222 255
196 222 255
196 222 255
196 222 255
196 222 255
196 222 255
196 222 255
196 222 255
196 222 255
196 222 255
197 222 255
197 222 255
197 222 255
197 222 255
197 222 255
197 222 255
197 222 255
197 222 255
197 222 255
197 222 255
197 222 255
197 222 255
197 222 255
197 222 255
197 223 255
198 223 255
198 223 255
198 223 255
198 223 255
198 223 255
198 223 255
198 223 255
198 223 255
198 223 255
198 223 255
198 223 255
198 223 255
198 223 255
198 223 255
199 223 255
199 223 255
199 223 255
199 223 255
199 223 255
199 223 255
199 223 255
199 223 255
199 223 255
199 223 255
199 223 255
199 223 255
199 224 255
199 224 255
200 224 255
200 224 255
200 224 255
200 224 255
200 224 255
200 224 255
200 224 255
200 224 255
200 224 255
200 224 255
200 224 255
200 224 255
200 224 255
200 224 255
200 224 255
201 224 255
201 224 255
201 224 255
201 224 255
201 224 255
201 224 255
201 224 255
201 224 255
201 224 255
201 224 255
201 225 255
201 225 255
201 225 255
201 225 255
201 225 255
202 225 255
202 225 255
202 225 255
202 225 255
202 225 255
202 225 255
202 225 255
202 225 255
202 225 255
202 225 255
202 225 255
202 225 255
202 225 255
202 225 255
202 225 255
203 225 255
203 225 255
203 225 255
203 225 255
203 225 255
203 225 255
203 225 255
203 225 255
203 225 255
203 226 255
203 226 255
203 226 255
203 226 255
203 226 255
203 226 255
203 226 255
203 226 255
204 226 255
204 226 255
204 226 255
204 226 255
204 226 255
204 226 255
204 226 255
204 226 255
204 226 255
204 226 255
204 226 255
204 226 255
204 226 255
204 226 255
204 226 255
204 226 255
204 226 255
204 226 255
205 226 255
205 226 255
205 226 255
205 226 255
205 226 255
205 226 255
205 226 255
205 226 255
205 226 255
205 226 255
205 226 255
204 226 255
204 226 255
204 226 255
204 226 255
204 226 255
204 226 255
204 226 255
204 226 255
204 226 255
204 226 255
204 226 255
204 226 255
204 226 255
204 226 255
204 226 255
204 226 255
204 226 255
204 226 255
203 226 255
203 226 255
203 226 255
203 226 255
203 226 255
203 226 255
203 226 255
203 225 255
203 225 255
203 225 255
203 225 255
203 225 255
203 225 255
203 225 255
203 225 255
203 225 255
202 225 255
202 225 255
202 225 255
202 225 255
202 225 255
202 225 255
202 225 255
202 225 255
202 225 255
202 225 255
202 225 255
202 225 255
202 225 255
202 225 255
202 225 255
201 225 255
201 225 255
201 225 255
201 225 255
201 225 255
201 224 255
201 224 255
201 224 255
201 224 255
201 224 255
201 224 255
201 224 255
201 224 255
201 224 255
201 224 255
200 224 255
200 224 255
200 224 255
200 224 255
200 224 255
200 224 255
200 224 255
200 224 255
200 224 255
200 224 255
200 224 255
200 224 255
200 224 255
200 224 255
200 224 255
199 224 255
199 224 255
199 223 255
199 223 255
199 223 255
199 223 255
199 223 255
199 223 255
199 223 255
199 223 255
199 223 255
199 223 255
199 223 255
199 223 255
198 223 255
198 223 255
198 223 255
198 223 255
198 223 255
198 223 255
198 223 255
198 223 255
198 223 255
198 223 255
198 223 255
198 223 255
198 223 255
198 223 255
197 223 255
197 222 255
197 222 255
197 222 255
197 222 255
197 222 255
197 222 255
197 222 255
197 222 255
197 222 255
197 222 255
197 222 255
197 222 255
197 222 255
197 222 255
197 222 255
196 222 255
196 222 255
196 222 255
196 222 255
196 222 255
196 222 255
196 222 255
196 222 255
196 222 255
196 222 255
196 222 255
196 222 255
196 222 255
196 222 255
196 222 255
196 221 255
196 221 255
195 221 255
195 221 255
195 221 255
195 221 255
195 221 255
195 221 255
195 221 255
195 221 255
195 221 255
195 221 255
195 221 255
195 221 255
195 221 255
195 221 255
195 221 255
195 221 255
195 221 255
195 221 255
195 221 255
195 221 255
195 221 255
195 221 255
194 221 255
194 221 255
194 221 255
194 221 255
194 221 255
194 221 255
194 221 255
194 221 255
194 221 255
194 221 255
194 221 255
194 221 255
194 221 255
194 221 255
194 221 255
194 221 255
194 221 255
194 221 255
194 221 255
194 221 255
194 221 255
194 221 255
194 221 255
194 221 255
194 221 255
194 221 255
194 221 255
194 221 255
194 221 255
194 221 255
194 221 255
194 221 255
194 221 255
194 221 255
194 221 255
194 221 255
194 221 255
194 221 255
194 221 255
194 221 255
194 221 255
194 221 255
194 221 255
194 221 255
194 221 255
194 221 255
194 221 255
194 221 255
194 221 255
194 221 255
194 221 255
194 221 255
194 221 255
194 221 255
194 221 255
194 221 255
194 221 255
194 221 255
194 221 255
194 221 255
194 221 255
194 221 255
195 221 255
195 221 255
195 221 255
195 221 255
195 221 255
195 221 255
195 221 255
195 221 255
195 221 255
195 221 255
195 221 255
195 221 255
195 221 255
195 221 255
195 221 255
195 221 255
195 221 255
195 221 255
195 221 255
195 221 255
195 221 255
195 221 255
196 221 255
196 221 255
196 222 255
196 222 255
196 222 255
196 222 255
196 222 255
196 222 255
196 222 255
196 222 255
196 222 255
196 222 255
196 222 255
196 222 255
196 222 255
196 222 255
196 222 255
197 222 255
197 222 255
197 222 255
197 222 255
197 222 255
197 222 255
197 222 255
197 222 255
197 222 255
197 222 255
197 222 255
197 222 255
197 222 255
197 222 255
197 222 255
197 223 255
198 223 255
198 223 255
198 223 255
198 223 255
198 223 255
198 223 255
198 223 255
198 223 255
198 223 255
198 223 255
198 223 255
198 223 255
198 223 255
198 223 255
199 223 255
199 223 255
199 223 255
199 223 255
199 223 255
199 223 255
199 223 255
199 223 255
199 223 255
199 223 255
199 223 255
199 223 255
199 224 255
199 224 255
200 224 255
200 224 255
200 224 255
200 224 255
200 224 255
200 224 255
200 224 255
200 224 255
200 224 255
200 224 255
200 224 255
200 224 255
200 224 255
200 224 255
200 224 255
201 224 255
201 224 255
201 224 255
201 224 255
201 224 255
201 224 255
201 224 255
201 224 255
201 224 255
201 224 255
201 225 255
201 225 255
201 225 255
201 225 255
202 225 255
202 225 255
202 225 255
202 225 255
202 225 255
202 225 255
202 225 255
202 225 255
202 225 255
202 225 255
202 225 255
202 225 255
202 225 255
202 225 255
202 225 255
202 225 255
203 225 255
203 225 255
203 225 255
203 225 255
203 225 255
203 225 255
203 225 255
203 225 255
203 225 255
203 226 255
203 226 255
203 226 255
203 226 255
203 226 255
203 226 255
203 226 255
204 226 255
204 226 255
204 226 255
204 226 255
204 226 255
204 226 255
204 226 255
204 226 255
204 226 255
204 226 255
204 226 255
204 226 255
204 226 255
204 226 255
204 226 255
204 226 255
204 226 255
204 226 255
205 226 255
205 226 255
205 226 255
205 226 255
205 226 255
205 226 255
205 226 255
205 227 255
205 227 255
205 226 255
205 226 255
205 226 255
205 226 255
205 226 255
205 226 255
205 226 255
204 226 255
204 226 255
204 226 255
204 226 255
204 226 255
204 226 255
204 226 255
204 226 255
204 226 255
204 226 255
204 226 255
204 226 255
204 226 255
204 226 255
204 226 255
204 226 255
204 226 255
204 226 255
203 226 255
203 226 255
203 226 255
203 226 255
203 226 255
203 226 255
203 226 255
203 225 255
203 225 255
203 225 255
203 225 255
203 225 255
203 225 255
203 225 255
203 225 255
203 225 255
202 225 255
202 225 255
202 225 255
202 225 255
202 225 255
202 225 255
202 225 255
202 225 255
202 225 255
202 225 255
202 225 255
202 225 255
202 225 255
202 225 255
202 225 255
202 225 255
201 225 255
201 225 255
201 225 255
201 225 255
201 224 255
201 224 255
201 224 255
201 224 255
201 224 255
201 224 255
201 224 255
201 224 255
201 224 255
201 224 255
200 224 255
200 224 255
200 224 255
200 224 255
200 224 255
200 224 255
200 224 255
200 224 255
200 224 255
200 224 255
200 224 255
200 224 255
200 224 255
200 224 255
200 224 255
199 224 255
199 224 255
199 223 255
199 223 255
199 223 255
199 223 255
199 223 255
199 223 255
199 223 255
199 223 255
199 223 255
199 223 255
199 223 255
199 223 255
198 223 255
198 223 255
198 223 255
198 223 255
198 223 255
198 223 255
198 223 255
198 223 255
198 223 255
198 223 255
198 223 255
198 223 255
198 223 255
198 223 255
198 223 255
197 222 255
197 222 255
197 222 255
197 222 255
197 222 255
197 222 255
197 222 255
197 222 255
197 222 255
197 222 255
197 222 255
197 222 255
197 222 255
197 222 255
197 222 255
196 222 255
196 222 255
196 222 255
196 222 255
196 222 255
196 222 255
196 222 255
196 222 255
196 222 255
196 222 255
196 222 255
196 222 255
196 222 255
196 222 255
196 222 255
196 222 255
196 221 255
196 221 255
195 221 255
195 221 255
195 221 255
195 221 255
195 221 255
195 221 255
195 221 255
195 221 255
195 221 255
195 221 255
195 221 255
195 221 255
195 221 255
195 221 255
195 221 255
195 221 255
195 221 255
195 221 255
195 221 255
195 221 255
195 221 255
195 221 255
195 221 255
194 221 255
194 221 255
194 221 255
194 221 255
194 221 255
194 221 255
194 221 255
194 221 255
194 221 255
194 221 255
194 221 255
194 221 255
194 221 255
194 221 255
194 221 255
194 221 255
194 221 255
194 221 255
194 221 255
194 221 255
194 221 255
194 221 255
194 221 255
194 221 255
194 221 255
194 221 255
194 221 255
194 221 255
194 221 255
194 221 255
194 221 255
194 221 255
194 221 255
194 221 255
194 221 255
194 221 255
194 221 255
194 221 255
194 221 255
194 221 255
194 221 255
194 221 255
194 221 255
194 221 255
194 221 255
194 221 255
194 221 255
194 221 255
194 221 255
194 221 255
194 221 255
194 221 255
194 221 255
194 221 255
195 221 255
195 221 255
195 221 255
195 221 255
195 221 255
195 221 255
195 221 255
195 221 255
195 221 255
195 221 255
195 221 255
195 221 255
195 221 255
195 221 255
195 221 255
195 221 255
195 221 255
195 221 255
195 221 255
195 221 255
195 221 255
195 221 255
195 221 255
195 221 255
196 221 255
196 222 255
196 222 255
196 222 255
196 222 255
196 222 255
196 222 255
196 222 255
196 222 255
196 222 255
196 222 255
196 222 255
196 222 255
196 222 255
196 222 255
196 222 255
196 222 255
197 222 255
197 222 255
197 222 255
197 222 255
197 222 255
197 222 255
197 222 255
197 222 255
197 222 255
197 222 255
197 222 255
197 222 255
197 222 255
197 222 255
197 222 255
198 223 255
198 223 255
198 223 255
198 223 255
198 223 255
198 223 255
198 223 255
198 223 255
198 223 255
198 223 255
198 223 255
198 223 255
198 223 255
198 223 255
198 223 255
199 223 255
199 223 255
199 223 255
199 223 255
199 223 255
199 223 255
199 223 255
199 223 255
199 223 255
199 223 255
199 223 255
199 223 255
199 224 255
199 224 255
200 224 255
200 224 255
200 224 255
200 224 255
200 224 255
200 224 255
200 224 255
200 224 255
200 224 255
200 224 255
200 224 255
200 224 255
200 224 255
200 224 255
201 224 255
201 224 255
201 224 255
201 224 255
201 224 255
201 224 255
201 224 255
201 224 255
201 224 255
201 224 255
201 224 255
201 225 255
201 225 255
201 225 255
201 225 255
202 225 255
202 225 255
202 225 255
202 225 255
202 225 255
202 225 255
202 225 255
202 225 255
202 225 255
202 225 255
202 225 255
202 225 255
202 225 255
202 225 255
202 225 255
202 225 255
203 225 255
203 225 255
203 225 255
203 225 255
203 225 255
203 225 255
203 225 255
203 225 255
203 225 255
203 226 255
203 226 255
203 226 255
203 226 255
203 226 255
203 226 255
203 226 255
204 226 255
204 226 255
204 226 255
204 226 255
204 226 255
204 226 255
204 226 255
204 226 255
204 226 255
204 226 255
204 226 255
204 226 255
204 226 255
204 226 255
204 226 255
204 226 255
204 226 255
204 226 255
205 226 255
205 226 255
205 226 255
205 226 255
205 226 255
205 226 255
205 226 255
205 227 255
205 227 255
205 227 255
205 227 255
205 227 255
205 227 255
205 226 255
205 226 255
205 226 255
205 226 255
205 226 255
205 226 255
205 226 255
205 226 255
204 226 255
204 226 255
204 226 255
204 226 255
204 226 255
204 226 255
204 226 255
204 226 255
204 226 255
204 226 255
204 226 255
204 226 255
204 226 255
204 226 255
204 226 255
204 226 255
204 226 255
203 226 255
203 226 255
203 226 255
203 226 255
203 226 255
203 226 255
203 226 255
203 226 255
203 225 255
203 225 255
203 225 255
203 225 255
203 225 255
203 225 255
203 225 255
203 225 255
202 225 255
202 225 255
202 225 255
202 225 255
202 225 255
202 225 255
202 225 255
202 225 255
202 225 255
202 225 255
202 225 255
202 225 255
202 225 255
202 225 255
202 225 255
202 225 255
201 225 255
201 225 255
201 225 255
201 225 255
201 224 255
201 224 255
201 224 255
201 224 255
201 224 255
201 224 255
201 224 255
201 224 255
201 224 255
201 224 255
201 224 255
200 224 255
200 224 255
200 224 255
200 224 255
200 224 255
200 224 255
200 224 255
200 224 255
200 224 255
200 224 255
200 224 255
200 224 255
200 224 255
200 224 255
199 224 255
199 224 255
199 223 255
199 223 255
199 223 255
199 223 255
199 223 255
199 223 255
199 223 255
199 223 255
199 223 255
199 223 255
199 223 255
199 223 255
198 223 255
198 223 255
198 223 255
198 223 255
198 223 255
198 223 255
198 223 255
198 223 255
198 223 255
198 223 255
198 223 255
198 223 255
198 223 255
198 223 255
198 223 255
197 222 255
197 222 255
197 222 255
197 222 255
197 222 255
197 222 255
197 222 255
197 222 255
197 222 255
197 222 255
197 222 255
197 222 255
197 222 255
197 222 255
197 222 255
196 222 255
196 222 255
196 222 255
196 222 255
196 222 255
196 222 255
196 222 255
196 222 255
196 222 255
196 222 255
196 222 255
196 222 255
196 222 255
196 222 255
196 222 255
196 222 255
196 222 255
196 221 255
195 221 255
195 221 255
195 221 255
195 221 255
195 221 255
195 221 255
195 221 255
195 221 255
195 221 255
195 221 255
195 221 255
195 221 255
195 221 255
195 221 255
195 221 255
195 221 255
195 221 255
195 221 255
195 221 255
195 221 255
195 221 255
195 221 255
195 221 255
195 221 255
195 221 255
195 221 255
195 221 255
194 221 255
194 221 255
194 221 255
194 221 255
194 221 255
194 221 255
194 221 255
194 221 255
194 221 255
194 221 255
194 221 255
194 221 255
194 221 255
194 221 255
194 221 255
194 221 255
194 221 255
194 221 255
194 221 255
194 221 255
194 221 255
194 221 255
194 221 255
194 221 255
194 221 255
194 221 255
194 221 255
194 221 255
194 221 255
194 221 255
194 221 255
194 221 255
194 221 255
194 221 255
194 221 255
194 221 255
194 221 255
194 221 255
194 221 255
194 221 255
194 221 255
194 221 255
194 221 255
195 221 255
195 221 255
195 221 255
195 221 255
195 221 255
195 221 255
195 221 255
195 221 255
195 221 255
195 221 255
195 221 255
195 221 255
195 221 255
195 221 255
195 221 255
195 221 255
195 221 255
195 221 255
195 221 255
195 221 255
195 221 255
195 221 255
195 221 255
195 221 255
195 221 255
195 221 255
196 221 255
196 222 255
196 222 255
196 222 255
196 222 255
196 222 255
196 222 255
196 222 255
196 222 255
196 222 255
196 222 255
196 222 255
196 222 255
196 222 255
196 222 255
196 222 255
196 222 255
196 222 255
197 222 255
197 222 255
197 222 255
197 222 255
197 222 255
197 222 255
197 222 255
197 222 255
197 222 255
197 222 255
197 222 255
197 222 255
197 222 255
197 222 255
197 222 255
198 223 255
198 223 255
198 223 255
198 223 255
198 223 255
198 223 255
198 223 255
198 223 255
198 223 255
198 223 255
198 223 255
198 223 255
198 223 255
198 223 255
198 223 255
199 223 255
199 223 255
199 223 255
199 223 255
199 223 255
199 223 255
199 223 255
199 223 255
199 223 255
199 223 255
199 223 255
199 223 255
199 224 255
199 224 255
200 224 255
200 224 255
200 224 255
200 224 255
200 224 255
200 224 255
200 224 255
200 224 255
200 224 255
200 224 255
200 224 255
200 224 255
200 224 255
200 224 255
201 224 255
201 224 255
201 224 255
201 224 255
201 224 255
201 224 255
201 224 255
201 224 255
201 224 255
201 224 255
201 224 255
201 225 255
201 225 255
201 225 255
201 225 255
202 225 255
202 225 255
202 225 255
202 225 255
202 225 255
202 225 255
202 225 255
202 225 255
202 225 255
202 225 255
202 225 255
202 225 255
202 225 255
202 225 255
202 225 255
202 225 255
203 225 255
203 225 255
203 225 255
203 225 255
203 225 255
203 225 255
203 225 255
203 225 255
203 225 255
203 226 255
203 226 255
203 226 255
203 226 255
203 226 255
203 226 255
203 226 255
204 226 255
204 226 255
204 226 255
204 226 255
204 226 255
204 226 255
204 226 255
204 226 255
204 226 255
204 226 255
204 226 255
204 226 255
204 226 255
204 226 255
204 226 255
204 226 255
204 226 255
205 226 255
205 226 255
205 226 255
205 226 255
205 226 255
205 226 255
205 226 255
205 226 255
205 227 255
205 227 255
205 227 255
205 227 255
205 227 255
205 227 255
205 227 255
205 227 255
205 227 255
205 227 255
205 227 255
205 226 255
205 226 255
205 226 255
205 226 255
205 226 255
205 226 255
205 226 255
204 226 255
204 226 255
204 226 255
204 226 255
204 226 255
204 226 255
204 226 255
204 226 255
204 226 255
204 226 255
204 226 255
204 226 255
204 226 255
204 226 255
204 226 255
204 226 255
204 226 255
203 226 255
203 226 255
203 226 255
203 226 255
203 226 255
203 226 255
203 226 255
203 226 255
203 225 255
203 225 255
203 225 255
203 225 255
203 225 255
203 225 255
203 225 255
203 225 255
203 225 255
202 225 255
202 225 255
202 225 255
202 225 255
202 225 255
202 225 255
202 225 255
202 225 255
202 225 255
202 225 255
202 225 255
202 225 255
202 225 255
202 225 255
202 225 255
201 225 255
201 225 255
201 225 255
201 225 255
201 224 255
201 224 255
201 224 255
201 224 255
201 224 255
201 224 255
201 224 255
201 224 255
201 224 255
201 224 255
201 224 255
200 224 255
200 224 255
200 224 255
200 224 255
200 224 255
200 224 255
200 224 255
200 224 255
200 224 255
200 224 255
200 224 255
200 224 255
200 224 255
200 224 255
199 224 255
199 224 255
199 223 255
199 223 255
199 223 255
199 223 255
199 223 255
199 223 255
199 223 255
199 223 255
199 223 255
199 223 255
199 223 255
199 223 255
198 223 255
198 223 255
198 223 255
198 223 255
198 223 255
198 223 255
198 223 255
198 223 255
198 223 255
198 223 255
198 223 255
198 223 255
198 223 255
198 223 255
198 223 255
197 223 255
197 222 255
197 222 255
197 222 255
197 222 255
197 222 255
197 222 255
197 222 255
197 222 255
197 222 255
197 222 255
197 222 255
197 222 255
197 222 255
197 222 255
197 222 255
196 222 255
196 222 255
196 222 255
196 222 255
196 222 255
196 222 255
196 222 255
196 222 255
196 222 255
196 222 255
196 222 255
196 222 255
196 222 255
196 222 255
196 222 255
196 222 255
196 221 255
196 221 255
195 221 255
195 221 255
195 221 255
195 221 255
195 221 255
195 221 255
195 221 255
195 221 255
195 221 255
195 221 255
195 221 255
195 221 255
195 221 255
195 221 255
195 221 255
195 221 255
195 221 255
195 221 255
195 221 255
195 221 255
195 221 255
195 221 255
195 221 255
195 221 255
195 221 255
195 221 255
195 221 255
195 221 255
195 221 255
195 221 255
195 221 255
194 221 255
194 221 255
194 221 255
194 221 255
194 221 255
194 221 255
194 221 255
194 221 255
194 221 255
194 221 255
194 221 255
194 221 255
194 221 255
194 221 255
194 221 255
194 221 255
194 221 255
194 221 255
194 221 255
194 221 255
194 221 255
194 221 255
194 221 255
194 221 255
194 221 255
194 221 255
194 221 255
194 221 255
194 221 255
195 221 255
195 221 255
195 221 255
195 221 255
195 221 255
195 221 255
195 221 255
195 221 255
195 221 255
195 221 255
195 221 255
195 221 255
195 221 255
195 221 255
195 221 255
195 221 255
195 221 255
195 221 255
195 221 255
195 221 255
195 221 255
195 221 255
195 221 255
195 221 255
195 221 255
195 221 255
195 221 255
195 221 255
195 221 255
195 221 255
196 221 255
196 222 255
196 222 255
196 222 255
196 222 255
196 222 255
196 222 255
196 222 255
196 222 255
196 222 255
196 222 255
196 222 255
196 222 255
196 222 255
196 222 255
196 222 255
196 222 255
196 222 255
197 222 255
197 222 255
197 222 255
197 222 255
197 222 255
197 222 255
197 222 255
197 222 255
197 222 255
197 222 255
197 222 255
197 222 255
197 222 255
197 222 255
197 222 255
197 223 255
198 223 255
198 223 255
198 223 255
198 223 255
198 223 255
198 223 255
198 223 255
198 223 255
198 223 255
198 223 255
198 223 255
198 223 255
198 223 255
198 223 255
198 223 255
199 223 255
199 223 255
199 223 255
199 223 255
199 223 255
199 223 255
199 223 255
199 223 255
199 223 255
199 223 255
199 223 255
199 223 255
199 224 255
199 224 255
200 224 255
200 224 255
200 224 255
200 224 255
200 224 255
200 224 255
200 224 255
200 224 255
200 224 255
200 224 255
200 224 255
200 224 255
200 224 255
200 224 255
201 224 255
201 224 255
201 224 255
201 224 255
201 224 255
201 224 255
201 224 255
201 224 255
201 224 255
201 224 255
201 224 255
201 225 255
201 225 255
201 225 255
201 225 255
202 225 255
202 225 255
202 225 255
202 225 255
202 225 255
202 225 255
202 225 255
202 225 255
202 225 255
202 225 255
202 225 255
202 225 255
202 225 255
202 225 255
202 225 255
203 225 255
203 225 255
203 225 255
203 225 255
203 225 255
203 225 255
203 225 255
203 225 255
203 225 255
203 226 255
203 226 255
203 226 255
203 226 255
203 226 255
203 226 255
203 226 255
203 226 255
204 226 255
204 226 255
204 226 255
204 226 255
204 226 255
204 226 255
204 226 255
204 226 255
204 226 255
204 226 255
204 226 255
204 226 255
204 226 255
204 226 255
204 226 255
204 226 255
204 226 255
205 226 255
205 226 255
205 226 255
205 226 255
205 226 255
205 226 255
205 226 255
205 227 255
205 227 255
205 227 255
205 227 255
205 227 255
205 227 255
205 227 255
205 227 255
205 227 255
205 227 255
205 227 255
205 227 255
205 227 255
205 227 255
205 227 255
205 227 255
205 226 255
205 226 255
205 226 255
205 226 255
205 226 255
205 226 255
205 226 255
204 226 255
204 226 255
204 226 255
204 226 255
204 226 255
204 226 255
204 226 255
204 226 255
204 226 255
204 226 255
204 226 255
204 226 255
204 226 255
204 226 255
204 226 255
204 226 255
204 226 255
204 226 255
203 226 255
203 226 255
203 226 255
203 226 255
203 226 255
203 226 255
203 226 255
203 225 255
203 225 255
203 225 255
203 225 255
203 225 255
203 225 255
203 225 255
203 225 255
203 225 255
202 225 255
202 225 255
202 225 255
202 225 255
202 225 255
202 225 255
202 225 255
202 225 255
202 225 255
202 225 255
202 225 255
202 225 255
202 225 255
202 225 255
202 225 255
201 225 255
201 225 255
201 225 255
201 225 255
201 225 255
201 224 255
201 224 255
201 224 255
201 224 255
201 224 255
201 224 255
201 224 255
201 224 255
201 224 255
201 224 255
200 224 255
200 224 255
200 224 255
200 224 255
200 224 255
200 224 255
200 224 255
200 224 255
200 224 255
200 224 255
200 224 255
200 224 255
200 224 255
200 224 255
199 224 255
199 224 255
199 223 255
199 223 255
199 223 255
199 223 255
199 223 255
199 223 255
199 223 255
199 223 255
199 223 255
199 223 255
199 223 255
199 223 255
199 223 255
198 223 255
198 223 255
198 223 255
198 223 255
198 223 255
198 223 255
198 223 255
198 223 255
198 223 255
198 223 255
198 223 255
198 223 255
198 223 255
198 223 255
197 223 255
197 222 255
197 222 255
197 222 255
197 222 255
197 222 255
197 222 255
197 222 255
197 222 255
197 222 255
197 222 255
197 222 255
197 222 255
197 222 255
197 222 255
197 222 255
197 222 255
196 222 255
196 222 255
196 222 255
196 222 255
196 222 255
196 222 255
196 222 255
196 222 255
196 222 255
196 222 255
196 222 255
196 222 255
196 222 255
196 222 255
196 222 255
196 222 255
196 222 255
196 221 255
196 221 255
195 221 255
195 221 255
195 221 255
195 221 255
195 221 255
195 221 255
195 221 255
195 221 255
195 221 255
195 221 255
195 221 255
195 221 255
195 221 255
195 221 255
195 221 255
195 221 255
195 221 255
195 221 255
195 221 255
195 221 255
195 221 255
195 221 255
195 221 255
195 221 255
195 221 255
195 221 255
195 221 255
195 221 255
195 221 255
195 221 255
195 221 255
195 221 255
195 221 255
195 221 255
195 221 255
195 221 255
195 221 255
195 221 255
195 221 255
195 221 255
195 221 255
195 221 255
195 221 255
195 221 255
195 221 255
195 221 255
195 221 255
195 221 255
195 221 255
195 221 255
195 221 255
195 221 255
195 221 255
195 221 255
195 221 255
195 221 255
195 221 255
195 221 255
195 221 255
195 221 255
195 221 255
195 221 255
195 221 255
195 221 255
195 221 255
195 221 255
195 221 255
195 221 255
195 221 255
195 221 255
195 221 255
195 221 255
195 221 255
195 221 255
195 221 255
195 221 255
195 221 255
195 221 255
195 221 255
195 221 255
195 221 255
195 221 255
195 221 255
196 221 255
196 222 255
196 222 255
196 222 255
196 222 255
196 222 255
196 222 255
196 222 255
196 222 255
196 222 255
196 222 255
196 222 255
196 222 255
196 222 255
196 222 255
196 222 255
196 222 255
196 222 255
197 222 255
197 222 255
197 222 255
197 222 255
197 222 255
197 222 255
197 222 255
197 222 255
197 222 255
197 222 255
197 222 255
197 222 255
197 222 255
197 222 255
197 222 255
197 222 255
197 223 255
198 223 255
198 223 255
198 223 255
198 223 255
198 223 255
198 223 255
198 223 255
198 223 255
198 223 255
198 223 255
198 223 255
198 223 255
198 223 255
198 223 255
199 223 255
199 223 255
199 223 255
199 223 255
199 223 255
199 223 255
199 223 255
199 223 255
199 223 255
199 223 255
199 223 255
199 223 255
199 223 255
199 224 255
199 224 255
200 224 255
200 224 255
200 224 255
200 224 255
200 224 255
200 224 255
200 224 255
200 224 255
200 224 255
200 224 255
200 224 255
200 224 255
200 224 255
200 224 255
201 224 255
201 224 255
201 224 255
201 224 255
201 224 255
201 224 255
201 224 255
201 224 255
201 224 255
201 224 255
201 224 255
201 225 255
201 225 255
201 225 255
201 225 255
202 225 255
202 225 255
202 225 255
202 225 255
202 225 255
202 225 255
202 225 255
202 225 255
202 225 255
202 225 255
202 225 255
202 225 255
202 225 255
202 225 255
202 225 255
203 225 255
203 225 255
203 225 255
203 225 255
203 225 255
203 225 255
203 225 255
203 225 255
203 225 255
203 226 255
203 226 255
203 226 255
203 226 255
203 226 255
203 226 255
203 226 255
204 226 255
204 226 255
204 226 255
204 226 255
204 226 255
204 226 255
204 226 255
204 226 255
204 226 255
204 226 255
204 226 255
204 226 255
204 226 255
204 226 255
204 226 255
204 226 255
204 226 255
204 226 255
205 226 255
205 226 255
205 226 255
205 226 255
205 226 255
205 226 255
205 226 255
205 227 255
205 227 255
205 227 255
205 227 255
205 227 255
205 227 255
205 227 255
205 227 255
205 227 255
205 227 255
205 227 255
205 227 255
205 227 255
205 227 255
205 227 255
205 227 255
205 227 255
205 227 255
205 227 255
205 227 255
205 227 255
205 226 255
205 226 255
205 226 255
205 226 255
205 226 255
205 226 255
205 226 255
204 226 255
204 226 255
204 226 255
204 226 255
204 226 255
204 226 255
204 226 255
204 226 255
204 226 255
204 226 255
204 226 255
204 226 255
204 226 255
204 226 255
204 226 255
204 226 255
204 226 255
203 226 255
203 226 255
203 226 255
203 226 255
203 226 255
203 226 255
203 226 255
203 225 255
203 225 255
203 225 255
203 225 255
203 225 255
203 225 255
203 225 255
203 225 255
203 225 255
202 225 255
202 225 255
202 225 255
202 225 255
202 225 255
202 225 255
202 225 255
202 225 255
202 225 255
202 225 255
202 225 255
202 225 255
202 225 255
202 225 255
202 225 255
201 225 255
201 225 255
201 225 255
201 225 255
201 225 255
201 224 255
201 224 255
201 224 255
201 224 255
201 224 255
201 224 255
201 224 255
201 224 255
201 224 255
201 224 255
200 224 255
200 224 255
200 224 255
200 224 255
200 224 255
200 224 255
200 224 255
200 224 255
200 224 255
200 224 255
200 224 255
200 224 255
200 224 255
200 224 255
199 224 255
199 224 255
199 224 255
199 223 255
199 223 255
199 223 255
199 223 255
199 223 255
199 223 255
199 223 255
199 223 255
199 223 255
199 223 255
199 223 255
199 223 255
198 223 255
198 223 255
198 223 255
198 223 255
198 223 255
198 223 255
198 223 255
198 223 255
198 223 255
198 223 255
198 223 255
198 223 255
198 223 255
198 223 255
198 223 255
197 222 255
197 222 255
197 222 255
197 222 255
197 222 255
197 222 255
197 222 255
197 222 255
197 222 255
197 222 255
197 222 255
197 222 255
197 222 255
197 222 255
197 222 255
197 222 255
196 222 255
196 222 255
196 222 255
196 222 255
196 222 255
196 222 255
196 222 255
196 222 255
196 222 255
196 222 255
196 222 255
196 222 255
196 222 255
196 222 255
196 222 255
196 222 255
196 222 255
196 222 255
196 221 255
196 221 255
195 221 255
195 221 255
195 221 255
195 221 255
195 221 255
195 221 255
195 221 255
195 221 255
195 221 255
195 221 255
195 221 255
195 221 255
195 221 255
195 221 255
195 221 255
195 221 255
195 221 255
195 221 255
195 221 255
195 221 255
195 221 255
195 221 255
195 221 255
195 221 255
195 221 255
195 221 255
195 221 255
195 221 255
195 221 255
195 221 255
195 221 255
195 221 255
195 221 255
195 221 255
195 221 255
195 221 255
195 221 255
195 221 255
195 221 255
195 221 255
195 221 255
195 221 255
195 221 255
195 221 255
195 221 255
195 221 255
195 221 255
195 221 255
195 221 255
195 221 255
195 221 255
195 221 255
195 221 255
195 221 255
195 221 255
195 221 255
195 221 255
195 221 255
195 221 255
195 221 255
195 221 255
195 221 255
195 221 255
195 221 255
195 221 255
195 221 255
195 221 255
195 221 255
195 221 255
195 221 255
195 221 255
195 221 255
195 221 255
195 221 255
195 221 255
195 221 255
196 221 255
196 221 255
196 222 255
196 222 255
196 222 255
196 222 255
196 222 255
196 222 255
196 222 255
196 222 255
196 222 255
196 222 255
196 222 255
196 222 255
196 222 255
196 222 255
196 222 255
196 222 255
196 222 255
196 222 255
197 222 255
197 222 255
197 222 255
197 222 255
197 222 255
197 222 255
197 222 255
197 222 255
197 222 255
197 222 255
197 222 255
197 222 255
197 222 255
197 222 255
197 222 255
197 222 255
198 223 255
198 223 255
198 223 255
198 223 255
198 223 255
198 223 255
198 223 255
198 223 255
198 223 255
198 223 255
198 223 255
198 223 255
198 223 255
198 223 255
198 223 255
199 223 255
199 223 255
199 223 255
199 223 255
199 223 255
199 223 255
199 223 255
199 223 255
199 223 255
199 223 255
199 223 255
199 223 255
199 224 255
199 224 255
199 224 255
200 224 255
200 224 255
200 224 255
200 224 255
200 224 255
200 224 255
200 224 255
200 224 255
200 224 255
200 224 255
200 224 255
200 224 255
200 224 255
200 224 255
201 224 255
201 224 255
201 224 255
201 224 255
201 224 255
201 224 255
201 224 255
201 224 255
201 224 255
201 224 255
201 225 255
201 225 255
201 225 255
201 225 255
201 225 255
202 225 255
202 225 255
202 225 255
202 225 255
202 225 255
202 225 255
202 225 255
202 225 255
202 225 255
202 225 255
202 225 255
202 225 255
202 225 255
202 225 255
202 225 255
203 225 255
203 225 255
203 225 255
203 225 255
203 225 255
203 225 255
203 225 255
203 225 255
203 225 255
203 226 255
203 226 255
203 226 255
203 226 255
203 226 255
203 226 255
203 226 255
204 226 255
204 226 255
204 226 255
204 226 255
204 226 255
204 226 255
204 226 255
204 226 255
204 226 255
204 226 255
204 226 255
204 226 255
204 226 255
204 226 255
204 226 255
204 226 255
204 226 255
205 226 255
205 226 255
205 226 255
205 226 255
205 226 255
205 226 255
205 226 255
205 227 255
205 227 255
205 227 255
205 227 255
205 227 255
205 227 255
205 227 255
205 227 255
205 227 255
205 227 255
205 227 255
205 227 255
206 227 255
206 227 255
206 227 255
205 227 255
205 227 255
205 227 255
205 227 255
205 227 255
205 227 255
205 227 255
205 227 255
205 227 255
205 227 255
205 227 255
205 226 255
205 226 255
205 226 255
205 226 255
205 226 255
205 226 255
205 226 255
204 226 255
204 226 255
204 226 255
204 226 255
204 226 255
204 226 255
204 226 255
204 226 255
204 226 255
204 226 255
204 226 255
204 226 255
204 226 255
204 226 255
204 226 255
204 226 255
204 226 255
203 226 255
203 226 255
203 226 255
203 226 255
203 226 255
203 226 255
203 226 255
203 226 255
203 225 255
203 225 255
203 225 255
203 225 255
203 225 255
203 225 255
203 225 255
203 225 255
202 225 255
202 225 255
202 225 255
202 225 255
202 225 255
202 225 255
202 225 255
202 225 255
202 225 255
202 225 255
202 225 255
202 225 255
202 225 255
202 225 255
202 225 255
202 225 255
201 225 255
201 225 255
201 225 255
201 225 255
201 224 255
201 224 255
201 224 255
201 224 255
201 224 255
201 224 255
201 224 255
201 224 255
201 224 255
201 224 255
200 224 255
200 224 255
200 224 255
200 224 255
200 224 255
200 224 255
200 224 255
200 224 255
200 224 255
200 224 255
200 224 255
200 224 255
200 224 255
200 224 255
200 224 255
199 224 255
199 224 255
199 223 255
199 223 255
199 223 255
199 223 255
199 223 255
199 223 255
199 223 255
199 223 255
199 223 255
199 223 255
199 223 255
199 223 255
198 223 255
198 223 255
198 223 255
198 223 255
198 223 255
198 223 255
198 223 255
198 223 255
198 223 255
198 223 255
198 223 255
198 223 255
198 223 255
198 223 255
198 223 255
197 223 255
197 222 255
197 222 255
197 222 255
197 222 255
197 222 255
197 222 255
197 222 255
197 222 255
197 222 255
197 222 255
197 222 255
197 222 255
197 222 255
197 222 255
197 222 255
197 222 255
196 222 255
196 222 255
196 222 255
196 222 255
196 222 255
196 222 255
196 222 255
196 222 255
196 222 255
196 222 255
196 222 255
196 222 255
196 222 255
196 222 255
196 222 255
196 222 255
196 222 255
196 222 255
196 222 255
196 221 255
196 221 255
195 221 255
195 221 255
195 221 255
195 221 255
195 221 255
195 221 255
195 221 255
195 221 255
195 221 255
195 221 255
195 221 255
195 221 255
195 221 255
195 221 255
195 221 255
195 221 255
195 221 255
195 221 255
195 221 255
195 221 255
195 221 255
195 221 255
195 221 255
195 221 255
195 221 255
195 221 255
195 221 255
195 221 255
195 221 255
195 221 255
195 221 255
195 221 255
195 221 255
195 221 255
195 221 255
195 221 255
195 221 255
195 221 255
195 221 255
195 221 255
195 221 255
195 221 255
195 221 255
195 221 255
195 221 255
195 221 255
195 221 255
195 221 255
195 221 255
195 221 255
195 221 255
195 221 255
195 221 255
195 221 255
195 221 255
195 221 255
195 221 255
195 221 255
195 221 255
195 221 255
195 221 255
195 221 255
195 221 255
195 221 255
195 221 255
195 221 255
195 221 255
195 221 255
196 221 255
196 221 255
196 222 255
196 222 255
196 222 255
196 222 255
196 222 255
196 222 255
196 222 255
196 222 255
196 222 255
196 222 255
196 222 255
196 222 255
196 222 255
196 222 255
196 222 255
196 222 255
196 222 255
196 222 255
196 222 255
197 222 255
197 222 255
197 222 255
197 222 255
197 222 255
197 222 255
197 222 255
197 222 255
197 222 255
197 222 255
197 222 255
197 222 255
197 222 255
197 222 255
197 222 255
197 222 255
197 223 255
198 223 255
198 223 255
198 223 255
198 223 255
198 223 255
198 223 255
198 223 255
198 223 255
198 223 255
198 223 255
198 223 255
198 223 255
198 223 255
198 223 255
198 223 255
199 223 255
199 223 255
199 223 255
199 223 255
199 223 255
199 223 255
199 223 255
199 223 255
199 223 255
199 223 255
199 223 255
199 223 255
199 224 255
199 224 255
200 224 255
200 224 255
200 224 255
200 224 255
200 224 255
200 224 255
200 224 255
200 224 255
200 224 255
200 224 255
200 224 255
200 224 255
200 224 255
200 224 255
200 224 255
201 224 255
201 224 255
201 224 255
201 224 255
201 224 255
201 224 255
201 224 255
201 224 255
201 224 255
201 224 255
201 225 255
201 225 255
201 225 255
201 225 255
202 225 255
202 225 255
202 225 255
202 225 255
202 225 255
202 225 255
202 225 255
202 225 255
202 225 255
202 225 255
202 225 255
202 225 255
202 225 255
202 225 255
202 225 255
202 225 255
203 225 255
203 225 255
203 225 255
203 225 255
203 225 255
203 225 255
203 225 255
203 225 255
203 226 255
203 226 255
203 226 255
203 226 255
203 226 255
203 226 255
203 226 255
203 226 255
204 226 255
204 226 255
204 226 255
204 226 255
204 226 255
204 226 255
204 226 255
204 226 255
204 226 255
204 226 255
204 226 255
204 226 255
204 226 255
204 226 255
204 226 255
204 226 255
204 226 255
205 226 255
205 226 255
205 226 255
205 226 255
205 226 255
205 226 255
205 226 255
205 227 255
205 227 255
205 227 255
205 227 255
205 227 255
205 227 255
205 227 255
205 227 255
205 227 255
205 227 255
205 227 255
206 227 255
206 227 255
206 227 255
206 227 255
206 227 255
206 227 255
206 227 255
206 227 255
205 227 255
205 227 255
205 227 255
205 227 255
205 227 255
205 227 255
205 227 255
205 227 255
205 227 255
205 227 255
205 227 255
205 227 255
205 226 255
205 226 255
205 226 255
205 226 255
205 226 255
205 226 255
205 226 255
204 226 255
204 226 255
204 226 255
204 226 255
204 226 255
204 226 255
204 226 255
204 226 255
204 226 255
204 226 255
204 226 255
204 226 255
204 226 255
204 226 255
204 226 255
204 226 255
204 226 255
203 226 255
203 226 255
203 226 255
203 226 255
203 226 255
203 226 255
203 226 255
203 225 255
203 225 255
203 225 255
203 225 255
203 225 255
203 225 255
203 225 255
203 225 255
203 225 255
202 225 255
202 225 255
202 225 255
202 225 255
202 225 255
202 225 255
202 225 255
202 225 255
202 225 255
202 225 255
202 225 255
202 225 255
202 225 255
202 225 255
202 225 255
201 225 255
201 225 255
201 225 255
201 225 255
201 224 255
201 224 255
201 224 255
201 224 255
201 224 255
201 224 255
201 224 255
201 224 255
201 224 255
201 224 255
200 224 255
200 224 255
200 224 255
200 224 255
200 224 255
200 224 255
200 224 255
200 224 255
200 224 255
200 224 255
200 224 255
200 224 255
200 224 255
200 224 255
200 224 255
199 224 255
199 224 255
199 223 255
199 223 255
199 223 255
199 223 255
199 223 255
199 223 255
199 223 255
199 223 255
199 223 255
199 223 255
199 223 255
199 223 255
198 223 255
198 223 255
198 223 255
198 223 255
198 223 255
198 223 255
198 223 255
198 223 255
198 223 255
198 223 255
198 223 255
198 223 255
198 223 255
198 223 255
198 223 255
198 223 255
197 222 255
197 222 255
197 222 255
197 222 255
197 222 255
197 222 255
197 222 255
197 222 255
197 222 255
197 222 255
197 222 255
197 222 255
197 222 255
197 222 255
197 222 255
197 222 255
197 222 255
196 222 255
196 222 255
196 222 255
196 222 255
196 222 255
196 222 255
196 222 255
196 222 255
196 222 255
196 222 255
196 222 255
196 222 255
196 222 255
196 222 255
196 222 255
196 222 255
196 222 255
196 222 255
196 222 255
196 222 255
196 221 255
196 221 255
195 221 255
195 221 255
195 221 255
195 221 255
195 221 255
195 221 255
195 221 255
195 221 255
195 221 255
195 221 255
195 221 255
195 221 255
195 221 255
195 221 255
195 221 255
195 221 255
195 221 255
195 221 255
195 221 255
195 221 255
195 221 255
195 221 255
195 221 255
195 221 255
195 221 255
195 221 255
195 221 255
195 221 255
195 221 255
195 221 255
195 221 255
195 221 255
195 221 255
195 221 255
195 221 255
195 221 255
195 221 255
195 221 255
195 221 255
195 221 255
195 221 255
195 221 255
195 221 255
195 221 255
195 221 255
195 221 255
195 221 255
195 221 255
195 221 255
195 221 255
195 221 255
195 221 255
195 221 255
195 221 255
195 221 255
195 221 255
195 221 255
195 221 255
195 221 255
195 221 255
196 221 255
196 221 255
196 221 255
196 222 255
196 222 255
196 222 255
196 222 255
196 222 255
196 222 255
196 222 255
196 222 255
196 222 255
196 222 255
196 222 255
196 222 255
196 222 255
196 222 255
196 222 255
196 222 255
196 222 255
196 222 255
196 222 255
197 222 255
197 222 255
197 222 255
197 222 255
197 222 255
197 222 255
197 222 255
197 222 255
197 222 255
197 222 255
197 222 255
197 222 255
197 222 255
197 222 255
197 222 255
197 222 255
197 222 255
198 223 255
198 223 255
198 223 255
198 223 255
198 223 255
198 223 255
198 223 255
198 223 255
198 223 255
198 223 255
198 223 255
198 223 255
198 223 255
198 223 255
198 223 255
198 223 255
199 223 255
199 223 255
199 223 255
199 223 255
199 223 255
199 223 255
199 223 255
199 223 255
199 223 255
199 223 255
199 223 255
199 223 255
199 224 255
199 224 255
200 224 255
200 224 255
200 224 255
200 224 255
200 224 255
200 224 255
200 224 255
200 224 255
200 224 255
200 224 255
200 224 255
200 224 255
200 224 255
200 224 255
200 224 255
201 224 255
201 224 255
201 224 255
201 224 255
201 224 255
201 224 255
201 224 255
201 224 255
201 224 255
201 224 255
201 225 255
201 225 255
201 225 255
201 225 255
202 225 255
202 225 255
202 225 255
202 225 255
202 225 255
202 225 255
202 225 255
202 225 255
202 225 255
202 225 255
202 225 255
202 225 255
202 225 255
202 225 255
202 225 255
203 225 255
203 225 255
203 225 255
203 225 255
203 225 255
203 225 255
203 225 255
203 225 255
203 225 255
203 226 255
203 226 255
203 226 255
203 226 255
203 226 255
203 226 255
203 226 255
204 226 255
204 226 255
204 226 255
204 226 255
204 226 255
204 226 255
204 226 255
204 226 255
204 226 255
204 226 255
204 226 255
204 226 255
204 226 255
204 226 255
204 226 255
204 226 255
204 226 255
205 226 255
205 226 255
205 226 255
205 226 255
205 226 255
205 226 255
205 226 255
205 227 255
205 227 255
205 227 255
205 227 255
205 227 255
205 227 255
205 227 255
205 227 255
205 227 255
205 227 255
205 227 255
205 227 255
206 227 255
206 227 255
206 227 255
206 227 255
206 227 255
206 227 255
206 227 255
206 227 255
206 227 255
206 227 255
206 227 255
206 227 255
206 227 255
205 227 255
205 227 255
205 227 255
205 227 255
205 227 255
205 227 255
205 227 255
205 227 255
205 227 255
205 227 255
205 227 255
205 226 255
205 226 255
205 226 255
205 226 255
205 226 255
205 226 255
205 226 255
204 226 255
204 226 255
204 226 255
204 226 255
204 226 255
204 226 255
204 226 255
204 226 255
204 226 255
204 226 255
204 226 255
204 226 255
204 226 255
204 226 255
204 226 255
204 226 255
204 226 255
203 226 255
203 226 255
203 226 255
203 226 255
203 226 255
203 226 255
203 226 255
203 225 255
203 225 255
203 225 255
203 225 255
203 225 255
203 225 255
203 225 255
203 225 255
203 225 255
202 225 255
202 225 255
202 225 255
202 225 255
202 225 255
202 225 255
202 225 255
202 225 255
202 225 255
202 225 255
202 225 255
202 225 255
202 225 255
202 225 255
202 225 255
201 225 255
201 225 255
201 225 255
201 225 255
201 225 255
201 224 255
201 224 255
201 224 255
201 224 255
201 224 255
201 224 255
201 224 255
201 224 255
201 224 255
201 224 255
200 224 255
200 224 255
200 224 255
200 224 255
200 224 255
200 224 255
200 224 255
200 224 255
200 224 255
200 224 255
200 224 255
200 224 255
200 224 255
200 224 255
199 224 255
199 224 255
199 223 255
199 223 255
199 223 255
199 223 255
199 223 255
199 223 255
199 223 255
199 223 255
199 223 255
199 223 255
199 223 255
199 223 255
199 223 255
198 223 255
198 223 255
198 223 255
198 223 255
198 223 255
198 223 255
198 223 255
198 223 255
198 223 255
198 223 255
198 223 255
198 223 255
198 223 255
198 223 255
198 223 255
197 223 255
197 222 255
197 222 255
197 222 255
197 222 255
197 222 255
197 222 255
197 222 255
197 222 255
197 222 255
197 222 255
197 222 255
197 222 255
197 222 255
197 222 255
197 222 255
197 222 255
197 222 255
196 222 255
196 222 255
196 222 255
196 222 255
196 222 255
196 222 255
196 222 255
196 222 255
196 222 255
196 222 255
196 222 255
196 222 255
196 222 255
196 222 255
196 222 255
196 222 255
196 222 255
196 222 255
196 222 255
196 222 255
196 222 255
196 221 255
196 221 255
196 221 255
195 221 255
195 221 255
195 221 255
195 221 255
195 221 255
195 221 255
195 221 255
195 221 255
195 221 255
195 221 255
195 221 255
195 221 255
195 221 255
195 221 255
195 221 255
195 221 255
195 221 255
195 221 255
195 221 255
195 221 255
195 221 255
195 221 255
195 221 255
195 221 255
195 221 255
195 221 255
195 221 255
195 221 255
195 221 255
195 221 255
195 221 255
195 221 255
195 221 255
195 221 255
195 221 255
195 221 255
195 221 255
195 221 255
195 221 255
195 221 255
195 221 255
195 221 255
195 221 255
195 221 255
195 221 255
195 221 255
195 221 255
195 221 255
195 221 255
195 221 255
196 221 255
196 221 255
196 221 255
196 222 255
196 222 255
196 222 255
196 222 255
196 222 255
196 222 255
196 222 255
196 222 255
196 222 255
196 222 255
196 222 255
196 222 255
196 222 255
196 222 255
196 222 255
196 222 255
196 222 255
196 222 255
196 222 255
196 222 255
196 222 255
197 222 255
197 222 255
197 222 255
197 222 255
197 222 255
197 222 255
197 222 255
197 222 255
197 222 255
197 222 255
197 222 255
197 222 255
197 222 255
197 222 255
197 222 255
197 222 255
197 222 255
197 222 255
198 223 255
198 223 255
198 223 255
198 223 255
198 223 255
198 223 255
198 223 255
198 223 255
198 223 255
198 223 255
198 223 255
198 223 255
198 223 255
198 223 255
198 223 255
199 223 255
199 223 255
199 223 255
199 223 255
199 223 255
199 223 255
199 223 255
199 223 255
199 223 255
199 223 255
199 223 255
199 223 255
199 224 255
199 224 255
199 224 255
200 224 255
200 224 255
200 224 255
200 224 255
200 224 255
200 224 255
200 224 255
200 224 255
200 224 255
200 224 255
200 224 255
200 224 255
200 224 255
200 224 255
201 224 255
201 224 255
201 224 255
201 224 255
201 224 255
201 224 255
201 224 255
201 224 255
201 224 255
201 224 255
201 224 255
201 225 255
201 225 255
201 225 255
201 225 255
202 225 255
202 225 255
202 225 255
202 225 255
202 225 255
202 225 255
202 225 255
202 225 255
202 225 255
202 225 255
202 225 255
202 225 255
202 225 255
202 225 255
202 225 255
203 225 255
203 225 255
203 225 255
203 225 255
203 225 255
203 225 255
203 225 255
203 225 255
203 225 255
203 226 255
203 226 255
203 226 255
203 226 255
203 226 255
203 226 255
203 226 255
204 226 255
204 226 255
204 226 255
204 226 255
204 226 255
204 226 255
204 226 255
204 226 255
204 226 255
204 226 255
204 226 255
204 226 255
204 226 255
204 226 255
204 226 255
204 226 255
204 226 255
205 226 255
205 226 255
205 226 255
205 226 255
205 226 255
205 226 255
205 226 255
205 227 255
205 227 255
205 227 255
205 227 255
205 227 255
205 227 255
205 227 255
205 227 255
205 227 255
205 227 255
205 227 255
206 227 255
206 227 255
206 227 255
206 227 255
206 227 255
206 227 255
206 227 255
206 227 255
206 227 255
206 227 255
206 227 255
206 227 255
206 227 255
206 227 255
206 227 255
206 227 255
206 227 255
206 227 255
206 227 255
205 227 255
205 227 255
205 227 255
205 227 255
205 227 255
205 227 255
205 227 255
205 227 255
205 227 255
205 227 255
205 227 255
205 226 255
205 226 255
205 226 255
205 226 255
205 226 255
205 226 255
205 226 255
204 226 255
204 226 255
204 226 255
204 226 255
204 226 255
204 226 255
204 226 255
204 226 255
204 226 255
204 226 255
204 226 255
204 226 255
204 226 255
204 226 255
204 226 255
204 226 255
203 226 255
203 226 255
203 226 255
203 226 255
203 226 255
203 226 255
203 226 255
203 226 255
203 225 255
203 225 255
203 225 255
203 225 255
203 225 255
203 225 255
203 225 255
203 225 255
202 225 255
202 225 255
202 225 255
202 225 255
202 225 255
202 225 255
202 225 255
202 225 255
202 225 255
202 225 255
202 225 255
202 225 255
202 225 255
202 225 255
202 225 255
201 225 255
201 225 255
201 225 255
201 225 255
201 225 255
201 224 255
201 224 255
201 224 255
201 224 255
201 224 255
201 224 255
201 224 255
201 224 255
201 224 255
201 224 255
200 224 255
200 224 255
200 224 255
200 224 255
200 224 255
200 224 255
200 224 255
200 224 255
200 224 255
200 224 255
200 224 255
200 224 255
200 224 255
200 224 255
199 224 255
199 224 255
199 224 255
199 223 255
199 223 255
199 223 255
199 223 255
199 223 255
199 223 255
199 223 255
199 223 255
199 223 255
199 223 255
199 223 255
199 223 255
198 223 255
198 223 255
198 223 255
198 223 255
198 223 255
198 223 255
198 223 255
198 223 255
198 223 255
198 223 255
198 223 255
198 223 255
198 223 255
198 223 255
198 223 255
198 223 255
197 222 255
197 222 255
197 222 255
197 222 255
197 222 255
197 222 255
197 222 255
197 222 255
197 222 255
197 222 255
197 222 255
197 222 255
197 222 255
197 222 255
197 222 255
197 222 255
197 222 255
197 222 255
196 222 255
196 222 255
196 222 255
196 222 255
196 222 255
196 222 255
196 222 255
196 222 255
196 222 255
196 222 255
196 222 255
196 222 255
196 222 255
196 222 255
196 222 255
196 222 255
196 222 255
196 222 255
196 222 255
196 222 255
196 222 255
196 222 255
196 222 255
196 222 255
196 221 255
196 221 255
196 221 255
195 221 255
195 221 255
195 221 255
195 221 255
195 221 255
195 221 255
195 221 255
195 221 255
195 221 255
195 221 255
195 221 255
195 221 255
195 221 255
195 221 255
195 221 255
195 221 255
195 221 255
195 221 255
195 221 255
195 221 255
195 221 255
195 221 255
195 221 255
195 221 255
195 221 255
195 221 255
195 221 255
195 221 255
195 221 255
195 221 255
195 221 255
195 221 255
195 221 255
195 221 255
195 221 255
195 221 255
195 221 255
195 221 255
196 221 255
196 221 255
196 221 255
196 221 255
196 222 255
196 222 255
196 222 255
196 222 255
196 222 255
196 222 255
196 222 255
196 222 255
196 222 255
196 222 255
196 222 255
196 222 255
196 222 255
196 222 255
196 222 255
196 222 255
196 222 255
196 222 255
196 222 255
196 222 255
196 222 255
196 222 255
196 222 255
197 222 255
197 222 255
197 222 255
197 222 255
197 222 255
197 222 255
197 222 255
197 222 255
197 222 255
197 222 255
197 222 255
197 222 255
197 222 255
197 222 255
197 222 255
197 222 255
197 222 255
197 222 255
198 223 255
198 223 255
198 223 255
198 223 255
198 223 255
198 223 255
198 223 255
198 223 255
198 223 255
198 223 255
198 223 255
198 223 255
198 223 255
198 223 255
198 223 255
198 223 255
199 223 255
199 223 255
199 223 255
199 223 255
199 223 255
199 223 255
199 223 255
199 223 255
199 223 255
199 223 255
199 223 255
199 223 255
199 224 255
199 224 255
199 224 255
200 224 255
200 224 255
200 224 255
200 224 255
200 224 255
200 224 255
200 224 255
200 224 255
200 224 255
200 224 255
200 224 255
200 224 255
200 224 255
200 224 255
201 224 255
201 224 255
201 224 255
201 224 255
201 224 255
201 224 255
201 224 255
201 224 255
201 224 255
201 224 255
201 225 255
201 225 255
201 225 255
201 225 255
201 225 255
202 225 255
202 225 255
202 225 255
202 225 255
202 225 255
202 225 255
202 225 255
202 225 255
202 225 255
202 225 255
202 225 255
202 225 255
202 225 255
202 225 255
202 225 255
203 225 255
203 225 255
203 225 255
203 225 255
203 225 255
203 225 255
203 225 255
203 225 255
203 226 255
203 226 255
203 226 255
203 226 255
203 226 255
203 226 255
203 226 255
204 226 255
204 226 255
204 226 255
204 226 255
204 226 255
204 226 255
204 226 255
204 226 255
204 226 255
204 226 255
204 226 255
204 226 255
204 226 255
204 226 255
204 226 255
204 226 255
204 226 255
205 226 255
205 226 255
205 226 255
205 226 255
205 226 255
205 226 255
205 226 255
205 227 255
205 227 255
205 227 255
205 227 255
205 227 255
205 227 255
205 227 255
205 227 255
205 227 255
205 227 255
205 227 255
205 227 255
206 227 255
206 227 255
206 227 255
206 227 255
206 227 255
206 227 255
206 227 255
206 227 255
206 227 255
206 227 255
206 227 255
206 227 255
206 227 255
206 227 255
206 227 255
206 227 255
206 227 255
206 227 255
206 227 255
206 227 255
206 227 255
206 227 255
206 227 255
205 227 255
205 227 255
205 227 255
205 227 255
205 227 255
205 227 255
205 227 255
205 227 255
205 227 255
205 227 255
205 227 255
205 226 255
205 226 255
205 226 255
205 226 255
205 226 255
205 226 255
205 226 255
204 226 255
204 226 255
204 226 255
204 226 255
204 226 255
204 226 255
204 226 255
204 226 255
204 226 255
204 226 255
204 226 255
204 226 255
204 226 255
204 226 255
204 226 255
204 226 255
204 226 255
203 226 255
203 226 255
203 226 255
203 226 255
203 226 255
203 226 255
203 226 255
203 225 255
203 225 255
203 225 255
203 225 255
203 225 255
203 225 255
203 225 255
203 225 255
203 225 255
202 225 255
202 225 255
202 225 255
202 225 255
202 225 255
202 225 255
202 225 255
202 225 255
202 225 255
202 225 255
202 225 255
202 225 255
202 225 255
202 225 255
202 225 255
201 225 255
201 225 255
201 225 255
201 225 255
201 224 255
201 224 255
201 224 255
201 224 255
201 224 255
201 224 255
201 224 255
201 224 255
201 224 255
201 224 255
200 224 255
200 224 255
200 224 255
200 224 255
200 224 255
200 224 255
200 224 255
200 224 255
200 224 255
200 224 255
200 224 255
200 224 255
200 224 255
200 224 255
200 224 255
199 224 255
199 224 255
199 223 255
199 223 255
199 223 255
199 223 255
199 223 255
199 223 255
199 223 255
199 223 255
199 223 255
199 223 255
199 223 255
199 223 255
199 223 255
198 223 255
198 223 255
198 223 255
198 223 255
198 223 255
198 223 255
198 223 255
198 223 255
198 223 255
198 223 255
198 223 255
198 223 255
198 223 255
198 223 255
198 223 255
198 223 255
197 222 255
197 222 255
197 222 255
197 222 255
197 222 255
197 222 255
197 222 255
197 222 255
197 222 255
197 222 255
197 222 255
197 222 255
197 222 255
197 222 255
197 222 255
197 222 255
197 222 255
197 222 255
196 222 255
196 222 255
196 222 255
196 222 255
196 222 255
196 222 255
196 222 255
196 222 255
196 222 255
196 222 255
196 222 255
196 222 255
196 222 255
196 222 255
196 222 255
196 222 255
196 222 255
196 222 255
196 222 255
196 222 255
196 222 255
196 222 255
196 222 255
196 222 255
196 222 255
196 222 255
196 222 255
196 221 255
196 221 255
196 221 255
196 221 255
196 221 255
196 221 255
195 221 255
195 221 255
195 221 255
195 221 255
195 221 255
195 221 255
195 221 255
195 221 255
195 221 255
195 221 255
195 221 255
195 221 255
195 221 255
195 221 255
195 221 255
195 221 255
195 221 255
195 221 255
195 221 255
195 221 255
196 221 255
196 221 255
196 221 255
196 221 255
196 221 255
196 221 255
196 222 255
196 222 255
196 222 255
196 222 255
196 222 255
196 222 255
196 222 255
196 222 255
196 222 255
196 222 255
196 222 255
196 222 255
196 222 255
196 222 255
196 222 255
196 222 255
196 222 255
196 222 255
196 222 255
196 222 255
196 222 255
196 222 255
196 222 255
196 222 255
196 222 255
196 222 255
196 222 255
197 222 255
197 222 255
197 222 255
197 222 255
197 222 255
197 222 255
197 222 255
197 222 255
197 222 255
197 222 255
197 222 255
197 222 255
197 222 255
197 222 255
197 222 255
197 222 255
197 222 255
197 222 255
197 223 255
198 223 255
198 223 255
198 223 255
198 223 255
198 223 255
198 223 255
198 223 255
198 223 255
198 223 255
198 223 255
198 223 255
198 223 255
198 223 255
198 223 255
198 223 255
198 223 255
199 223 255
199 223 255
199 223 255
199 223 255
199 223 255
199 223 255
199 223 255
199 223 255
199 223 255
199 223 255
199 223 255
199 223 255
199 224 255
199 224 255
200 224 255
200 224 255
200 224 255
200 224 255
200 224 255
200 224 255
200 224 255
200 224 255
200 224 255
200 224 255
200 224 255
200 224 255
200 224 255
200 224 255
200 224 255
201 224 255
201 224 255
201 224 255
201 224 255
201 224 255
201 224 255
201 224 255
201 224 255
201 224 255
201 224 255
201 225 255
201 225 255
201 225 255
201 225 255
202 225 255
202 225 255
202 225 255
202 225 255
202 225 255
202 225 255
202 225 255
202 225 255
202 225 255
202 225 255
202 225 255
202 225 255
202 225 255
202 225 255
202 225 255
203 225 255
203 225 255
203 225 255
203 225 255
203 225 255
203 225 255
203 225 255
203 225 255
203 225 255
203 226 255
203 226 255
203 226 255
203 226 255
203 226 255
203 226 255
203 226 255
204 226 255
204 226 255
204 226 255
204 226 255
204 226 255
204 226 255
204 226 255
204 226 255
204 226 255
204 226 255
204 226 255
204 226 255
204 226 255
204 226 255
204 226 255
204 226 255
204 226 255
205 226 255
205 226 255
205 226 255
205 226 255
205 226 255
205 226 255
205 226 255
205 227 255
205 227 255
205 227 255
205 227 255
205 227 255
205 227 255
205 227 255
205 227 255
205 227 255
205 227 255
205 227 255
206 227 255
206 227 255
206 227 255
206 227 255
206 227 255
206 227 255
206 227 255
206 227 255
206 227 255
206 227 255
206 227 255
206 227 255
206 227 255
206 227 255
206 227 255
206 227 255
206 227 255
206 227 255
206 227 255
206 227 255
206 227 255
206 227 255
206 227 255
206 227 255
206 227 255
206 227 255
206 227 255
206 227 255
206 227 255
205 227 255
205 227 255
205 227 255
205 227 255
205 227 255
205 227 255
205 227 255
205 227 255
205 227 255
205 227 255
205 227 255
205 226 255
205 226 255
205 226 255
205 226 255
205 226 255
205 226 255
205 226 255
204 226 255
204 226 255
204 226 255
204 226 255
204 226 255
204 226 255
204 226 255
204 226 255
204 226 255
204 226 255
204 226 255
204 226 255
204 226 255
204 226 255
204 226 255
204 226 255
203 226 255
203 226 255
203 226 255
203 226 255
203 226 255
203 226 255
203 226 255
203 225 255
203 225 255
203 225 255
203 225 255
203 225 255
203 225 255
203 225 255
203 225 255
203 225 255
202 225 255
202 225 255
202 225 255
202 225 255
202 225 255
202 225 255
202 225 255
202 225 255
202 225 255
202 225 255
202 225 255
202 225 255
202 225 255
202 225 255
202 225 255
201 225 255
201 225 255
201 225 255
201 225 255
201 224 255
201 224 255
201 224 255
201 224 255
201 224 255
201 224 255
201 224 255
201 224 255
201 224 255
201 224 255
201 224 255
200 224 255
200 224 255
200 224 255
200 224 255
200 224 255
200 224 255
200 224 255
200 224 255
200 224 255
200 224 255
200 224 255
200 224 255
200 224 255
200 224 255
199 224 255
199 224 255
199 223 255
199 223 255
199 223 255
199 223 255
199 223 255
199 223 255
199 223 255
199 223 255
199 223 255
199 223 255
199 223 255
199 223 255
199 223 255
198 223 255
198 223 255
198 223 255
198 223 255
198 223 255
198 223 255
198 223 255
198 223 255
198 223 255
198 223 255
198 223 255
198 223 255
198 223 255
198 223 255
198 223 255
198 223 255
197 223 255
197 222 255
197 222 255
197 222 255
197 222 255
197 222 255
197 222 255
197 222 255
197 222 255
197 222 255
197 222 255
197 222 255
197 222 255
197 222 255
197 222 255
197 222 255
197 222 255
197 222 255
197 222 255
197 222 255
196 222 255
196 222 255
196 222 255
196 222 255
196 222 255
196 222 255
196 222 255
196 222 255
196 222 255
196 222 255
196 222 255
196 222 255
196 222 255
196 222 255
196 222 255
196 222 255
196 222 255
196 222 255
196 222 255
196 222 255
196 222 255
196 222 255
196 222 255
196 222 255
196 222 255
196 222 255
196 222 255
196 222 255
196 222 255
196 222 255
196 222 255
196 222 255
196 222 255
196 222 255
196 222 255
196 222 255
196 222 255
196 222 255
196 222 255
196 222 255
196 222 255
196 222 255
196 222 255
196 222 255
196 222 255
196 222 255
196 222 255
196 222 255
196 222 255
196 222 255
196 222 255
196 222 255
196 222 255
196 222 255
196 222 255
196 222 255
196 222 255
196 222 255
196 222 255
196 222 255
196 222 255
196 222 255
196 222 255
196 222 255
196 222 255
196 222 255
196 222 255
196 222 255
196 222 255
196 222 255
196 222 255
196 222 255
196 222 255
196 222 255
196 222 255
196 222 255
196 222 255
196 222 255
197 222 255
197 222 255
197 222 255
197 222 255
197 222 255
197 222 255
197 222 255
197 222 255
197 222 255
197 222 255
197 222 255
197 222 255
197 222 255
197 222 255
197 222 255
197 222 255
197 222 255
197 222 255
197 222 255
197 223 255
198 223 255
198 223 255
198 223 255
198 223 255
198 223 255
198 223 255
198 223 255
198 223 255
198 223 255
198 223 255
198 223 255
198 223 255
198 223 255
198 223 255
198 223 255
198 223 255
199 223 255
199 223 255
199 223 255
199 223 255
199 223 255
199 223 255
199 223 255
199 223 255
199 223 255
199 223 255
199 223 255
199 223 255
199 223 255
199 224 255
199 224 255
200 224 255
200 224 255
200 224 255
200 224 255
200 224 255
200 224 255
200 224 255
200 224 255
200 224 255
200 224 255
200 224 255
200 224 255
200 224 255
200 224 255
201 224 255
201 224 255
201 224 255
201 224 255
201 224 255
201 224 255
201 224 255
201 224 255
201 224 255
201 224 255
201 224 255
201 225 255
201 225 255
201 225 255
201 225 255
202 225 255
202 225 255
202 225 255
202 225 255
202 225 255
202 225 255
202 225 255
202 225 255
202 225 255
202 225 255
202 225 255
202 225 255
202 225 255
202 225 255
202 225 255
203 225 255
203 225 255
203 225 255
203 225 255
203 225 255
203 225 255
203 225 255
203 225 255
203 225 255
203 226 255
203 226 255
203 226 255
203 226 255
203 226 255
203 226 255
203 226 255
204 226 255
204 226 255
204 226 255
204 226 255
204 226 255
204 226 255
204 226 255
204 226 255
204 226 255
204 226 255
204 226 255
204 226 255
204 226 255
204 226 255
204 226 255
204 226 255
205 226 255
205 226 255
205 226 255
205 226 255
205 226 255
205 226 255
205 226 255
205 227 255
205 227 255
205 227 255
205 227 255
205 227 255
205 227 255
205 227 255
205 227 255
205 227 255
205 227 255
205 227 255
206 227 255
206 227 255
206 227 255
206 227 255
206 227 255
206 227 255
206 227 255
206 227 255
206 227 255
206 227 255
206 227 255
206 227 255
206 227 255
206 227 255
206 227 255
206 227 255
206 227 255
206 227 255
206 227 255
206 227 255
206 227 255
206 227 255
206 227 255
206 227 255
206 227 255
206 227 255
206 227 255
206 227 255
206 227 255
206 227 255
206 227 255
206 227 255
206 227 255
206 227 255
205 227 255
205 227 255
205 227 255
205 227 255
205 227 255
205 227 255
205 227 255
205 227 255
205 227 255
205 227 255
205 227 255
205 226 255
205 226 255
205 226 255
205 226 255
205 226 255
205 226 255
205 226 255
204 226 255
204 226 255
204 226 255
204 226 255
204 226 255
204 226 255
204 226 255
204 226 255
204 226 255
204 226 255
204 226 255
204 226 255
204 226 255
204 226 255
204 226 255
204 226 255
204 226 255
203 226 255
203 226 255
203 226 255
203 226 255
203 226 255
203 226 255
203 226 255
203 225 255
203 225 255
203 225 255
203 225 255
203 225 255
203 225 255
203 225 255
203 225 255
202 225 255
202 225 255
202 225 255
202 225 255
202 225 255
202 225 255
202 225 255
202 225 255
202 225 255
202 225 255
202 225 255
202 225 255
202 225 255
202 225 255
202 225 255
201 225 255
201 225 255
201 225 255
201 225 255
201 225 255
201 224 255
201 224 255
201 224 255
201 224 255
201 224 255
201 224 255
201 224 255
201 224 255
201 224 255
201 224 255
200 224 255
200 224 255
200 224 255
200 224 255
200 224 255
200 224 255
200 224 255
200 224 255
200 224 255
200 224 255
200 224 255
200 224 255
200 224 255
200 224 255
200 224 255
199 224 255
199 224 255
199 223 255
199 223 255
199 223 255
199 223 255
199 223 255
199 223 255
199 223 255
199 223 255
199 223 255
199 223 255
199 223 255
199 223 255
199 223 255
198 223 255
198 223 255
198 223 255
198 223 255
198 223 255
198 223 255
198 223 255
198 223 255
198 223 255
198 223 255
198 223 255
198 223 255
198 223 255
198 223 255
198 223 255
198 223 255
197 223 255
197 222 255
197 222 255
197 222 255
197 222 255
197 222 255
197 222 255
197 222 255
197 222 255
197 222 255
197 222 255
197 222 255
197 222 255
197 222 255
197 222 255
197 222 255
197 222 255
197 222 255
197 222 255
197 222 255
197 222 255
196 222 255
196 222 255
196 222 255
196 222 255
196 222 255
196 222 255
196 222 255
196 222 255
196 222 255
196 222 255
196 222 255
196 222 255
196 222 255
196 222 255
196 222 255
196 222 255
196 222 255
196 222 255
196 222 255
196 222 255
196 222 255
196 222 255
196 222 255
196 222 255
196 222 255
196 222 255
196 222 255
196 222 255
196 222 255
196 222 255
196 222 255
196 222 255
196 222 255
196 222 255
196 222 255
196 222 255
196 222 255
196 222 255
196 222 255
196 222 255
196 222 255
196 222 255
196 222 255
196 222 255
196 222 255
196 222 255
196 222 255
196 222 255
196 222 255
196 222 255
196 222 255
196 222 255
196 222 255
196 222 255
196 222 255
196 222 255
196 222 255
196 222 255
196 222 255
196 222 255
196 222 255
196 222 255
196 222 255
196 222 255
196 222 255
196 222 255
196 222 255
196 222 255
196 222 255
196 222 255
197 222 255
197 222 255
197 222 255
197 222 255
197 222 255
197 222 255
197 222 255
197 222 255
197 222 255
197 222 255
197 222 255
197 222 255
197 222 255
197 222 255
197 222 255
197 222 255
197 222 255
197 222 255
197 222 255
197 222 255
197 223 255
198 223 255
198 223 255
198 223 255
198 223 255
198 223 255
198 223 255
198 223 255
198 223 255
198 223 255
198 223 255
198 223 255
198 223 255
198 223 255
198 223 255
198 223 255
198 223 255
199 223 255
199 223 255
199 223 255
199 223 255
199 223 255
199 223 255
199 223 255
199 223 255
199 223 255
199 223 255
199 223 255
199 223 255
199 223 255
199 224 255
199 224 255
200 224 255
200 224 255
200 224 255
200 224 255
200 224 255
200 224 255
200 224 255
200 224 255
200 224 255
200 224 255
200 224 255
200 224 255
200 224 255
200 224 255
200 224 255
201 224 255
201 224 255
201 224 255
201 224 255
201 224 255
201 224 255
201 224 255
201 224 255
201 224 255
201 224 255
201 225 255
201 225 255
201 225 255
201 225 255
201 225 255
202 225 255
202 225 255
202 225 255
202 225 255
202 225 255
202 225 255
202 225 255
202 225 255
202 225 255
202 225 255
202 225 255
202 225 255
202 225 255
202 225 255
202 225 255
203 225 255
203 225 255
203 225 255
203 225 255
203 225 255
203 225 255
203 225 255
203 225 255
203 226 255
203 226 255
203 226 255
203 226 255
203 226 255
203 226 255
203 226 255
204 226 255
204 226 255
204 226 255
204 226 255
204 226 255
204 226 255
204 226 255
204 226 255
204 226 255
204 226 255
204 226 255
204 226 255
204 226 255
204 226 255
204 226 255
204 226 255
204 226 255
205 226 255
205 226 255
205 226 255
205 226 255
205 226 255
205 226 255
205 226 255
205 227 255
205 227 255
205 227 255
205 227 255
205 227 255
205 227 255
205 227 255
205 227 255
205 227 255
205 227 255
205 227 255
206 227 255
206 227 255
206 227 255
206 227 255
206 227 255
206 227 255
206 227 255
206 227 255
206 227 255
206 227 255
206 227 255
206 227 255
206 227 255
206 227 255
206 227 255
206 227 255
206 227 255
206 227 255
207 227 255
207 227 255
206 227 255
206 227 255
206 227 255
206 227 255
206 227 255
206 227 255
206 227 255
206 227 255
206 227 255
206 227 255
206 227 255
206 227 255
206 227 255
206 227 255
206 227 255
206 227 255
206 227 255
206 227 255
206 227 255
205 227 255
205 227 255
205 227 255
205 227 255
205 227 255
205 227 255
205 227 255
205 227 255
205 227 255
205 227 255
205 227 255
205 226 255
205 226 255
205 226 255
205 226 255
205 226 255
205 226 255
205 226 255
204 226 255
204 226 255
204 226 255
204 226 255
204 226 255
204 226 255
204 226 255
204 226 255
204 226 255
204 226 255
204 226 255
204 226 255
204 226 255
204 226 255
204 226 255
204 226 255
203 226 255
203 226 255
203 226 255
203 226 255
203 226 255
203 226 255
203 226 255
203 225 255
203 225 255
203 225 255
203 225 255
203 225 255
203 225 255
203 225 255
203 225 255
203 225 255
202 225 255
202 225 255
202 225 255
202 225 255
202 225 255
202 225 255
202 225 255
202 225 255
202 225 255
202 225 255
202 225 255
202 225 255
202 225 255
202 225 255
202 225 255
201 225 255
201 225 255
201 225 255
201 225 255
201 224 255
201 224 255
201 224 255
201 224 255
201 224 255
201 224 255
201 224 255
201 224 255
201 224 255
201 224 255
200 224 255
200 224 255
200 224 255
200 224 255
200 224 255
200 224 255
200 224 255
200 224 255
200 224 255
200 224 255
200 224 255
200 224 255
200 224 255
200 224 255
200 224 255
199 224 255
199 224 255
199 223 255
199 223 255
199 223 255
199 223 255
199 223 255
199 223 255
199 223 255
199 223 255
199 223 255
199 223 255
199 223 255
199 223 255
199 223 255
198 223 255
198 223 255
198 223 255
198 223 255
198 223 255
198 223 255
198 223 255
198 223 255
198 223 255
198 223 255
198 223 255
198 223 255
198 223 255
198 223 255
198 223 255
198 223 255
198 223 255
197 223 255
197 222 255
197 222 255
197 222 255
197 222 255
197 222 255
197 222 255
197 222 255
197 222 255
197 222 255
197 222 255
197 222 255
197 222 255
197 222 255
197 222 255
197 222 255
197 222 255
197 222 255
197 222 255
197 222 255
197 222 255
197 222 255
196 222 255
196 222 255
196 222 255
196 222 255
196 222 255
196 222 255
196 222 255
196 222 255
196 222 255
196 222 255
196 222 255
196 222 255
196 222 255
196 222 255
196 222 255
196 222 255
196 222 255
196 222 255
196 222 255
196 222 255
196 222 255
196 222 255
196 222 255
196 222 255
196 222 255
196 222 255
196 222 255
196 222 255
196 222 255
196 222 255
196 222 255
196 222 255
196 222 255
196 222 255
196 222 255
196 222 255
196 222 255
196 222 255
196 222 255
196 222 255
196 222 255
196 222 255
196 222 255
196 222 255
196 222 255
196 222 255
196 222 255
196 222 255
196 222 255
196 222 255
196 222 255
196 222 255
196 222 255
196 222 255
196 222 255
196 222 255
196 222 255
196 222 255
196 222 255
196 222 255
196 222 255
196 222 255
197 222 255
197 222 255
197 222 255
197 222 255
197 222 255
197 222 255
197 222 255
197 222 255
197 222 255
197 222 255
197 222 255
197 222 255
197 222 255
197 222 255
197 222 255
197 222 255
197 222 255
197 222 255
197 222 255
197 222 255
197 222 255
197 223 255
198 223 255
198 223 255
198 223 255
198 223 255
198 223 255
198 223 255
198 223 255
198 223 255
198 223 255
198 223 255
198 223 255
198 223 255
198 223 255
198 223 255
198 223 255
198 223 255
198 223 255
199 223 255
199 223 255
199 223 255
199 223 255
199 223 255
199 223 255
199 223 255
199 223 255
199 223 255
199 223 255
199 223 255
199 223 255
199 223 255
199 224 255
199 224 255
200 224 255
200 224 255
200 224 255
200 224 255
200 224 255
200 224 255
200 224 255
200 224 255
200 224 255
200 224 255
200 224 255
200 224 255
200 224 255
200 224 255
200 224 255
201 224 255
201 224 255
201 224 255
201 224 255
201 224 255
201 224 255
201 224 255
201 224 255
201 224 255
201 224 255
201 225 255
201 225 255
201 225 255
201 225 255
202 225 255
202 225 255
202 225 255
202 225 255
202 225 255
202 225 255
202 225 255
202 225 255
202 225 255
202 225 255
202 225 255
202 225 255
202 225 255
202 225 255
202 225 255
203 225 255
203 225 255
203 225 255
203 225 255
203 225 255
203 225 255
203 225 255
203 225 255
203 225 255
203 226 255
203 226 255
203 226 255
203 226 255
203 226 255
203 226 255
203 226 255
204 226 255
204 226 255
204 226 255
204 226 255
204 226 255
204 226 255
204 226 255
204 226 255
204 226 255
204 226 255
204 226 255
204 226 255
204 226 255
204 226 255
204 226 255
204 226 255
205 226 255
205 226 255
205 226 255
205 226 255
205 226 255
205 226 255
205 226 255
205 227 255
205 227 255
205 227 255
205 227 255
205 227 255
205 227 255
205 227 255
205 227 255
205 227 255
205 227 255
205 227 255
206 227 255
206 227 255
206 227 255
206 227 255
206 227 255
206 227 255
206 227 255
206 227 255
206 227 255
206 227 255
206 227 255
206 227 255
206 227 255
206 227 255
206 227 255
206 227 255
206 227 255
206 227 255
206 227 255
207 227 255
207 227 255
207 227 255
207 227 255
207 227 255
207 227 255
207 227 255
206 227 255
206 227 255
206 227 255
206 227 255
206 227 255
206 227 255
206 227 255
206 227 255
206 227 255
206 227 255
206 227 255
206 227 255
206 227 255
206 227 255
206 227 255
206 227 255
206 227 255
206 227 255
206 227 255
205 227 255
205 227 255
205 227 255
205 227 255
205 227 255
205 227 255
205 227 255
205 227 255
205 227 255
205 227 255
205 226 255
205 226 255
205 226 255
205 226 255
205 226 255
205 226 255
205 226 255
204 226 255
204 226 255
204 226 255
204 226 255
204 226 255
204 226 255
204 226 255
204 226 255
204 226 255
204 226 255
204 226 255
204 226 255
204 226 255
204 226 255
204 226 255
204 226 255
204 226 255
203 226 255
203 226 255
203 226 255
203 226 255
203 226 255
203 226 255
203 226 255
203 225 255
203 225 255
203 225 255
203 225 255
203 225 255
203 225 255
203 225 255
203 225 255
202 225 255
202 225 255
202 225 255
202 225 255
202 225 255
202 225 255
202 225 255
202 225 255
202 225 255
202 225 255
202 225 255
202 225 255
202 225 255
202 225 255
202 225 255
201 225 255
201 225 255
201 225 255
201 225 255
201 224 255
201 224 255
201 224 255
201 224 255
201 224 255
201 224 255
201 224 255
201 224 255
201 224 255
201 224 255
201 224 255
200 224 255
200 224 255
200 224 255
200 224 255
200 224 255
200 224 255
200 224 255
200 224 255
200 224 255
200 224 255
200 224 255
200 224 255
200 224 255
200 224 255
199 224 255
199 224 255
199 224 255
199 223 255
199 223 255
199 223 255
199 223 255
199 223 255
199 223 255
199 223 255
199 223 255
199 223 255
199 223 255
199 223 255
199 223 255
199 223 255
198 223 255
198 223 255
198 223 255
198 223 255
198 223 255
198 223 255
198 223 255
198 223 255
198 223 255
198 223 255
198 223 255
198 223 255
198 223 255
198 223 255
198 223 255
198 223 255
198 223 255
197 223 255
197 222 255
197 222 255
197 222 255
197 222 255
197 222 255
197 222 255
197 222 255
197 222 255
197 222 255
197 222 255
197 222 255
197 222 255
197 222 255
197 222 255
197 222 255
197 222 255
197 222 255
197 222 255
197 222 255
197 222 255
197 222 255
197 222 255
197 222 255
196 222 255
196 222 255
196 222 255
196 222 255
196 222 255
196 222 255
196 222 255
196 222 255
196 222 255
196 222 255
196 222 255
196 222 255
196 222 255
196 222 255
196 222 255
196 222 255
196 222 255
196 222 255
196 222 255
196 222 255
196 222 255
196 222 255
196 222 255
196 222 255
196 222 255
196 222 255
196 222 255
196 222 255
196 222 255
196 222 255
196 222 255
196 222 255
196 222 255
196 222 255
196 222 255
196 222 255
196 222 255
196 222 255
196 222 255
196 222 255
196 222 255
196 222 255
196 222 255
196 222 255
196 222 255
196 222 255
196 222 255
196 222 255
196 222 255
196 222 255
196 222 255
196 222 255
197 222 255
197 222 255
197 222 255
197 222 255
197 222 255
197 222 255
197 222 255
197 222 255
197 222 255
197 222 255
197 222 255
197 222 255
197 222 255
197 222 255
197 222 255
197 222 255
197 222 255
197 222 255
197 222 255
197 222 255
197 222 255
197 222 255
197 222 255
197 223 255
198 223 255
198 223 255
198 223 255
198 223 255
198 223 255
198 223 255
198 223 255
198 223 255
198 223 255
198 223 255
198 223 255
198 223 255
198 223 255
198 223 255
198 223 255
198 223 255
198 223 255
199 223 255
199 223 255
199 223 255
199 223 255
199 223 255
199 223 255
199 223 255
199 223 255
199 223 255
199 223 255
199 223 255
199 223 255
199 223 255
199 224 255
199 224 255
199 224 255
200 224 255
200 224 255
200 224 255
200 224 255
200 224 255
200 224 255
200 224 255
200 224 255
200 224 255
200 224 255
200 224 255
200 224 255
200 224 255
200 224 255
201 224 255
201 224 255
201 224 255
201 224 255
201 224 255
201 224 255
201 224 255
201 224 255
201 224 255
201 224 255
201 224 255
201 225 255
201 225 255
201 225 255
201 225 255
202 225 255
202 225 255
202 225 255
202 225 255
202 225 255
202 225 255
202 225 255
202 225 255
202 225 255
202 225 255
202 225 255
202 225 255
202 225 255
202 225 255
202 225 255
203 225 255
203 225 255
203 225 255
203 225 255
203 225 255
203 225 255
203 225 255
203 225 255
203 226 255
203 226 255
203 226 255
203 226 255
203 226 255
203 226 255
203 226 255
204 226 255
204 226 255
204 226 255
204 226 255
204 226 255
204 226 255
204 226 255
204 226 255
204 226 255
204 226 255
204 226 255
204 226 255
204 226 255
204 226 255
204 226 255
204 226 255
204 226 255
205 226 255
205 226 255
205 226 255
205 226 255
205 226 255
205 226 255
205 226 255
205 227 255
205 227 255
205 227 255
205 227 255
205 227 255
205 227 255
205 227 255
205 227 255
205 227 255
205 227 255
206 227 255
206 227 255
206 227 255
206 227 255
206 227 255
206 227 255
206 227 255
206 227 255
206 227 255
206 227 255
206 227 255
206 227 255
206 227 255
206 227 255
206 227 255
206 227 255
206 227 255
206 227 255
206 227 255
207 227 255
207 227 255
207 227 255
207 227 255
207 227 255
207 228 255
207 228 255
207 228 255
207 227 255
207 227 255
207 227 255
207 227 255
206 227 255
206 227 255
206 227 255
206 227 255
206 227 255
206 227 255
206 227 255
206 227 255
206 227 255
206 227 255
206 227 255
206 227 255
206 227 255
206 227 255
206 227 255
206 227 255
206 227 255
206 227 255
206 227 255
205 227 255
205 227 255
205 227 255
205 227 255
205 227 255
205 227 255
205 227 255
205 227 255
205 227 255
205 227 255
205 227 255
205 226 255
205 226 255
205 226 255
205 226 255
205 226 255
205 226 255
205 226 255
204 226 255
204 226 255
204 226 255
204 226 255
204 226 255
204 226 255
204 226 255
204 226 255
204 226 255
204 226 255
204 226 255
204 226 255
204 226 255
204 226 255
204 226 255
204 226 255
203 226 255
203 226 255
203 226 255
203 226 255
203 226 255
203 226 255
203 226 255
203 225 255
203 225 255
203 225 255
203 225 255
203 225 255
203 225 255
203 225 255
203 225 255
203 225 255
202 225 255
202 225 255
202 225 255
202 225 255
202 225 255
202 225 255
202 225 255
202 225 255
202 225 255
202 225 255
202 225 255
202 225 255
202 225 255
202 225 255
201 225 255
201 225 255
201 225 255
201 225 255
201 225 255
201 224 255
201 224 255
201 224 255
201 224 255
201 224 255
201 224 255
201 224 255
201 224 255
201 224 255
201 224 255
200 224 255
200 224 255
200 224 255
200 224 255
200 224 255
200 224 255
200 224 255
200 224 255
200 224 255
200 224 255
200 224 255
200 224 255
200 224 255
200 224 255
200 224 255
199 224 255
199 224 255
199 224 255
199 223 255
199 223 255
199 223 255
199 223 255
199 223 255
199 223 255
199 223 255
199 223 255
199 223 255
199 223 255
199 223 255
199 223 255
199 223 255
198 223 255
198 223 255
198 223 255
198 223 255
198 223 255
198 223 255
198 223 255
198 223 255
198 223 255
198 223 255
198 223 255
198 223 255
198 223 255
198 223 255
198 223 255
198 223 255
198 223 255
198 223 255
197 222 255
197 222 255
197 222 255
197 222 255
197 222 255
197 222 255
197 222 255
197 222 255
197 222 255
197 222 255
197 222 255
197 222 255
197 222 255
197 222 255
197 222 255
197 222 255
197 222 255
197 222 255
197 222 255
197 222 255
197 222 255
197 222 255
197 222 255
197 222 255
197 222 255
197 222 255
196 222 255
196 222 255
196 222 255
196 222 255
196 222 255
196 222 255
196 222 255
196 222 255
196 222 255
196 222 255
196 222 255
196 222 255
196 222 255
196 222 255
196 222 255
196 222 255
196 222 255
196 222 255
196 222 255
196 222 255
196 222 255
196 222 255
196 222 255
196 222 255
196 222 255
196 222 255
196 222 255
196 222 255
196 222 255
196 222 255
196 222 255
196 222 255
196 222 255
196 222 255
196 222 255
196 222 255
196 222 255
196 222 255
196 222 255
196 222 255
197 222 255
197 222 255
197 222 255
197 222 255
197 222 255
197 222 255
197 222 255
197 222 255
197 222 255
197 222 255
197 222 255
197 222 255
197 222 255
197 222 255
197 222 255
197 222 255
197 222 255
197 222 255
197 222 255
197 222 255
197 222 255
197 222 255
197 222 255
197 222 255
197 222 255
197 222 255
198 223 255
198 223 255
198 223 255
198 223 255
198 223 255
198 223 255
198 223 255
198 223 255
198 223 255
198 223 255
198 223 255
198 223 255
198 223 255
198 223 255
198 223 255
198 223 255
198 223 255
198 223 255
199 223 255
199 223 255
199 223 255
199 223 255
199 223 255
199 223 255
199 223 255
199 223 255
199 223 255
199 223 255
199 223 255
199 223 255
199 223 255
199 223 255
199 224 255
199 224 255
200 224 255
200 224 255
200 224 255
200 224 255
200 224 255
200 224 255
200 224 255
200 224 255
200 224 255
200 224 255
200 224 255
200 224 255
200 224 255
200 224 255
200 224 255
201 224 255
201 224 255
201 224 255
201 224 255
201 224 255
201 224 255
201 224 255
201 224 255
201 224 255
201 224 255
201 225 255
201 225 255
201 225 255
201 225 255
201 225 255
202 225 255
202 225 255
202 225 255
202 225 255
202 225 255
202 225 255
202 225 255
202 225 255
202 225 255
202 225 255
202 225 255
202 225 255
202 225 255
202 225 255
203 225 255
203 225 255
203 225 255
203 225 255
203 225 255
203 225 255
203 225 255
203 225 255
203 225 255
203 226 255
203 226 255
203 226 255
203 226 255
203 226 255
203 226 255
203 226 255
204 226 255
204 226 255
204 226 255
204 226 255
204 226 255
204 226 255
204 226 255
204 226 255
204 226 255
204 226 255
204 226 255
204 226 255
204 226 255
204 226 255
204 226 255
204 226 255
205 226 255
205 226 255
205 226 255
205 226 255
205 226 255
205 226 255
205 226 255
205 227 255
205 227 255
205 227 255
205 227 255
205 227 255
205 227 255
205 227 255
205 227 255
205 227 255
205 227 255
205 227 255
206 227 255
206 227 255
206 227 255
206 227 255
206 227 255
206 227 255
206 227 255
206 227 255
206 227 255
206 227 255
206 227 255
206 227 255
206 227 255
206 227 255
206 227 255
206 227 255
206 227 255
206 227 255
206 227 255
207 227 255
207 227 255
207 227 255
207 227 255
207 227 255
207 228 255
207 228 255
207 228 255
207 228 255
207 228 255
207 228 255
207 228 255
207 227 255
207 227 255
207 227 255
207 227 255
207 227 255
206 227 255
206 227 255
206 227 255
206 227 255
206 227 255
206 227 255
206 227 255
206 227 255
206 227 255
206 227 255
206 227 255
206 227 255
206 227 255
206 227 255
206 227 255
206 227 255
206 227 255
206 227 255
206 227 255
205 227 255
205 227 255
205 227 255
205 227 255
205 227 255
205 227 255
205 227 255
205 227 255
205 227 255
205 227 255
205 227 255
205 226 255
205 226 255
205 226 255
205 226 255
205 226 255
205 226 255
204 226 255
204 226 255
204 226 255
204 226 255
204 226 255
204 226 255
204 226 255
204 226 255
204 226 255
204 226 255
204 226 255
204 226 255
204 226 255
204 226 255
204 226 255
204 226 255
204 226 255
203 226 255
203 226 255
203 226 255
203 226 255
203 226 255
203 226 255
203 225 255
203 225 255
203 225 255
203 225 255
203 225 255
203 225 255
203 225 255
203 225 255
203 225 255
202 225 255
202 225 255
202 225 255
202 225 255
202 225 255
202 225 255
202 225 255
202 225 255
202 225 255
202 225 255
202 225 255
202 225 255
202 225 255
202 225 255
202 225 255
201 225 255
201 225 255
201 225 255
201 225 255
201 224 255
201 224 255
201 224 255
201 224 255
201 224 255
201 224 255
201 224 255
201 224 255
201 224 255
201 224 255
201 224 255
200 224 255
200 224 255
200 224 255
200 224 255
200 224 255
200 224 255
200 224 255
200 224 255
200 224 255
200 224 255
200 224 255
200 224 255
200 224 255
200 224 255
200 224 255
199 224 255
199 224 255
199 223 255
199 223 255
199 223 255
199 223 255
199 223 255
199 223 255
199 223 255
199 223 255
199 223 255
199 223 255
199 223 255
199 223 255
199 223 255
198 223 255
198 223 255
198 223 255
198 223 255
198 223 255
198 223 255
198 223 255
198 223 255
198 223 255
198 223 255
198 223 255
198 223 255
198 223 255
198 223 255
198 223 255
198 223 255
198 223 255
198 223 255
198 223 255
197 223 255
197 222 255
197 222 255
197 222 255
197 222 255
197 222 255
197 222 255
197 222 255
197 222 255
197 222 255
197 222 255
197 222 255
197 222 255
197 222 255
197 222 255
197 222 255
197 222 255
197 222 255
197 222 255
197 222 255
197 222 255
197 222 255
197 222 255
197 222 255
197 222 255
197 222 255
197 222 255
197 222 255
197 222 255
197 222 255
197 222 255
197 222 255
196 222 255
196 222 255
196 222 255
196 222 255
196 222 255
196 222 255
196 222 255
196 222 255
196 222 255
196 222 255
196 222 255
196 222 255
196 222 255
196 222 255
196 222 255
196 222 255
196 222 255
196 222 255
196 222 255
196 222 255
196 222 255
196 222 255
197 222 255
197 222 255
197 222 255
197 222 255
197 222 255
197 222 255
197 222 255
197 222 255
197 222 255
197 222 255
197 222 255
197 222 255
197 222 255
197 222 255
197 222 255
197 222 255
197 222 255
197 222 255
197 222 255
197 222 255
197 222 255
197 222 255
197 222 255
197 222 255
197 222 255
197 222 255
197 222 255
197 222 255
197 222 255
197 222 255
197 222 255
197 223 255
198 223 255
198 223 255
198 223 255
198 223 255
198 223 255
198 223 255
198 223 255
198 223 255
198 223 255
198 223 255
198 223 255
198 223 255
198 223 255
198 223 255
198 223 255
198 223 255
198 223 255
198 223 255
198 223 255
199 223 255
199 223 255
199 223 255
199 223 255
199 223 255
199 223 255
199 223 255
199 223 255
199 223 255
199 223 255
199 223 255
199 223 255
199 223 255
199 224 255
199 224 255
200 224 255
200 224 255
200 224 255
200 224 255
200 224 255
200 224 255
200 224 255
200 224 255
200 224 255
200 224 255
200 224 255
200 224 255
200 224 255
200 224 255
200 224 255
201 224 255
201 224 255
201 224 255
201 224 255
201 224 255
201 224 255
201 224 255
201 224 255
201 224 255
201 224 255
201 224 255
201 225 255
201 225 255
201 225 255
201 225 255
202 225 255
202 225 255
202 225 255
202 225 255
202 225 255
202 225 255
202 225 255
202 225 255
202 225 255
202 225 255
202 225 255
202 225 255
202 225 255
202 225 255
202 225 255
203 225 255
203 225 255
203 225 255
203 225 255
203 225 255
203 225 255
203 225 255
203 225 255
203 225 255
203 226 255
203 226 255
203 226 255
203 226 255
203 226 255
203 226 255
204 226 255
204 226 255
204 226 255
204 226 255
204 226 255
204 226 255
204 226 255
204 226 255
204 226 255
204 226 255
204 226 255
204 226 255
204 226 255
204 226 255
204 226 255
204 226 255
204 226 255
205 226 255
205 226 255
205 226 255
205 226 255
205 226 255
205 226 255
205 226 255
205 227 255
205 227 255
205 227 255
205 227 255
205 227 255
205 227 255
205 227 255
205 227 255
205 227 255
205 227 255
206 227 255
206 227 255
206 227 255
206 227 255
206 227 255
206 227 255
206 227 255
206 227 255
206 227 255
206 227 255
206 227 255
206 227 255
206 227 255
206 227 255
206 227 255
206 227 255
206 227 255
206 227 255
206 227 255
207 227 255
207 227 255
207 227 255
207 227 255
207 227 255
207 228 255
207 228 255
207 228 255
207 228 255
207 228 255
207 228 255
207 228 255
207 228 255
207 228 255
207 228 255
207 228 255
207 228 255
207 228 255
207 227 255
207 227 255
207 227 255
207 227 255
207 227 255
206 227 255
206 227 255
206 227 255
206 227 255
206 227 255
206 227 255
206 227 255
206 227 255
206 227 255
206 227 255
206 227 255
206 227 255
206 227 255
206 227 255
206 227 255
206 227 255
206 227 255
206 227 255
206 227 255
205 227 255
205 227 255
205 227 255
205 227 255
205 227 255
205 227 255
205 227 255
205 227 255
205 227 255
205 227 255
205 226 255
205 226 255
205 226 255
205 226 255
205 226 255
205 226 255
205 226 255
204 226 255
204 226 255
204 226 255
204 226 255
204 226 255
204 226 255
204 226 255
204 226 255
204 226 255
204 226 255
204 226 255
204 226 255
204 226 255
204 226 255
204 226 255
204 226 255
203 226 255
203 226 255
203 226 255
203 226 255
203 226 255
203 226 255
203 226 255
203 225 255
203 225 255
203 225 255
203 225 255
203 225 255
203 225 255
203 225 255
203 225 255
202 225 255
202 225 255
202 225 255
202 225 255
202 225 255
202 225 255
202 225 255
202 225 255
202 225 255
202 225 255
202 225 255
202 225 255
202 225 255
202 225 255
202 225 255
201 225 255
201 225 255
201 225 255
201 225 255
201 225 255
201 224 255
201 224 255
201 224 255
201 224 255
201 224 255
201 224 255
201 224 255
201 224 255
201 224 255
201 224 255
200 224 255
200 224 255
200 224 255
200 224 255
200 224 255
200 224 255
200 224 255
200 224 255
200 224 255
200 224 255
200 224 255
200 224 255
200 224 255
200 224 255
200 224 255
199 224 255
199 224 255
199 224 255
199 223 255
199 223 255
199 223 255
199 223 255
199 223 255
199 223 255
199 223 255
199 223 255
199 223 255
199 223 255
199 223 255
199 223 255
199 223 255
198 223 255
198 223 255
198 223 255
198 223 255
198 223 255
198 223 255
198 223 255
198 223 255
198 223 255
198 223 255
198 223 255
198 223 255
198 223 255
198 223 255
198 223 255
198 223 255
198 223 255
198 223 255
198 223 255
198 223 255
197 223 255
197 222 255
197 222 255
197 222 255
197 222 255
197 222 255
197 222 255
197 222 255
197 222 255
197 222 255
197 222 255
197 222 255
197 222 255
197 222 255
197 222 255
197 222 255
197 222 255
197 222 255
197 222 255
197 222 255
197 222 255
197 222 255
197 222 255
197 222 255
197 222 255
197 222 255
197 222 255
197 222 255
197 222 255
197 222 255
197 222 255
197 222 255
197 222 255
197 222 255
197 222 255
197 222 255
197 222 255
197 222 255
197 222 255
197 222 255
197 222 255
197 222 255
197 222 255
197 222 255
197 222 255
197 222 255
197 222 255
197 222 255
197 222 255
197 222 255
197 222 255
197 222 255
197 222 255
197 222 255
197 222 255
197 222 255
197 222 255
197 222 255
197 222 255
197 222 255
197 222 255
197 222 255
197 222 255
197 222 255
197 222 255
197 222 255
197 222 255
197 222 255
197 222 255
197 222 255
197 222 255
197 222 255
197 222 255
197 222 255
197 222 255
197 222 255
197 222 255
197 223 255
198 223 255
198 223 255
198 223 255
198 223 255
198 223 255
198 223 255
198 223 255
198 223 255
198 223 255
198 223 255
198 223 255
198 223 255
198 223 255
198 223 255
198 223 255
198 223 255
198 223 255
198 223 255
198 223 255
198 223 255
199 223 255
199 223 255
199 223 255
199 223 255
199 223 255
199 223 255
199 223 255
199 223 255
199 223 255
199 223 255
199 223 255
199 223 255
199 223 255
199 224 255
199 224 255
199 224 255
200 224 255
200 224 255
200 224 255
200 224 255
200 224 255
200 224 255
200 224 255
200 224 255
200 224 255
200 224 255
200 224 255
200 224 255
200 224 255
200 224 255
200 224 255
201 224 255
201 224 255
201 224 255
201 224 255
201 224 255
201 224 255
201 224 255
201 224 255
201 224 255
201 224 255
201 225 255
201 225 255
201 225 255
201 225 255
201 225 255
202 225 255
202 225 255
202 225 255
202 225 255
202 225 255
202 225 255
202 225 255
202 225 255
202 225 255
202 225 255
202 225 255
202 225 255
202 225 255
202 225 255
202 225 255
203 225 255
203 225 255
203 225 255
203 225 255
203 225 255
203 225 255
203 225 255
203 225 255
203 226 255
203 226 255
203 226 255
203 226 255
203 226 255
203 226 255
203 226 255
204 226 255
204 226 255
204 226 255
204 226 255
204 226 255
204 226 255
204 226 255
204 226 255
204 226 255
204 226 255
204 226 255
204 226 255
204 226 255
204 226 255
204 226 255
204 226 255
205 226 255
205 226 255
205 226 255
205 226 255
205 226 255
205 226 255
205 226 255
205 227 255
205 227 255
205 227 255
205 227 255
205 227 255
205 227 255
205 227 255
205 227 255
205 227 255
205 227 255
206 227 255
206 227 255
206 227 255
206 227 255
206 227 255
206 227 255
206 227 255
206 227 255
206 227 255
206 227 255
206 227 255
206 227 255
206 227 255
206 227 255
206 227 255
206 227 255
206 227 255
206 227 255
206 227 255
207 227 255
207 227 255
207 227 255
207 227 255
207 227 255
207 228 255
207 228 255
207 228 255
207 228 255
207 228 255
207 228 255
207 228 255
207 228 255
207 228 255
207 228 255
207 228 255
207 228 255
207 228 255
207 228 255
207 228 255
207 228 255
207 228 255
207 228 255
207 228 255
207 227 255
207 227 255
207 227 255
207 227 255
207 227 255
206 227 255
206 227 255
206 227 255
206 227 255
206 227 255
206 227 255
206 227 255
206 227 255
206 227 255
206 227 255
206 227 255
206 227 255
206 227 255
206 227 255
206 227 255
206 227 255
206 227 255
206 227 255
205 227 255
205 227 255
205 227 255
205 227 255
205 227 255
205 227 255
205 227 255
205 227 255
205 227 255
205 227 255
205 227 255
205 226 255
205 226 255
205 226 255
205 226 255
205 226 255
205 226 255
205 226 255
204 226 255
204 226 255
204 226 255
204 226 255
204 226 255
204 226 255
204 226 255
204 226 255
204 226 255
204 226 255
204 226 255
204 226 255
204 226 255
204 226 255
204 226 255
204 226 255
203 226 255
203 226 255
203 226 255
203 226 255
203 226 255
203 226 255
203 225 255
203 225 255
203 225 255
203 225 255
203 225 255
203 225 255
203 225 255
203 225 255
203 225 255
202 225 255
202 225 255
202 225 255
202 225 255
202 225 255
202 225 255
202 225 255
202 225 255
202 225 255
202 225 255
202 225 255
202 225 255
202 225 255
202 225 255
202 225 255
201 225 255
201 225 255
201 225 255
201 225 255
201 224 255
201 224 255
201 224 255
201 224 255
201 224 255
201 224 255
201 224 255
201 224 255
201 224 255
201 224 255
201 224 255
200 224 255
200 224 255
200 224 255
200 224 255
200 224 255
200 224 255
200 224 255
200 224 255
200 224 255
200 224 255
200 224 255
200 224 255
200 224 255
200 224 255
200 224 255
199 224 255
199 224 255
199 224 255
199 223 255
199 223 255
199 223 255
199 223 255
199 223 255
199 223 255
199 223 255
199 223 255
199 223 255
199 223 255
199 223 255
199 223 255
199 223 255
199 223 255
198 223 255
198 223 255
198 223 255
198 223 255
198 223 255
198 223 255
198 223 255
198 223 255
198 223 255
198 223 255
198 223 255
198 223 255
198 223 255
198 223 255
198 223 255
198 223 255
198 223 255
198 223 255
198 223 255
198 223 255
197 223 255
197 222 255
197 222 255
197 222 255
197 222 255
197 222 255
197 222 255
197 222 255
197 222 255
197 222 255
197 222 255
197 222 255
197 222 255
197 222 255
197 222 255
197 222 255
197 222 255
197 222 255
197 222 255
197 222 255
197 222 255
197 222 255
197 222 255
197 222 255
197 222 255
197 222 255
197 222 255
197 222 255
197 222 255
197 222 255
197 222 255
197 222 255
197 222 255
197 222 255
197 222 255
197 222 255
197 222 255
197 222 255
197 222 255
197 222 255
197 222 255
197 222 255
197 222 255
197 222 255
197 222 255
197 222 255
197 222 255
197 222 255
197 222 255
197 222 255
197 222 255
197 222 255
197 222 255
197 222 255
197 222 255
197 222 255
197 222 255
197 222 255
197 222 255
197 222 255
197 222 255
197 222 255
197 222 255
197 222 255
197 222 255
197 222 255
197 222 255
197 222 255
197 222 255
197 223 255
198 223 255
198 223 255
198 223 255
198 223 255
198 223 255
198 223 255
198 223 255
198 223 255
198 223 255
198 223 255
198 223 255
198 223 255
198 223 255
198 223 255
198 223 255
198 223 255
198 223 255
198 223 255
198 223 255
198 223 255
198 223 255
199 223 255
199 223 255
199 223 255
199 223 255
199 223 255
199 223 255
199 223 255
199 223 255
199 223 255
199 223 255
199 223 255
199 223 255
199 223 255
199 223 255
199 224 255
199 224 255
200 224 255
200 224 255
200 224 255
200 224 255
200 224 255
200 224 255
200 224 255
200 224 255
200 224 255
200 224 255
200 224 255
200 224 255
200 224 255
200 224 255
200 224 255
201 224 255
201 224 255
201 224 255
201 224 255
201 224 255
201 224 255
201 224 255
201 224 255
201 224 255
201 224 255
201 224 255
201 225 255
201 225 255
201 225 255
201 225 255
202 225 255
202 225 255
202 225 255
202 225 255
202 225 255
202 225 255
202 225 255
202 225 255
202 225 255
202 225 255
202 225 255
202 225 255
202 225 255
202 225 255
202 225 255
203 225 255
203 225 255
203 225 255
203 225 255
203 225 255
203 225 255
203 225 255
203 225 255
203 225 255
203 226 255
203 226 255
203 226 255
203 226 255
203 226 255
203 226 255
204 226 255
204 226 255
204 226 255
204 226 255
204 226 255
204 226 255
204 226 255
204 226 255
204 226 255
204 226 255
204 226 255
204 226 255
204 226 255
204 226 255
204 226 255
204 226 255
204 226 255
205 226 255
205 226 255
205 226 255
205 226 255
205 226 255
205 226 255
205 227 255
205 227 255
205 227 255
205 227 255
205 227 255
205 227 255
205 227 255
205 227 255
205 227 255
205 227 255
205 227 255
206 227 255
206 227 255
206 227 255
206 227 255
206 227 255
206 227 255
206 227 255
206 227 255
206 227 255
206 227 255
206 227 255
206 227 255
206 227 255
206 227 255
206 227 255
206 227 255
206 227 255
206 227 255
206 227 255
207 227 255
207 227 255
207 227 255
207 227 255
207 228 255
207 228 255
207 228 255
207 228 255
207 228 255
207 228 255
207 228 255
207 228 255
207 228 255
207 228 255
207 228 255
207 228 255
207 228 255
207 228 255
207 228 255
207 228 255
207 228 255
207 228 255
207 228 255
207 228 255
207 228 255
207 228 255
207 228 255
207 228 255
207 228 255
207 227 255
207 227 255
207 227 255
207 227 255
206 227 255
206 227 255
206 227 255
206 227 255
206 227 255
206 227 255
206 227 255
206 227 255
206 227 255
206 227 255
206 227 255
206 227 255
206 227 255
206 227 255
206 227 255
206 227 255
206 227 255
206 227 255
206 227 255
205 227 255
205 227 255
205 227 255
205 227 255
205 227 255
205 227 255
205 227 255
205 227 255
205 227 255
205 227 255
205 226 255
205 226 255
205 226 255
205 226 255
205 226 255
205 226 255
205 226 255
204 226 255
204 226 255
204 226 255
204 226 255
204 226 255
204 226 255
204 226 255
204 226 255
204 226 255
204 226 255
204 226 255
204 226 255
204 226 255
204 226 255
204 226 255
204 226 255
203 226 255
203 226 255
203 226 255
203 226 255
203 226 255
203 226 255
203 226 255
203 225 255
203 225 255
203 225 255
203 225 255
203 225 255
203 225 255
203 225 255
203 225 255
202 225 255
202 225 255
202 225 255
202 225 255
202 225 255
202 225 255
202 225 255
202 225 255
202 225 255
202 225 255
202 225 255
202 225 255
202 225 255
202 225 255
202 225 255
201 225 255
201 225 255
201 225 255
201 225 255
201 225 255
201 224 255
201 224 255
201 224 255
201 224 255
201 224 255
201 224 255
201 224 255
201 224 255
201 224 255
201 224 255
200 224 255
200 224 255
200 224 255
200 224 255
200 224 255
200 224 255
200 224 255
200 224 255
200 224 255
200 224 255
200 224 255
200 224 255
200 224 255
200 224 255
200 224 255
200 224 255
199 224 255
199 224 255
199 223 255
199 223 255
199 223 255
199 223 255
199 223 255
199 223 255
199 223 255
199 223 255
199 223 255
199 223 255
199 223 255
199 223 255
199 223 255
199 223 255
199 223 255
198 223 255
198 223 255
198 223 255
198 223 255
198 223 255
198 223 255
198 223 255
198 223 255
198 223 255
198 223 255
198 223 255
198 223 255
198 223 255
198 223 255
198 223 255
198 223 255
198 223 255
198 223 255
198 223 255
198 223 255
198 223 255
198 223 255
197 223 255
197 222 255
197 222 255
197 222 255
197 222 255
197 222 255
197 222 255
197 222 255
197 222 255
197 222 255
197 222 255
197 222 255
197 222 255
197 222 255
197 222 255
197 222 255
197 222 255
197 222 255
197 222 255
197 222 255
197 222 255
197 222 255
197 222 255
197 222 255
197 222 255
197 222 255
197 222 255
197 222 255
197 222 255
197 222 255
197 222 255
197 222 255
197 222 255
197 222 255
197 222 255
197 222 255
197 222 255
197 222 255
197 222 255
197 222 255
197 222 255
197 222 255
197 222 255
197 222 255
197 222 255
197 222 255
197 222 255
197 222 255
197 222 255
197 222 255
197 222 255
197 222 255
197 222 255
197 222 255
197 222 255
197 222 255
197 222 255
197 222 255
197 222 255
197 223 255
198 223 255
198 223 255
198 223 255
198 223 255
198 223 255
198 223 255
198 223 255
198 223 255
198 223 255
198 223 255
198 223 255
198 223 255
198 223 255
198 223 255
198 223 255
198 223 255
198 223 255
198 223 255
198 223 255
198 223 255
198 223 255
198 223 255
199 223 255
199 223 255
199 223 255
199 223 255
199 223 255
199 223 255
199 223 255
199 223 255
199 223 255
199 223 255
199 223 255
199 223 255
199 223 255
199 223 255
199 223 255
199 224 255
199 224 255
200 224 255
200 224 255
200 224 255
200 224 255
200 224 255
200 224 255
200 224 255
200 224 255
200 224 255
200 224 255
200 224 255
200 224 255
200 224 255
200 224 255
200 224 255
200 224 255
201 224 255
201 224 255
201 224 255
201 224 255
201 224 255
201 224 255
201 224 255
201 224 255
201 224 255
201 224 255
201 225 255
201 225 255
201 225 255
201 225 255
201 225 255
202 225 255
202 225 255
202 225 255
202 225 255
202 225 255
202 225 255
202 225 255
202 225 255
202 225 255
202 225 255
202 225 255
202 225 255
202 225 255
202 225 255
202 225 255
203 225 255
203 225 255
203 225 255
203 225 255
203 225 255
203 225 255
203 225 255
203 225 255
203 226 255
203 226 255
203 226 255
203 226 255
203 226 255
203 226 255
203 226 255
204 226 255
204 226 255
204 226 255
204 226 255
204 226 255
204 226 255
204 226 255
204 226 255
204 226 255
204 226 255
204 226 255
204 226 255
204 226 255
204 226 255
204 226 255
204 226 255
205 226 255
205 226 255
205 226 255
205 226 255
205 226 255
205 226 255
205 226 255
205 227 255
205 227 255
205 227 255
205 227 255
205 227 255
205 227 255
205 227 255
205 227 255
205 227 255
205 227 255
206 227 255
206 227 255
206 227 255
206 227 255
206 227 255
206 227 255
206 227 255
206 227 255
206 227 255
206 227 255
206 227 255
206 227 255
206 227 255
206 227 255
206 227 255
206 227 255
206 227 255
206 227 255
207 227 255
207 227 255
207 227 255
207 227 255
207 227 255
207 228 255
207 228 255
207 228 255
207 228 255
207 228 255
207 228 255
207 228 255
207 228 255
207 228 255
207 228 255
207 228 255
207 228 255
207 228 255
207 228 255
208 228 255
207 228 255
207 228 255
207 228 255
207 228 255
207 228 255
207 228 255
207 228 255
207 228 255
207 228 255
207 228 255
207 228 255
207 228 255
207 228 255
207 228 255
207 228 255
207 228 255
207 227 255
207 227 255
207 227 255
207 227 255
206 227 255
206 227 255
206 227 255
206 227 255
206 227 255
206 227 255
206 227 255
206 227 255
206 227 255
206 227 255
206 227 255
206 227 255
206 227 255
206 227 255
206 227 255
206 227 255
206 227 255
206 227 255
206 227 255
205 227 255
205 227 255
205 227 255
205 227 255
205 227 255
205 227 255
205 227 255
205 227 255
205 227 255
205 227 255
205 226 255
205 226 255
205 226 255
205 226 255
205 226 255
205 226 255
205 226 255
204 226 255
204 226 255
204 226 255
204 226 255
204 226 255
204 226 255
204 226 255
204 226 255
204 226 255
204 226 255
204 226 255
204 226 255
204 226 255
204 226 255
204 226 255
204 226 255
203 226 255
203 226 255
203 226 255
203 226 255
203 226 255
203 226 255
203 226 255
203 225 255
203 225 255
203 225 255
203 225 255
203 225 255
203 225 255
203 225 255
203 225 255
202 225 255
202 225 255
202 225 255
202 225 255
202 225 255
202 225 255
202 225 255
202 225 255
202 225 255
202 225 255
202 225 255
202 225 255
202 225 255
202 225 255
202 225 255
201 225 255
201 225 255
201 225 255
201 225 255
201 224 255
201 224 255
201 224 255
201 224 255
201 224 255
201 224 255
201 224 255
201 224 255
201 224 255
201 224 255
201 224 255
200 224 255
200 224 255
200 224 255
200 224 255
200 224 255
200 224 255
200 224 255
200 224 255
200 224 255
200 224 255
200 224 255
200 224 255
200 224 255
200 224 255
200 224 255
200 224 255
199 224 255
199 224 255
199 223 255
199 223 255
199 223 255
199 223 255
199 223 255
199 223 255
199 223 255
199 223 255
199 223 255
199 223 255
199 223 255
199 223 255
199 223 255
199 223 255
199 223 255
198 223 255
198 223 255
198 223 255
198 223 255
198 223 255
198 223 255
198 223 255
198 223 255
198 223 255
198 223 255
198 223 255
198 223 255
198 223 255
198 223 255
198 223 255
198 223 255
198 223 255
198 223 255
198 223 255
198 223 255
198 223 255
198 223 255
198 223 255
198 223 255
197 223 255
197 223 255
197 222 255
197 222 255
197 222 255
197 222 255
197 222 255
197 222 255
197 222 255
197 222 255
197 222 255
197 222 255
197 222 255
197 222 255
197 222 255
197 222 255
197 222 255
197 222 255
197 222 255
197 222 255
197 222 255
197 222 255
197 222 255
197 222 255
197 222 255
197 222 255
197 222 255
197 222 255
197 222 255
197 222 255
197 222 255
197 222 255
197 222 255
197 222 255
197 222 255
197 222 255
197 222 255
197 222 255
197 222 255
197 222 255
197 222 255
197 222 255
197 222 255
197 222 255
197 222 255
197 222 255
197 222 255
197 222 255
197 223 255
198 223 255
198 223 255
198 223 255
198 223 255
198 223 255
198 223 255
198 223 255
198 223 255
198 223 255
198 223 255
198 223 255
198 223 255
198 223 255
198 223 255
198 223 255
198 223 255
198 223 255
198 223 255
198 223 255
198 223 255
198 223 255
198 223 255
198 223 255
198 223 255
198 223 255
199 223 255
199 223 255
199 223 255
199 223 255
199 223 255
199 223 255
199 223 255
199 223 255
199 223 255
199 223 255
199 223 255
199 223 255
199 223 255
199 223 255
199 223 255
199 224 255
199 224 255
199 224 255
200 224 255
200 224 255
200 224 255
200 224 255
200 224 255
200 224 255
200 224 255
200 224 255
200 224 255
200 224 255
200 224 255
200 224 255
200 224 255
200 224 255
200 224 255
201 224 255
201 224 255
201 224 255
201 224 255
201 224 255
201 224 255
201 224 255
201 224 255
201 224 255
201 224 255
201 224 255
201 225 255
201 225 255
201 225 255
201 225 255
202 225 255
202 225 255
202 225 255
202 225 255
202 225 255
202 225 255
202 225 255
202 225 255
202 225 255
202 225 255
202 225 255
202 225 255
202 225 255
202 225 255
202 225 255
203 225 255
203 225 255
203 225 255
203 225 255
203 225 255
203 225 255
203 225 255
203 225 255
203 226 255
203 226 255
203 226 255
203 226 255
203 226 255
203 226 255
203 226 255
204 226 255
204 226 255
204 226 255
204 226 255
204 226 255
204 226 255
204 226 255
204 226 255
204 226 255
204 226 255
204 226 255
204 226 255
204 226 255
204 226 255
204 226 255
204 226 255
205 226 255
205 226 255
205 226 255
205 226 255
205 226 255
205 226 255
205 226 255
205 227 255
205 227 255
205 227 255
205 227 255
205 227 255
205 227 255
205 227 255
205 227 255
205 227 255
205 227 255
206 227 255
206 227 255
206 227 255
206 227 255
206 227 255
206 227 255
206 227 255
206 227 255
206 227 255
206 227 255
206 227 255
206 227 255
206 227 255
206 227 255
206 227 255
206 227 255
206 227 255
206 227 255
206 227 255
207 227 255
207 227 255
207 227 255
207 227 255
207 228 255
207 228 255
207 228 255
207 228 255
207 228 255
207 228 255
207 228 255
207 228 255
207 228 255
207 228 255
207 228 255
207 228 255
207 228 255
207 228 255
207 228 255
207 228 255
208 228 255
208 228 255
208 228 255
208 228 255
208 228 255
207 228 255
207 228 255
207 228 255
207 228 255
207 228 255
207 228 255
207 228 255
207 228 255
207 228 255
207 228 255
207 228 255
207 228 255
207 228 255
207 228 255
207 228 255
207 227 255
207 227 255
207 227 255
207 227 255
207 227 255
206 227 255
206 227 255
206 227 255
206 227 255
206 227 255
206 227 255
206 227 255
206 227 255
206 227 255
206 227 255
206 227 255
206 227 255
206 227 255
206 227 255
206 227 255
206 227 255
206 227 255
206 227 255
206 227 255
205 227 255
205 227 255
205 227 255
205 227 255
205 227 255
205 227 255
205 227 255
205 227 255
205 227 255
205 227 255
205 226 255
205 226 255
205 226 255
205 226 255
205 226 255
205 226 255
204 226 255
204 226 255
204 226 255
204 226 255
204 226 255
204 226 255
204 226 255
204 226 255
204 226 255
204 226 255
204 226 255
204 226 255
204 226 255
204 226 255
204 226 255
204 226 255
203 226 255
203 226 255
203 226 255
203 226 255
203 226 255
203 226 255
203 226 255
203 225 255
203 225 255
203 225 255
203 225 255
203 225 255
203 225 255
203 225 255
203 225 255
203 225 255
202 225 255
202 225 255
202 225 255
202 225 255
202 225 255
202 225 255
202 225 255
202 225 255
202 225 255
202 225 255
202 225 255
202 225 255
202 225 255
202 225 255
202 225 255
201 225 255
201 225 255
201 225 255
201 225 255
201 224 255
201 224 255
201 224 255
201 224 255
201 224 255
201 224 255
201 224 255
201 224 255
201 224 255
201 224 255
201 224 255
200 224 255
200 224 255
200 224 255
200 224 255
200 224 255
200 224 255
200 224 255
200 224 255
200 224 255
200 224 255
200 224 255
200 224 255
200 224 255
200 224 255
200 224 255
200 224 255
199 224 255
199 224 255
199 223 255
199 223 255
199 223 255
199 223 255
199 223 255
199 223 255
199 223 255
199 223 255
199 223 255
199 223 255
199 223 255
199 223 255
199 223 255
199 223 255
199 223 255
199 223 255
198 223 255
198 223 255
198 223 255
198 223 255
198 223 255
198 223 255
198 223 255
198 223 255
198 223 255
198 223 255
198 223 255
198 223 255
198 223 255
198 223 255
198 223 255
198 223 255
198 223 255
198 223 255
198 223 255
198 223 255
198 223 255
198 223 255
198 223 255
198 223 255
198 223 255
198 223 255
198 223 255
198 223 255
197 223 255
197 222 255
197 222 255
197 222 255
197 222 255
197 222 255
197 222 255
197 222 255
197 222 255
197 222 255
197 222 255
197 222 255
197 222 255
197 222 255
197 222 255
197 222 255
197 222 255
197 222 255
197 222 255
197 222 255
197 222 255
197 222 255
197 222 255
197 222 255
197 222 255
197 222 255
197 222 255
197 222 255
197 222 255
197 222 255
197 222 255
197 222 255
197 222 255
197 223 255
198 223 255
198 223 255
198 223 255
198 223 255
198 223 255
198 223 255
198 223 255
198 223 255
198 223 255
198 223 255
198 223 255
198 223 255
198 223 255
198 223 255
198 223 255
198 223 255
198 223 255
198 223 255
198 223 255
198 223 255
198 223 255
198 223 255
198 223 255
198 223 255
198 223 255
198 223 255
198 223 255
198 223 255
199 223 255
199 223 255
199 223 255
199 223 255
199 223 255
199 223 255
199 223 255
199 223 255
199 223 255
199 223 255
199 223 255
199 223 255
199 223 255
199 223 255
199 223 255
199 223 255
199 224 255
199 224 255
200 224 255
200 224 255
200 224 255
200 224 255
200 224 255
200 224 255
200 224 255
200 224 255
200 224 255
200 224 255
200 224 255
200 224 255
200 224 255
200 224 255
200 224 255
200 224 255
201 224 255
201 224 255
201 224 255
201 224 255
201 224 255
201 224 255
201 224 255
201 224 255
201 224 255
201 224 255
201 224 255
201 225 255
201 225 255
201 225 255
201 225 255
201 225 255
202 225 255
202 225 255
202 225 255
202 225 255
202 225 255
202 225 255
202 225 255
202 225 255
202 225 255
202 225 255
202 225 255
202 225 255
202 225 255
202 225 255
203 225 255
203 225 255
203 225 255
203 225 255
203 225 255
203 225 255
203 225 255
203 225 255
203 225 255
203 226 255
203 226 255
203 226 255
203 226 255
203 226 255
203 226 255
203 226 255
204 226 255
204 226 255
204 226 255
204 226 255
204 226 255
204 226 255
204 226 255
204 226 255
204 226 255
204 226 255
204 226 255
204 226 255
204 226 255
204 226 255
204 226 255
204 226 255
205 226 255
205 226 255
205 226 255
205 226 255
205 226 255
205 226 255
205 227 255
205 227 255
205 227 255
205 227 255
205 227 255
205 227 255
205 227 255
205 227 255
205 227 255
205 227 255
206 227 255
206 227 255
206 227 255
206 227 255
206 227 255
206 227 255
206 227 255
206 227 255
206 227 255
206 227 255
206 227 255
206 227 255
206 227 255
206 227 255
206 227 255
206 227 255
206 227 255
206 227 255
206 227 255
207 227 255
207 227 255
207 227 255
207 227 255
207 227 255
207 228 255
207 228 255
207 228 255
207 228 255
207 228 255
207 228 255
207 228 255
207 228 255
207 228 255
207 228 255
207 228 255
207 228 255
207 228 255
207 228 255
207 228 255
208 228 255
208 228 255
208 228 255
208 228 255
208 228 255
208 228 255
208 228 255
208 228 255
208 228 255
208 228 255
208 228 255
207 228 255
207 228 255
207 228 255
207 228 255
207 228 255
207 228 255
207 228 255
207 228 255
207 228 255
207 228 255
207 228 255
207 228 255
207 228 255
207 228 255
207 228 255
207 227 255
207 227 255
207 227 255
207 227 255
207 227 255
206 227 255
206 227 255
206 227 255
206 227 255
206 227 255
206 227 255
206 227 255
206 227 255
206 227 255
206 227 255
206 227 255
206 227 255
206 227 255
206 227 255
206 227 255
206 227 255
206 227 255
206 227 255
205 227 255
205 227 255
205 227 255
205 227 255
205 227 255
205 227 255
205 227 255
205 227 255
205 227 255
205 227 255
205 227 255
205 226 255
205 226 255
205 226 255
205 226 255
205 226 255
205 226 255
204 226 255
204 226 255
204 226 255
204 226 255
204 226 255
204 226 255
204 226 255
204 226 255
204 226 255
204 226 255
204 226 255
204 226 255
204 226 255
204 226 255
204 226 255
204 226 255
203 226 255
203 226 255
203 226 255
203 226 255
203 226 255
203 226 255
203 226 255
203 225 255
203 225 255
203 225 255
203 225 255
203 225 255
203 225 255
203 225 255
203 225 255
202 225 255
202 225 255
202 225 255
202 225 255
202 225 255
202 225 255
202 225 255
202 225 255
202 225 255
202 225 255
202 225 255
202 225 255
202 225 255
202 225 255
202 225 255
201 225 255
201 225 255
201 225 255
201 225 255
201 225 255
201 224 255
201 224 255
201 224 255
201 224 255
201 224 255
201 224 255
201 224 255
201 224 255
201 224 255
201 224 255
200 224 255
200 224 255
200 224 255
200 224 255
200 224 255
200 224 255
200 224 255
200 224 255
200 224 255
200 224 255
200 224 255
200 224 255
200 224 255
200 224 255
200 224 255
200 224 255
200 224 255
199 224 255
199 224 255
199 223 255
199 223 255
199 223 255
199 223 255
199 223 255
199 223 255
199 223 255
199 223 255
199 223 255
199 223 255
199 223 255
199 223 255
199 223 255
199 223 255
199 223 255
199 223 255
199 223 255
198 223 255
198 223 255
198 223 255
198 223 255
198 223 255
198 223 255
198 223 255
198 223 255
198 223 255
198 223 255
198 223 255
198 223 255
198 223 255
198 223 255
198 223 255
198 223 255
198 223 255
198 223 255
198 223 255
198 223 255
198 223 255
198 223 255
198 223 255
198 223 255
198 223 255
198 223 255
198 223 255
198 223 255
198 223 255
198 223 255
198 223 255
198 223 255
198 223 255
198 223 255
198 223 255
198 223 255
198 223 255
198 223 255
197 223 255
197 223 255
197 223 255
197 223 255
197 223 255
198 223 255
197 223 255
198 223 255
198 223 255
198 223 255
198 223 255
198 223 255
198 223 255
198 223 255
198 223 255
198 223 255
198 223 255
198 223 255
198 223 255
198 223 255
198 223 255
198 223 255
198 223 255
198 223 255
198 223 255
198 223 255
198 223 255
198 223 255
198 223 255
198 223 255
198 223 255
198 223 255
198 223 255
198 223 255
198 223 255
198 223 255
198 223 255
198 223 255
198 223 255
198 223 255
198 223 255
198 223 255
198 223 255
198 223 255
199 223 255
199 223 255
199 223 255
199 223 255
199 223 255
199 223 255
199 223 255
199 223 255
199 223 255
199 223 255
199 223 255
199 223 255
199 223 255
199 223 255
199 223 255
199 223 255
199 223 255
199 224 255
199 224 255
200 224 255
200 224 255
200 224 255
200 224 255
200 224 255
200 224 255
200 224 255
200 224 255
200 224 255
200 224 255
200 224 255
200 224 255
200 224 255
200 224 255
200 224 255
200 224 255
200 224 255
201 224 255
201 224 255
201 224 255
201 224 255
201 224 255
201 224 255
201 224 255
201 224 255
201 224 255
201 224 255
201 225 255
201 225 255
201 225 255
201 225 255
201 225 255
202 225 255
202 225 255
202 225 255
202 225 255
202 225 255
202 225 255
202 225 255
202 225 255
202 225 255
202 225 255
202 225 255
202 225 255
202 225 255
202 225 255
202 225 255
203 225 255
203 225 255
203 225 255
203 225 255
203 225 255
203 225 255
203 225 255
203 225 255
203 226 255
203 226 255
203 226 255
203 226 255
203 226 255
203 226 255
203 226 255
204 226 255
204 226 255
204 226 255
204 226 255
204 226 255
204 226 255
204 226 255
204 226 255
204 226 255
204 226 255
204 226 255
204 226 255
204 226 255
204 226 255
204 226 255
204 226 255
205 226 255
205 226 255
205 226 255
205 226 255
205 226 255
205 226 255
205 226 255
205 227 255
205 227 255
205 227 255
205 227 255
205 227 255
205 227 255
205 227 255
205 227 255
205 227 255
205 227 255
206 227 255
206 227 255
206 227 255
206 227 255
206 227 255
206 227 255
206 227 255
206 227 255
206 227 255
206 227 255
206 227 255
206 227 255
206 227 255
206 227 255
206 227 255
206 227 255
206 227 255
206 227 255
207 227 255
207 227 255
207 227 255
207 227 255
207 227 255
207 228 255
207 228 255
207 228 255
207 228 255
207 228 255
207 228 255
207 228 255
207 228 255
207 228 255
207 228 255
207 228 255
207 228 255
207 228 255
207 228 255
207 228 255
208 228 255
208 228 255
208 228 255
208 228 255
208 228 255
208 228 255
208 228 255
208 228 255
208 228 255
208 228 255
208 228 255
208 228 255
208 228 255
208 228 255
208 228 255
208 228 255
208 228 255
207 228 255
207 228 255
207 228 255
207 228 255
207 228 255
207 228 255
207 228 255
207 228 255
207 228 255
207 228 255
207 228 255
207 228 255
207 228 255
207 228 255
207 228 255
207 227 255
207 227 255
207 227 255
207 227 255
207 227 255
206 227 255
206 227 255
206 227 255
206 227 255
206 227 255
206 227 255
206 227 255
206 227 255
206 227 255
206 227 255
206 227 255
206 227 255
206 227 255
206 227 255
206 227 255
206 227 255
206 227 255
206 227 255
205 227 255
205 227 255
205 227 255
205 227 255
205 227 255
205 227 255
205 227 255
205 227 255
205 227 255
205 227 255
205 226 255
205 226 255
205 226 255
205 226 255
205 226 255
205 226 255
205 226 255
204 226 255
204 226 255
204 226 255
204 226 255
204 226 255
204 226 255
204 226 255
204 226 255
204 226 255
204 226 255
204 226 255
204 226 255
204 226 255
204 226 255
204 226 255
204 226 255
203 226 255
203 226 255
203 226 255
203 226 255
203 226 255
203 226 255
203 225 255
203 225 255
203 225 255
203 225 255
203 225 255
203 225 255
203 225 255
203 225 255
203 225 255
202 225 255
202 225 255
202 225 255
202 225 255
202 225 255
202 225 255
202 225 255
202 225 255
202 225 255
202 225 255
202 225 255
202 225 255
202 225 255
202 225 255
202 225 255
201 225 255
201 225 255
201 225 255
201 225 255
201 224 255
201 224 255
201 224 255
201 224 255
201 224 255
201 224 255
201 224 255
201 224 255
201 224 255
201 224 255
201 224 255
200 224 255
200 224 255
200 224 255
200 224 255
200 224 255
200 224 255
200 224 255
200 224 255
200 224 255
200 224 255
200 224 255
200 224 255
200 224 255
200 224 255
200 224 255
200 224 255
200 224 255
199 224 255
199 224 255
199 224 255
199 223 255
199 223 255
199 223 255
199 223 255
199 223 255
199 223 255
199 223 255
199 223 255
199 223 255
199 223 255
199 223 255
199 223 255
199 223 255
199 223 255
199 223 255
199 223 255
199 223 255
198 223 255
198 223 255
198 223 255
198 223 255
198 223 255
198 223 255
198 223 255
198 223 255
198 223 255
198 223 255
198 223 255
198 223 255
198 223 255
198 223 255
198 223 255
198 223 255
198 223 255
198 223 255
198 223 255
198 223 255
198 223 255
198 223 255
198 223 255
198 223 255
198 223 255
198 223 255
198 223 255
198 223 255
198 223 255
198 223 255
198 223 255
198 223 255
198 223 255
198 223 255
198 223 255
198 223 255
198 223 255
198 223 255
198 223 255
198 223 255
198 223 255
198 223 255
198 223 255
198 223 255
198 223 255
198 223 255
198 223 255
198 223 255
198 223 255
198 223 255
198 223 255
198 223 255
198 223 255
198 223 255
198 223 255
198 223 255
198 223 255
198 223 255
198 223 255
198 223 255
198 223 255
198 223 255
198 223 255
198 223 255
198 223 255
198 223 255
198 223 255
198 223 255
198 223 255
198 223 255
198 223 255
198 223 255
198 223 255
198 223 255
199 223 255
199 223 255
199 223 255
199 223 255
199 223 255
199 223 255
199 223 255
199 223 255
199 223 255
199 223 255
199 223 255
199 223 255
199 223 255
199 223 255
199 223 255
199 223 255
199 223 255
199 224 255
199 224 255
199 224 255
200 224 255
200 224 255
200 224 255
200 224 255
200 224 255
200 224 255
200 224 255
200 224 255
200 224 255
200 224 255
200 224 255
200 224 255
200 224 255
200 224 255
200 224 255
200 224 255
200 224 255
201 224 255
201 224 255
201 224 255
201 224 255
201 224 255
201 224 255
201 224 255
201 224 255
201 224 255
201 224 255
201 224 255
201 225 255
201 225 255
201 225 255
201 225 255
202 225 255
202 225 255
202 225 255
202 225 255
202 225 255
202 225 255
202 225 255
202 225 255
202 225 255
202 225 255
202 225 255
202 225 255
202 225 255
202 225 255
202 225 255
203 225 255
203 225 255
203 225 255
203 225 255
203 225 255
203 225 255
203 225 255
203 225 255
203 225 255
203 226 255
203 226 255
203 226 255
203 226 255
203 226 255
203 226 255
204 226 255
204 226 255
204 226 255
204 226 255
204 226 255
204 226 255
204 226 255
204 226 255
204 226 255
204 226 255
204 226 255
204 226 255
204 226 255
204 226 255
204 226 255
204 226 255
205 226 255
205 226 255
205 226 255
205 226 255
205 226 255
205 226 255
205 226 255
205 227 255
205 227 255
205 227 255
205 227 255
205 227 255
205 227 255
205 227 255
205 227 255
205 227 255
205 227 255
206 227 255
206 227 255
206 227 255
206 227 255
206 227 255
206 227 255
206 227 255
206 227 255
206 227 255
206 227 255
206 227 255
206 227 255
206 227 255
206 227 255
206 227 255
206 227 255
206 227 255
206 227 255
207 227 255
207 227 255
207 227 255
207 227 255
207 227 255
207 228 255
207 228 255
207 228 255
207 228 255
207 228 255
207 228 255
207 228 255
207 228 255
207 228 255
207 228 255
207 228 255
207 228 255
207 228 255
207 228 255
207 228 255
208 228 255
208 228 255
208 228 255
208 228 255
208 228 255
208 228 255
208 228 255
208 228 255
208 228 255
208 228 255
208 228 255
208 228 255
208 228 255
208 228 255
208 228 255
208 228 255
208 228 255
208 228 255
208 228 255
208 228 255
208 228 255
208 228 255
208 228 255
207 228 255
207 228 255
207 228 255
207 228 255
207 228 255
207 228 255
207 228 255
207 228 255
207 228 255
207 228 255
207 228 255
207 228 255
207 228 255
207 228 255
207 228 255
207 227 255
207 227 255
207 227 255
207 227 255
207 227 255
206 227 255
206 227 255
206 227 255
206 227 255
206 227 255
206 227 255
206 227 255
206 227 255
206 227 255
206 227 255
206 227 255
206 227 255
206 227 255
206 227 255
206 227 255
206 227 255
206 227 255
206 227 255
205 227 255
205 227 255
205 227 255
205 227 255
205 227 255
205 227 255
205 227 255
205 227 255
205 227 255
205 227 255
205 226 255
205 226 255
205 226 255
205 226 255
205 226 255
205 226 255
204 226 255
204 226 255
204 226 255
204 226 255
204 226 255
204 226 255
204 226 255
204 226 255
204 226 255
204 226 255
204 226 255
204 226 255
204 226 255
204 226 255
204 226 255
204 226 255
203 226 255
203 226 255
203 226 255
203 226 255
203 226 255
203 226 255
203 226 255
203 225 255
203 225 255
203 225 255
203 225 255
203 225 255
203 225 255
203 225 255
203 225 255
202 225 255
202 225 255
202 225 255
202 225 255
202 225 255
202 225 255
202 225 255
202 225 255
202 225 255
202 225 255
202 225 255
202 225 255
202 225 255
202 225 255
202 225 255
202 225 255
201 225 255
201 225 255
201 225 255
201 225 255
201 224 255
201 224 255
201 224 255
201 224 255
201 224 255
201 224 255
201 224 255
201 224 255
201 224 255
201 224 255
201 224 255
200 224 255
200 224 255
200 224 255
200 224 255
200 224 255
200 224 255
200 224 255
200 224 255
200 224 255
200 224 255
200 224 255
200 224 255
200 224 255
200 224 255
200 224 255
200 224 255
200 224 255
199 224 255
199 224 255
199 224 255
199 223 255
199 223 255
199 223 255
199 223 255
199 223 255
199 223 255
199 223 255
199 223 255
199 223 255
199 223 255
199 223 255
199 223 255
199 223 255
199 223 255
199 223 255
199 223 255
199 223 255
199 223 255
199 223 255
198 223 255
198 223 255
198 223 255
198 223 255
198 223 255
198 223 255
198 223 255
198 223 255
198 223 255
198 223 255
198 223 255
198 223 255
198 223 255
198 223 255
198 223 255
198 223 255
198 223 255
198 223 255
198 223 255
198 223 255
198 223 255
198 223 255
198 223 255
198 223 255
198 223 255
198 223 255
198 223 255
198 223 255
198 223 255
198 223 255
198 223 255
198 223 255
198 223 255
198 223 255
198 223 255
198 223 255
198 223 255
198 223 255
198 223 255
198 223 255
198 223 255
198 223 255
198 223 255
198 223 255
198 223 255
198 223 255
198 223 255
198 223 255
198 223 255
198 223 255
198 223 255
198 223 255
198 223 255
198 223 255
198 223 255
198 223 255
198 223 255
198 223 255
198 223 255
198 223 255
198 223 255
198 223 255
198 223 255
198 223 255
199 223 255
199 223 255
199 223 255
199 223 255
199 223 255
199 223 255
199 223 255
199 223 255
199 223 255
199 223 255
199 223 255
199 223 255
199 223 255
199 223 255
199 223 255
199 223 255
199 223 255
199 223 255
199 223 255
199 224 255
199 224 255
199 224 255
200 224 255
200 224 255
200 224 255
200 224 255
200 224 255
200 224 255
200 224 255
200 224 255
200 224 255
200 224 255
200 224 255
200 224 255
200 224 255
200 224 255
200 224 255
200 224 255
200 224 255
201 224 255
201 224 255
201 224 255
201 224 255
201 224 255
201 224 255
201 224 255
201 224 255
201 224 255
201 224 255
201 224 255
201 225 255
201 225 255
201 225 255
201 225 255
202 225 255
202 225 255
202 225 255
202 225 255
202 225 255
202 225 255
202 225 255
202 225 255
202 225 255
202 225 255
202 225 255
202 225 255
202 225 255
202 225 255
202 225 255
203 225 255
203 225 255
203 225 255
203 225 255
203 225 255
203 225 255
203 225 255
203 225 255
203 225 255
203 226 255
203 226 255
203 226 255
203 226 255
203 226 255
203 226 255
203 226 255
204 226 255
204 226 255
204 226 255
204 226 255
204 226 255
204 226 255
204 226 255
204 226 255
204 226 255
204 226 255
204 226 255
204 226 255
204 226 255
204 226 255
204 226 255
205 226 255
205 226 255
205 226 255
205 226 255
205 226 255
205 226 255
205 226 255
205 227 255
205 227 255
205 227 255
205 227 255
205 227 255
205 227 255
205 227 255
205 227 255
205 227 255
205 227 255
206 227 255
206 227 255
206 227 255
206 227 255
206 227 255
206 227 255
206 227 255
206 227 255
206 227 255
206 227 255
206 227 255
206 227 255
206 227 255
206 227 255
206 227 255
206 227 255
206 227 255
206 227 255
207 227 255
207 227 255
207 227 255
207 227 255
207 227 255
207 228 255
207 228 255
207 228 255
207 228 255
207 228 255
207 228 255
207 228 255
207 228 255
207 228 255
207 228 255
207 228 255
207 228 255
207 228 255
207 228 255
207 228 255
208 228 255
208 228 255
208 228 255
208 228 255
208 228 255
208 228 255
208 228 255
208 228 255
208 228 255
208 228 255
208 228 255
208 228 255
208 228 255
208 228 255
208 228 255
208 228 255
208 228 255
208 228 255
208 228 255
208 228 255
208 228 255
208 228 255
208 228 255
208 228 255
208 228 255
208 228 255
208 228 255
208 228 255
208 228 255
207 228 255
207 228 255
207 228 255
207 228 255
207 228 255
207 228 255
207 228 255
207 228 255
207 228 255
207 228 255
207 228 255
207 228 255
207 228 255
207 228 255
207 228 255
207 227 255
207 227 255
207 227 255
207 227 255
207 227 255
206 227 255
206 227 255
206 227 255
206 227 255
206 227 255
206 227 255
206 227 255
206 227 255
206 227 255
206 227 255
206 227 255
206 227 255
206 227 255
206 227 255
206 227 255
206 227 255
206 227 255
206 227 255
205 227 255
205 227 255
205 227 255
205 227 255
205 227 255
205 227 255
205 227 255
205 227 255
205 227 255
205 227 255
205 226 255
205 226 255
205 226 255
205 226 255
205 226 255
205 226 255
204 226 255
204 226 255
204 226 255
204 226 255
204 226 255
204 226 255
204 226 255
204 226 255
204 226 255
204 226 255
204 226 255
204 226 255
204 226 255
204 226 255
204 226 255
204 226 255
203 226 255
203 226 255
203 226 255
203 226 255
203 226 255
203 226 255
203 226 255
203 225 255
203 225 255
203 225 255
203 225 255
203 225 255
203 225 255
203 225 255
203 225 255
202 225 255
202 225 255
202 225 255
202 225 255
202 225 255
202 225 255
202 225 255
202 225 255
202 225 255
202 225 255
202 225 255
202 225 255
202 225 255
202 225 255
202 225 255
201 225 255
201 225 255
201 225 255
201 225 255
201 225 255
201 224 255
201 224 255
201 224 255
201 224 255
201 224 255
201 224 255
201 224 255
201 224 255
201 224 255
201 224 255
201 224 255
200 224 255
200 224 255
200 224 255
200 224 255
200 224 255
200 224 255
200 224 255
200 224 255
200 224 255
200 224 255
200 224 255
200 224 255
200 224 255
200 224 255
200 224 255
200 224 255
200 224 255
200 224 255
199 224 255
199 224 255
199 224 255
199 223 255
199 223 255
199 223 255
199 223 255
199 223 255
199 223 255
199 223 255
199 223 255
199 223 255
199 223 255
199 223 255
199 223 255
199 223 255
199 223 255
199 223 255
199 223 255
199 223 255
199 223 255
199 223 255
199 223 255
198 223 255
198 223 255
198 223 255
198 223 255
198 223 255
198 223 255
198 223 255
198 223 255
198 223 255
198 223 255
198 223 255
198 223 255
198 223 255
198 223 255
198 223 255
198 223 255
198 223 255
198 223 255
198 223 255
198 223 255
198 223 255
198 223 255
198 223 255
198 223 255
198 223 255
198 223 255
198 223 255
198 223 255
198 223 255
198 223 255
198 223 255
198 223 255
198 223 255
198 223 255
198 223 255
198 223 255
198 223 255
198 223 255
198 223 255
198 223 255
198 223 255
198 223 255
198 223 255
198 223 255
198 223 255
198 223 255
198 223 255
198 223 255
198 223 255
198 223 255
198 223 255
198 223 255
198 223 255
198 223 255
199 223 255
199 223 255
199 223 255
199 223 255
199 223 255
199 223 255
199 223 255
199 223 255
199 223 255
199 223 255
199 223 255
199 223 255
199 223 255
199 223 255
199 223 255
199 223 255
199 223 255
199 223 255
199 223 255
199 223 255
199 224 255
199 224 255
199 224 255
200 224 255
200 224 255
200 224 255
200 224 255
200 224 255
200 224 255
200 224 255
200 224 255
200 224 255
200 224 255
200 224 255
200 224 255
200 224 255
200 224 255
200 224 255
200 224 255
200 224 255
200 224 255
201 224 255
201 224 255
201 224 255
201 224 255
201 224 255
201 224 255
201 224 255
201 224 255
201 224 255
201 224 255
201 224 255
201 225 255
201 225 255
201 225 255
201 225 255
201 225 255
202 225 255
202 225 255
202 225 255
202 225 255
202 225 255
202 225 255
202 225 255
202 225 255
202 225 255
202 225 255
202 225 255
202 225 255
202 225 255
202 225 255
202 225 255
203 225 255
203 225 255
203 225 255
203 225 255
203 225 255
203 225 255
203 225 255
203 225 255
203 226 255
203 226 255
203 226 255
203 226 255
203 226 255
203 226 255
203 226 255
204 226 255
204 226 255
204 226 255
204 226 255
204 226 255
204 226 255
204 226 255
204 226 255
204 226 255
204 226 255
204 226 255
204 226 255
204 226 255
204 226 255
204 226 255
204 226 255
205 226 255
205 226 255
205 226 255
205 226 255
205 226 255
205 226 255
205 227 255
205 227 255
205 227 255
205 227 255
205 227 255
205 227 255
205 227 255
205 227 255
205 227 255
205 227 255
206 227 255
206 227 255
206 227 255
206 227 255
206 227 255
206 227 255
206 227 255
206 227 255
206 227 255
206 227 255
206 227 255
206 227 255
206 227 255
206 227 255
206 227 255
206 227 255
206 227 255
206 227 255
207 227 255
207 227 255
207 227 255
207 227 255
207 227 255
207 228 255
207 228 255
207 228 255
207 228 255
207 228 255
207 228 255
207 228 255
207 228 255
207 228 255
207 228 255
207 228 255
207 228 255
207 228 255
207 228 255
207 228 255
208 228 255
208 228 255
208 228 255
208 228 255
208 228 255
208 228 255
208 228 255
208 228 255
208 228 255
208 228 255
208 228 255
208 228 255
208 228 255
208 228 255
208 228 255
208 228 255
208 228 255
208 228 255
208 228 255
208 228 255
208 228 255
208 228 255
208 228 255
208 228 255
208 228 255
208 228 255
208 228 255
208 228 255
208 228 255
208 228 255
208 228 255
208 228 255
208 228 255
208 228 255
208 228 255
207 228 255
207 228 255
207 228 255
207 228 255
207 228 255
207 228 255
207 228 255
207 228 255
207 228 255
207 228 255
207 228 255
207 228 255
207 228 255
207 228 255
207 228 255
207 227 255
207 227 255
207 227 255
207 227 255
207 227 255
206 227 255
206 227 255
206 227 255
206 227 255
206 227 255
206 227 255
206 227 255
206 227 255
206 227 255
206 227 255
206 227 255
206 227 255
206 227 255
206 227 255
206 227 255
206 227 255
206 227 255
205 227 255
205 227 255
205 227 255
205 227 255
205 227 255
205 227 255
205 227 255
205 227 255
205 227 255
205 227 255
205 226 255
205 226 255
205 226 255
205 226 255
205 226 255
205 226 255
205 226 255
204 226 255
204 226 255
204 226 255
204 226 255
204 226 255
204 226 255
204 226 255
204 226 255
204 226 255
204 226 255
204 226 255
204 226 255
204 226 255
204 226 255
204 226 255
204 226 255
203 226 255
203 226 255
203 226 255
203 226 255
203 226 255
203 226 255
203 225 255
203 225 255
203 225 255
203 225 255
203 225 255
203 225 255
203 225 255
203 225 255
203 225 255
202 225 255
202 225 255
202 225 255
202 225 255
202 225 255
202 225 255
202 225 255
202 225 255
202 225 255
202 225 255
202 225 255
202 225 255
202 225 255
202 225 255
202 225 255
201 225 255
201 225 255
201 225 255
201 225 255
201 225 255
201 224 255
201 224 255
201 224 255
201 224 255
201 224 255
201 224 255
201 224 255
201 224 255
201 224 255
201 224 255
201 224 255
200 224 255
200 224 255
200 224 255
200 224 255
200 224 255
200 224 255
200 224 255
200 224 255
200 224 255
200 224 255
200 224 255
200 224 255
200 224 255
200 224 255
200 224 255
200 224 255
200 224 255
200 224 255
199 224 255
199 224 255
199 224 255
199 224 255
199 223 255
199 223 255
199 223 255
199 223 255
199 223 255
199 223 255
199 223 255
199 223 255
199 223 255
199 223 255
199 223 255
199 223 255
199 223 255
199 223 255
199 223 255
199 223 255
199 223 255
199 223 255
199 223 255
199 223 255
199 223 255
199 223 255
199 223 255
198 223 255
198 223 255
198 223 255
198 223 255
198 223 255
198 223 255
198 223 255
198 223 255
198 223 255
198 223 255
198 223 255
198 223 255
198 223 255
198 223 255
198 223 255
198 223 255
198 223 255
198 223 255
198 223 255
198 223 255
198 223 255
198 223 255
198 223 255
198 223 255
198 223 255
198 223 255
198 223 255
198 223 255
198 223 255
198 223 255
198 223 255
198 223 255
198 223 255
198 223 255
198 223 255
198 223 255
198 223 255
198 223 255
198 223 255
198 223 255
199 223 255
199 223 255
199 223 255
199 223 255
199 223 255
199 223 255
199 223 255
199 223 255
199 223 255
199 223 255
199 223 255
199 223 255
199 223 255
199 223 255
199 223 255
199 223 255
199 223 255
199 223 255
199 223 255
199 223 255
199 223 255
199 223 255
199 223 255
199 224 255
199 224 255
199 224 255
199 224 255
200 224 255
200 224 255
200 224 255
200 224 255
200 224 255
200 224 255
200 224 255
200 224 255
200 224 255
200 224 255
200 224 255
200 224 255
200 224 255
200 224 255
200 224 255
200 224 255
200 224 255
200 224 255
201 224 255
201 224 255
201 224 255
201 224 255
201 224 255
201 224 255
201 224 255
201 224 255
201 224 255
201 224 255
201 224 255
201 225 255
201 225 255
201 225 255
201 225 255
201 225 255
202 225 255
202 225 255
202 225 255
202 225 255
202 225 255
202 225 255
202 225 255
202 225 255
202 225 255
202 225 255
202 225 255
202 225 255
202 225 255
202 225 255
202 225 255
203 225 255
203 225 255
203 225 255
203 225 255
203 225 255
203 225 255
203 225 255
203 225 255
203 225 255
203 226 255
203 226 255
203 226 255
203 226 255
203 226 255
203 226 255
204 226 255
204 226 255
204 226 255
204 226 255
204 226 255
204 226 255
204 226 255
204 226 255
204 226 255
204 226 255
204 226 255
204 226 255
204 226 255
204 226 255
204 226 255
204 226 255
205 226 255
205 226 255
205 226 255
205 226 255
205 226 255
205 226 255
205 226 255
205 227 255
205 227 255
205 227 255
205 227 255
205 227 255
205 227 255
205 227 255
205 227 255
205 227 255
205 227 255
206 227 255
206 227 255
206 227 255
206 227 255
206 227 255
206 227 255
206 227 255
206 227 255
206 227 255
206 227 255
206 227 255
206 227 255
206 227 255
206 227 255
206 227 255
206 227 255
206 227 255
207 227 255
207 227 255
207 227 255
207 227 255
207 227 255
207 228 255
207 228 255
207 228 255
207 228 255
207 228 255
207 228 255
207 228 255
207 228 255
207 228 255
207 228 255
207 228 255
207 228 255
207 228 255
207 228 255
207 228 255
208 228 255
208 228 255
208 228 255
208 228 255
208 228 255
208 228 255
208 228 255
208 228 255
208 228 255
208 228 255
208 228 255
208 228 255
208 228 255
208 228 255
208 228 255
208 228 255
208 228 255
208 228 255
208 228 255
209 228 255
208 228 255
208 228 255
208 228 255
208 228 255
208 228 255
208 228 255
208 228 255
208 228 255
208 228 255
208 228 255
208 228 255
208 228 255
208 228 255
208 228 255
208 228 255
208 228 255
208 228 255
208 228 255
208 228 255
208 228 255
208 228 255
207 228 255
207 228 255
207 228 255
207 228 255
207 228 255
207 228 255
207 228 255
207 228 255
207 228 255
207 228 255
207 228 255
207 228 255
207 228 255
207 228 255
207 228 255
207 227 255
207 227 255
207 227 255
207 227 255
207 227 255
206 227 255
206 227 255
206 227 255
206 227 255
206 227 255
206 227 255
206 227 255
206 227 255
206 227 255
206 227 255
206 227 255
206 227 255
206 227 255
206 227 255
206 227 255
206 227 255
206 227 255
205 227 255
205 227 255
205 227 255
205 227 255
205 227 255
205 227 255
205 227 255
205 227 255
205 227 255
205 227 255
205 226 255
205 226 255
205 226 255
205 226 255
205 226 255
205 226 255
205 226 255
204 226 255
204 226 255
204 226 255
204 226 255
204 226 255
204 226 255
204 226 255
204 226 255
204 226 255
204 226 255
204 226 255
204 226 255
204 226 255
204 226 255
204 226 255
203 226 255
203 226 255
203 226 255
203 226 255
203 226 255
203 226 255
203 226 255
203 225 255
203 225 255
203 225 255
203 225 255
203 225 255
203 225 255
203 225 255
203 225 255
203 225 255
202 225 255
202 225 255
202 225 255
202 225 255
202 225 255
202 225 255
202 225 255
202 225 255
202 225 255
202 225 255
202 225 255
202 225 255
202 225 255
202 225 255
202 225 255
201 225 255
201 225 255
201 225 255
201 225 255
201 225 255
201 224 255
201 224 255
201 224 255
201 224 255
201 224 255
201 224 255
201 224 255
201 224 255
201 224 255
201 224 255
201 224 255
200 224 255
200 224 255
200 224 255
200 224 255
200 224 255
200 224 255
200 224 255
200 224 255
200 224 255
200 224 255
200 224 255
200 224 255
200 224 255
200 224 255
200 224 255
200 224 255
200 224 255
200 224 255
200 224 255
200 224 255
199 224 255
199 224 255
199 224 255
199 223 255
199 223 255
199 223 255
199 223 255
199 223 255
199 223 255
199 223 255
199 223 255
199 223 255
199 223 255
199 223 255
199 223 255
199 223 255
199 223 255
199 223 255
199 223 255
199 223 255
199 223 255
199 223 255
199 223 255
199 223 255
199 223 255
199 223 255
199 223 255
199 223 255
199 223 255
199 223 255
199 223 255
199 223 255
199 223 255
198 223 255
198 223 255
198 223 255
198 223 255
198 223 255
198 223 255
198 223 255
198 223 255
198 223 255
198 223 255
198 223 255
198 223 255
198 223 255
198 223 255
198 223 255
198 223 255
198 223 255
198 223 255
199 223 255
199 223 255
199 223 255
199 223 255
199 223 255
199 223 255
199 223 255
199 223 255
199 223 255
199 223 255
199 223 255
199 223 255
199 223 255
199 223 255
199 223 255
199 223 255
199 223 255
199 223 255
199 223 255
199 223 255
199 223 255
199 223 255
199 223 255
199 223 255
199 223 255
199 223 255
199 223 255
199 223 255
199 223 255
199 223 255
199 224 255
199 224 255
199 224 255
200 224 255
200 224 255
200 224 255
200 224 255
200 224 255
200 224 255
200 224 255
200 224 255
200 224 255
200 224 255
200 224 255
200 224 255
200 224 255
200 224 255
200 224 255
200 224 255
200 224 255
200 224 255
200 224 255
201 224 255
201 224 255
201 224 255
201 224 255
201 224 255
201 224 255
201 224 255
201 224 255
201 224 255
201 224 255
201 224 255
201 224 255
201 225 255
201 225 255
201 225 255
201 225 255
201 225 255
202 225 255
202 225 255
202 225 255
202 225 255
202 225 255
202 225 255
202 225 255
202 225 255
202 225 255
202 225 255
202 225 255
202 225 255
202 225 255
202 225 255
202 225 255
203 225 255
203 225 255
203 225 255
203 225 255
203 225 255
203 225 255
203 225 255
203 225 255
203 225 255
203 226 255
203 226 255
203 226 255
203 226 255
203 226 255
203 226 255
204 226 255
204 226 255
204 226 255
204 226 255
204 226 255
204 226 255
204 226 255
204 226 255
204 226 255
204 226 255
204 226 255
204 226 255
204 226 255
204 226 255
204 226 255
204 226 255
205 226 255
205 226 255
205 226 255
205 226 255
205 226 255
205 226 255
205 226 255
205 227 255
205 227 255
205 227 255
205 227 255
205 227 255
205 227 255
205 227 255
205 227 255
205 227 255
205 227 255
206 227 255
206 227 255
206 227 255
206 227 255
206 227 255
206 227 255
206 227 255
206 227 255
206 227 255
206 227 255
206 227 255
206 227 255
206 227 255
206 227 255
206 227 255
206 227 255
206 227 255
206 227 255
207 227 255
207 227 255
207 227 255
207 227 255
207 228 255
207 228 255
207 228 255
207 228 255
207 228 255
207 228 255
207 228 255
207 228 255
207 228 255
207 228 255
207 228 255
207 228 255
207 228 255
207 228 255
207 228 255
208 228 255
208 228 255
208 228 255
208 228 255
208 228 255
208 228 255
208 228 255
208 228 255
208 228 255
208 228 255
208 228 255
208 228 255
208 228 255
208 228 255
208 228 255
208 228 255
208 228 255
208 228 255
208 228 255
208 228 255
208 228 255
209 228 255
209 229 255
209 229 255
209 229 255
209 228 255
208 228 255
208 228 255
208 228 255
208 228 255
208 228 255
208 228 255
208 228 255
208 228 255
208 228 255
208 228 255
208 228 255
208 228 255
208 228 255
208 228 255
208 228 255
208 228 255
208 228 255
208 228 255
208 228 255
208 228 255
208 228 255
207 228 255
207 228 255
207 228 255
207 228 255
207 228 255
207 228 255
207 228 255
207 228 255
207 228 255
207 228 255
207 228 255
207 228 255
207 228 255
207 228 255
207 228 255
207 227 255
207 227 255
207 227 255
207 227 255
206 227 255
206 227 255
206 227 255
206 227 255
206 227 255
206 227 255
206 227 255
206 227 255
206 227 255
206 227 255
206 227 255
206 227 255
206 227 255
206 227 255
206 227 255
206 227 255
206 227 255
206 227 255
205 227 255
205 227 255
205 227 255
205 227 255
205 227 255
205 227 255
205 227 255
205 227 255
205 227 255
205 227 255
205 226 255
205 226 255
205 226 255
205 226 255
205 226 255
205 226 255
204 226 255
204 226 255
204 226 255
204 226 255
204 226 255
204 226 255
204 226 255
204 226 255
204 226 255
204 226 255
204 226 255
204 226 255
204 226 255
204 226 255
204 226 255
204 226 255
203 226 255
203 226 255
203 226 255
203 226 255
203 226 255
203 226 255
203 226 255
203 225 255
203 225 255
203 225 255
203 225 255
203 225 255
203 225 255
203 225 255
203 225 255
203 225 255
202 225 255
202 225 255
202 225 255
202 225 255
202 225 255
202 225 255
202 225 255
202 225 255
202 225 255
202 225 255
202 225 255
202 225 255
202 225 255
202 225 255
202 225 255
201 225 255
201 225 255
201 225 255
201 225 255
201 225 255
201 224 255
201 224 255
201 224 255
201 224 255
201 224 255
201 224 255
201 224 255
201 224 255
201 224 255
201 224 255
201 224 255
201 224 255
200 224 255
200 224 255
200 224 255
200 224 255
200 224 255
200 224 255
200 224 255
200 224 255
200 224 255
200 224 255
200 224 255
200 224 255
200 224 255
200 224 255
200 224 255
200 224 255
200 224 255
200 224 255
200 224 255
200 224 255
199 224 255
199 224 255
199 224 255
199 224 255
199 223 255
199 223 255
199 223 255
199 223 255
199 223 255
199 223 255
199 223 255
199 223 255
199 223 255
199 223 255
199 223 255
199 223 255
199 223 255
199 223 255
199 223 255
199 223 255
199 223 255
199 223 255
199 223 255
199 223 255
199 223 255
199 223 255
199 223 255
199 223 255
199 223 255
199 223 255
199 223 255
199 223 255
199 223 255
199 223 255
199 223 255
199 223 255
199 223 255
199 223 255
199 223 255
199 223 255
199 223 255
199 223 255
199 223 255
199 223 255
199 223 255
199 223 255
199 223 255
199 223 255
199 223 255
199 223 255
199 223 255
199 223 255
199 223 255
199 223 255
199 223 255
199 223 255
199 223 255
199 223 255
199 223 255
199 223 255
199 223 255
199 223 255
199 223 255
199 223 255
199 223 255
199 223 255
199 223 255
199 223 255
199 223 255
199 223 255
199 223 255
199 223 255
199 224 255
199 224 255
199 224 255
199 224 255
200 224 255
200 224 255
200 224 255
200 224 255
200 224 255
200 224 255
200 224 255
200 224 255
200 224 255
200 224 255
200 224 255
200 224 255
200 224 255
200 224 255
200 224 255
200 224 255
200 224 255
200 224 255
200 224 255
200 224 255
201 224 255
201 224 255
201 224 255
201 224 255
201 224 255
201 224 255
201 224 255
201 224 255
201 224 255
201 224 255
201 224 255
201 224 255
201 225 255
201 225 255
201 225 255
201 225 255
201 225 255
202 225 255
202 225 255
202 225 255
202 225 255
202 225 255
202 225 255
202 225 255
202 225 255
202 225 255
202 225 255
202 225 255
202 225 255
202 225 255
202 225 255
202 225 255
203 225 255
203 225 255
203 225 255
203 225 255
203 225 255
203 225 255
203 225 255
203 225 255
203 225 255
203 226 255
203 226 255
203 226 255
203 226 255
203 226 255
203 226 255
203 226 255
204 226 255
204 226 255
204 226 255
204 226 255
204 226 255
204 226 255
204 226 255
204 226 255
204 226 255
204 226 255
204 226 255
204 226 255
204 226 255
204 226 255
204 226 255
204 226 255
205 226 255
205 226 255
205 226 255
205 226 255
205 226 255
205 226 255
205 227 255
205 227 255
205 227 255
205 227 255
205 227 255
205 227 255
205 227 255
205 227 255
205 227 255
205 227 255
206 227 255
206 227 255
206 227 255
206 227 255
206 227 255
206 227 255
206 227 255
206 227 255
206 227 255
206 227 255
206 227 255
206 227 255
206 227 255
206 227 255
206 227 255
206 227 255
206 227 255
206 227 255
207 227 255
207 227 255
207 227 255
207 227 255
207 228 255
207 228 255
207 228 255
207 228 255
207 228 255
207 228 255
207 228 255
207 228 255
207 228 255
207 228 255
207 228 255
207 228 255
207 228 255
207 228 255
207 228 255
208 228 255
208 228 255
208 228 255
208 228 255
208 228 255
208 228 255
208 228 255
208 228 255
208 228 255
208 228 255
208 228 255
208 228 255
208 228 255
208 228 255
208 228 255
208 228 255
208 228 255
208 228 255
208 228 255
208 228 255
208 228 255
209 228 255
209 228 255
209 229 255
209 229 255
209 229 255
209 229 255
209 229 255
209 229 255
209 229 255
209 229 255
209 228 255
208 228 255
208 228 255
208 228 255
208 228 255
208 228 255
208 228 255
208 228 255
208 228 255
208 228 255
208 228 255
208 228 255
208 228 255
208 228 255
208 228 255
208 228 255
208 228 255
208 228 255
208 228 255
208 228 255
208 228 255
208 228 255
207 228 255
207 228 255
207 228 255
207 228 255
207 228 255
207 228 255
207 228 255
207 228 255
207 228 255
207 228 255
207 228 255
207 228 255
207 228 255
207 228 255
207 228 255
207 227 255
207 227 255
207 227 255
207 227 255
206 227 255
206 227 255
206 227 255
206 227 255
206 227 255
206 227 255
206 227 255
206 227 255
206 227 255
206 227 255
206 227 255
206 227 255
206 227 255
206 227 255
206 227 255
206 227 255
206 227 255
206 227 255
205 227 255
205 227 255
205 227 255
205 227 255
205 227 255
205 227 255
205 227 255
205 227 255
205 227 255
205 227 255
205 226 255
205 226 255
205 226 255
205 226 255
205 226 255
205 226 255
204 226 255
204 226 255
204 226 255
204 226 255
204 226 255
204 226 255
204 226 255
204 226 255
204 226 255
204 226 255
204 226 255
204 226 255
204 226 255
204 226 255
204 226 255
204 226 255
203 226 255
203 226 255
203 226 255
203 226 255
203 226 255
203 226 255
203 226 255
203 225 255
203 225 255
203 225 255
203 225 255
203 225 255
203 225 255
203 225 255
203 225 255
202 225 255
202 225 255
202 225 255
202 225 255
202 225 255
202 225 255
202 225 255
202 225 255
202 225 255
202 225 255
202 225 255
202 225 255
202 225 255
202 225 255
202 225 255
202 225 255
201 225 255
201 225 255
201 225 255
201 225 255
201 225 255
201 224 255
201 224 255
201 224 255
201 224 255
201 224 255
201 224 255
201 224 255
201 224 255
201 224 255
201 224 255
201 224 255
201 224 255
200 224 255
200 224 255
200 224 255
200 224 255
200 224 255
200 224 255
200 224 255
200 224 255
200 224 255
200 224 255
200 224 255
200 224 255
200 224 255
200 224 255
200 224 255
200 224 255
200 224 255
200 224 255
200 224 255
200 224 255
200 224 255
200 224 255
199 224 255
199 224 255
199 224 255
199 224 255
199 223 255
199 223 255
199 223 255
199 223 255
199 223 255
199 223 255
199 223 255
199 223 255
199 223 255
199 223 255
199 223 255
199 223 255
199 223 255
199 223 255
199 223 255
199 223 255
199 223 255
199 223 255
199 223 255
199 223 255
199 223 255
199 223 255
199 223 255
199 223 255
199 223 255
199 223 255
199 223 255
199 223 255
199 223 255
199 223 255
199 223 255
199 223 255
199 223 255
199 223 255
199 223 255
199 223 255
199 223 255
199 223 255
199 223 255
199 223 255
199 223 255
199 223 255
199 223 255
199 223 255
199 223 255
199 223 255
199 223 255
199 223 255
199 223 255
199 223 255
199 223 255
199 223 255
199 223 255
199 223 255
199 223 255
199 223 255
199 223 255
199 223 255
199 224 255
199 224 255
199 224 255
199 224 255
200 224 255
200 224 255
200 224 255
200 224 255
200 224 255
200 224 255
200 224 255
200 224 255
200 224 255
200 224 255
200 224 255
200 224 255
200 224 255
200 224 255
200 224 255
200 224 255
200 224 255
200 224 255
200 224 255
200 224 255
200 224 255
201 224 255
201 224 255
201 224 255
201 224 255
201 224 255
201 224 255
201 224 255
201 224 255
201 224 255
201 224 255
201 224 255
201 224 255
201 224 255
201 225 255
201 225 255
201 225 255
201 225 255
201 225 255
202 225 255
202 225 255
202 225 255
202 225 255
202 225 255
202 225 255
202 225 255
202 225 255
202 225 255
202 225 255
202 225 255
202 225 255
202 225 255
202 225 255
202 225 255
202 225 255
203 225 255
203 225 255
203 225 255
203 225 255
203 225 255
203 225 255
203 225 255
203 225 255
203 226 255
203 226 255
203 226 255
203 226 255
203 226 255
203 226 255
203 226 255
204 226 255
204 226 255
204 226 255
204 226 255
204 226 255
204 226 255
204 226 255
204 226 255
204 226 255
204 226 255
204 226 255
204 226 255
204 226 255
204 226 255
204 226 255
204 226 255
205 226 255
205 226 255
205 226 255
205 226 255
205 226 255
205 226 255
205 227 255
205 227 255
205 227 255
205 227 255
205 227 255
205 227 255
205 227 255
205 227 255
205 227 255
205 227 255
206 227 255
206 227 255
206 227 255
206 227 255
206 227 255
206 227 255
206 227 255
206 227 255
206 227 255
206 227 255
206 227 255
206 227 255
206 227 255
206 227 255
206 227 255
206 227 255
206 227 255
207 227 255
207 227 255
207 227 255
207 227 255
207 227 255
207 228 255
207 228 255
207 228 255
207 228 255
207 228 255
207 228 255
207 228 255
207 228 255
207 228 255
207 228 255
207 228 255
207 228 255
207 228 255
207 228 255
207 228 255
208 228 255
208 228 255
208 228 255
208 228 255
208 228 255
208 228 255
208 228 255
208 228 255
208 228 255
208 228 255
208 228 255
208 228 255
208 228 255
208 228 255
208 228 255
208 228 255
208 228 255
208 228 255
208 228 255
208 228 255
209 228 255
209 228 255
209 229 255
209 229 255
209 229 255
209 229 255
209 229 255
209 229 255
209 229 255
209 229 255
209 229 255
209 229 255
209 229 255
209 229 255
209 229 255
209 229 255
209 229 255
209 228 255
209 228 255
208 228 255
208 228 255
208 228 255
208 228 255
208 228 255
208 228 255
208 228 255
208 228 255
208 228 255
208 228 255
208 228 255
208 228 255
208 228 255
208 228 255
208 228 255
208 228 255
208 228 255
208 228 255
208 228 255
208 228 255
208 228 255
207 228 255
207 228 255
207 228 255
207 228 255
207 228 255
207 228 255
207 228 255
207 228 255
207 228 255
207 228 255
207 228 255
207 228 255
207 228 255
207 228 255
207 227 255
207 227 255
207 227 255
207 227 255
207 227 255
206 227 255
206 227 255
206 227 255
206 227 255
206 227 255
206 227 255
206 227 255
206 227 255
206 227 255
206 227 255
206 227 255
206 227 255
206 227 255
206 227 255
206 227 255
206 227 255
206 227 255
205 227 255
205 227 255
205 227 255
205 227 255
205 227 255
205 227 255
205 227 255
205 227 255
205 227 255
205 227 255
205 226 255
205 226 255
205 226 255
205 226 255
205 226 255
205 226 255
204 226 255
204 226 255
204 226 255
204 226 255
204 226 255
204 226 255
204 226 255
204 226 255
204 226 255
204 226 255
204 226 255
204 226 255
204 226 255
204 226 255
204 226 255
204 226 255
203 226 255
203 226 255
203 226 255
203 226 255
203 226 255
203 226 255
203 226 255
203 225 255
203 225 255
203 225 255
203 225 255
203 225 255
203 225 255
203 225 255
203 225 255
202 225 255
202 225 255
202 225 255
202 225 255
202 225 255
202 225 255
202 225 255
202 225 255
202 225 255
202 225 255
202 225 255
202 225 255
202 225 255
202 225 255
202 225 255
202 225 255
202 225 255
201 225 255
201 225 255
201 225 255
201 225 255
201 225 255
201 224 255
201 224 255
201 224 255
201 224 255
201 224 255
201 224 255
201 224 255
201 224 255
201 224 255
201 224 255
201 224 255
201 224 255
200 224 255
200 224 255
200 224 255
200 224 255
200 224 255
200 224 255
200 224 255
200 224 255
200 224 255
200 224 255
200 224 255
200 224 255
200 224 255
200 224 255
200 224 255
200 224 255
200 224 255
200 224 255
200 224 255
200 224 255
200 224 255
200 224 255
200 224 255
200 224 255
199 224 255
199 224 255
199 224 255
199 224 255
199 224 255
199 223 255
199 223 255
199 223 255
199 223 255
199 223 255
199 223 255
199 223 255
199 223 255
199 223 255
199 223 255
199 223 255
199 223 255
199 223 255
199 223 255
199 223 255
199 223 255
199 223 255
199 223 255
199 223 255
199 223 255
199 223 255
199 223 255
199 223 255
199 223 255
199 223 255
199 223 255
199 223 255
199 223 255
199 223 255
199 223 255
199 223 255
199 223 255
199 223 255
199 223 255
199 223 255
199 223 255
199 223 255
199 223 255
199 223 255
199 223 255
199 223 255
199 223 255
199 223 255
199 223 255
199 224 255
199 224 255
199 224 255
199 224 255
199 224 255
200 224 255
200 224 255
200 224 255
200 224 255
200 224 255
200 224 255
200 224 255
200 224 255
200 224 255
200 224 255
200 224 255
200 224 255
200 224 255
200 224 255
200 224 255
200 224 255
200 224 255
200 224 255
200 224 255
200 224 255
200 224 255
200 224 255
200 224 255
200 224 255
201 224 255
201 224 255
201 224 255
201 224 255
201 224 255
201 224 255
201 224 255
201 224 255
201 224 255
201 224 255
201 224 255
201 224 255
201 224 255
201 225 255
201 225 255
201 225 255
201 225 255
201 225 255
202 225 255
202 225 255
202 225 255
202 225 255
202 225 255
202 225 255
202 225 255
202 225 255
202 225 255
202 225 255
202 225 255
202 225 255
202 225 255
202 225 255
202 225 255
203 225 255
203 225 255
203 225 255
203 225 255
203 225 255
203 225 255
203 225 255
203 225 255
203 225 255
203 226 255
203 226 255
203 226 255
203 226 255
203 226 255
203 226 255
203 226 255
204 226 255
204 226 255
204 226 255
204 226 255
204 226 255
204 226 255
204 226 255
204 226 255
204 226 255
204 226 255
204 226 255
204 226 255
204 226 255
204 226 255
204 226 255
204 226 255
205 226 255
205 226 255
205 226 255
205 226 255
205 226 255
205 226 255
205 227 255
205 227 255
205 227 255
205 227 255
205 227 255
205 227 255
205 227 255
205 227 255
205 227 255
205 227 255
206 227 255
206 227 255
206 227 255
206 227 255
206 227 255
206 227 255
206 227 255
206 227 255
206 227 255
206 227 255
206 227 255
206 227 255
206 227 255
206 227 255
206 227 255
206 227 255
206 227 255
206 227 255
207 227 255
207 227 255
207 227 255
207 227 255
207 228 255
207 228 255
207 228 255
207 228 255
207 228 255
207 228 255
207 228 255
207 228 255
207 228 255
207 228 255
207 228 255
207 228 255
207 228 255
207 228 255
208 228 255
208 228 255
208 228 255
208 228 255
208 228 255
208 228 255
208 228 255
208 228 255
208 228 255
208 228 255
208 228 255
208 228 255
208 228 255
208 228 255
208 228 255
208 228 255
208 228 255
208 228 255
208 228 255
208 228 255
208 228 255
209 228 255
209 228 255
209 229 255
209 229 255
209 229 255
209 229 255
209 229 255
209 229 255
209 229 255
209 229 255
209 229 255
209 229 255
209 229 255
209 229 255
209 229 255
209 229 255
209 229 255
209 229 255
209 229 255
209 229 255
209 229 255
209 229 255
209 229 255
209 229 255
209 228 255
208 228 255
208 228 255
208 228 255
208 228 255
208 228 255
208 228 255
208 228 255
208 228 255
208 228 255
208 228 255
208 228 255
208 228 255
208 228 255
208 228 255
208 228 255
208 228 255
208 228 255
208 228 255
208 228 255
208 228 255
208 228 255
207 228 255
207 228 255
207 228 255
207 228 255
207 228 255
207 228 255
207 228 255
207 228 255
207 228 255
207 228 255
207 228 255
207 228 255
207 228 255
207 228 255
207 227 255
207 227 255
207 227 255
207 227 255
207 227 255
206 227 255
206 227 255
206 227 255
206 227 255
206 227 255
206 227 255
206 227 255
206 227 255
206 227 255
206 227 255
206 227 255
206 227 255
206 227 255
206 227 255
206 227 255
206 227 255
206 227 255
205 227 255
205 227 255
205 227 255
205 227 255
205 227 255
205 227 255
205 227 255
205 227 255
205 227 255
205 226 255
205 226 255
205 226 255
205 226 255
205 226 255
205 226 255
205 226 255
204 226 255
204 226 255
204 226 255
204 226 255
204 226 255
204 226 255
204 226 255
204 226 255
204 226 255
204 226 255
204 226 255
204 226 255
204 226 255
204 226 255
204 226 255
204 226 255
203 226 255
203 226 255
203 226 255
203 226 255
203 226 255
203 226 255
203 226 255
203 225 255
203 225 255
203 225 255
203 225 255
203 225 255
203 225 255
203 225 255
203 225 255
202 225 255
202 225 255
202 225 255
202 225 255
202 225 255
202 225 255
202 225 255
202 225 255
202 225 255
202 225 255
202 225 255
202 225 255
202 225 255
202 225 255
202 225 255
202 225 255
202 225 255
201 225 255
201 225 255
201 225 255
201 225 255
201 225 255
201 224 255
201 224 255
201 224 255
201 224 255
201 224 255
201 224 255
201 224 255
201 224 255
201 224 255
201 224 255
201 224 255
201 224 255
201 224 255
200 224 255
200 224 255
200 224 255
200 224 255
200 224 255
200 224 255
200 224 255
200 224 255
200 224 255
200 224 255
200 224 255
200 224 255
200 224 255
200 224 255
200 224 255
200 224 255
200 224 255
200 224 255
200 224 255
200 224 255
200 224 255
200 224 255
200 224 255
200 224 255
200 224 255
200 224 255
199 224 255
199 224 255
199 224 255
199 224 255
199 224 255
199 224 255
199 224 255
199 224 255
199 224 255
199 223 255
199 223 255
199 223 255
199 223 255
199 223 255
199 223 255
199 223 255
199 223 255
199 223 255
199 223 255
199 223 255
199 223 255
199 223 255
199 223 255
199 223 255
199 223 255
199 223 255
199 223 255
199 223 255
199 223 255
199 223 255
199 223 255
199 223 255
199 223 255
199 224 255
199 224 255
199 224 255
199 224 255
199 224 255
199 224 255
199 224 255
199 224 255
200 224 255
200 224 255
200 224 255
200 224 255
200 224 255
200 224 255
200 224 255
200 224 255
200 224 255
200 224 255
200 224 255
200 224 255
200 224 255
200 224 255
200 224 255
200 224 255
200 224 255
200 224 255
200 224 255
200 224 255
200 224 255
200 224 255
200 224 255
200 224 255
200 224 255
200 224 255
200 224 255
201 224 255
201 224 255
201 224 255
201 224 255
201 224 255
201 224 255
201 224 255
201 224 255
201 224 255
201 224 255
201 224 255
201 224 255
201 224 255
201 225 255
201 225 255
201 225 255
201 225 255
201 225 255
202 225 255
202 225 255
202 225 255
202 225 255
202 225 255
202 225 255
202 225 255
202 225 255
202 225 255
202 225 255
202 225 255
202 225 255
202 225 255
202 225 255
202 225 255
202 225 255
203 225 255
203 225 255
203 225 255
203 225 255
203 225 255
203 225 255
203 225 255
203 225 255
203 225 255
203 226 255
203 226 255
203 226 255
203 226 255
203 226 255
203 226 255
203 226 255
204 226 255
204 226 255
204 226 255
204 226 255
204 226 255
204 226 255
204 226 255
204 226 255
204 226 255
204 226 255
204 226 255
204 226 255
204 226 255
204 226 255
204 226 255
204 226 255
205 226 255
205 226 255
205 226 255
205 226 255
205 226 255
205 226 255
205 227 255
205 227 255
205 227 255
205 227 255
205 227 255
205 227 255
205 227 255
205 227 255
205 227 255
205 227 255
206 227 255
206 227 255
206 227 255
206 227 255
206 227 255
206 227 255
206 227 255
206 227 255
206 227 255
206 227 255
206 227 255
206 227 255
206 227 255
206 227 255
206 227 255
206 227 255
206 227 255
206 227 255
207 227 255
207 227 255
207 227 255
207 227 255
207 228 255
207 228 255
207 228 255
207 228 255
207 228 255
207 228 255
207 228 255
207 228 255
207 228 255
207 228 255
207 228 255
207 228 255
207 228 255
207 228 255
208 228 255
208 228 255
208 228 255
208 228 255
208 228 255
208 228 255
208 228 255
208 228 255
208 228 255
208 228 255
208 228 255
208 228 255
208 228 255
208 228 255
208 228 255
208 228 255
208 228 255
208 228 255
208 228 255
208 228 255
208 228 255
209 228 255
209 228 255
209 229 255
209 229 255
209 229 255
209 229 255
209 229 255
209 229 255
209 229 255
209 229 255
209 229 255
209 229 255
209 229 255
209 229 255
209 229 255
209 229 255
209 229 255
209 229 255
209 229 255
209 229 255
209 229 255
209 229 255
209 229 255
209 229 255
209 229 255
209 229 255
209 229 255
209 229 255
209 229 255
209 229 255
209 228 255
208 228 255
208 228 255
208 228 255
208 228 255
208 228 255
208 228 255
208 228 255
208 228 255
208 228 255
208 228 255
208 228 255
208 228 255
208 228 255
208 228 255
208 228 255
208 228 255
208 228 255
208 228 255
208 228 255
208 228 255
208 228 255
207 228 255
207 228 255
207 228 255
207 228 255
207 228 255
207 228 255
207 228 255
207 228 255
207 228 255
207 228 255
207 228 255
207 228 255
207 228 255
207 228 255
207 227 255
207 227 255
207 227 255
207 227 255
206 227 255
206 227 255
206 227 255
206 227 255
206 227 255
206 227 255
206 227 255
206 227 255
206 227 255
206 227 255
206 227 255
206 227 255
206 227 255
206 227 255
206 227 255
206 227 255
206 227 255
206 227 255
205 227 255
205 227 255
205 227 255
205 227 255
205 227 255
205 227 255
205 227 255
205 227 255
205 227 255
205 226 255
205 226 255
205 226 255
205 226 255
205 226 255
205 226 255
205 226 255
204 226 255
204 226 255
204 226 255
204 226 255
204 226 255
204 226 255
204 226 255
204 226 255
204 226 255
204 226 255
204 226 255
204 226 255
204 226 255
204 226 255
204 226 255
204 226 255
203 226 255
203 226 255
203 226 255
203 226 255
203 226 255
203 226 255
203 226 255
203 225 255
203 225 255
203 225 255
203 225 255
203 225 255
203 225 255
203 225 255
203 225 255
203 225 255
202 225 255
202 225 255
202 225 255
202 225 255
202 225 255
202 225 255
202 225 255
202 225 255
202 225 255
202 225 255
202 225 255
202 225 255
202 225 255
202 225 255
202 225 255
202 225 255
201 225 255
201 225 255
201 225 255
201 225 255
201 225 255
201 224 255
201 224 255
201 224 255
201 224 255
201 224 255
201 224 255
201 224 255
201 224 255
201 224 255
201 224 255
201 224 255
201 224 255
201 224 255
201 224 255
200 224 255
200 224 255
200 224 255
200 224 255
200 224 255
200 224 255
200 224 255
200 224 255
200 224 255
200 224 255
200 224 255
200 224 255
200 224 255
200 224 255
200 224 255
200 224 255
200 224 255
200 224 255
200 224 255
200 224 255
200 224 255
200 224 255
200 224 255
200 224 255
200 224 255
200 224 255
200 224 255
200 224 255
200 224 255
200 224 255
200 224 255
200 224 255
200 224 255
200 224 255
199 224 255
199 224 255
199 224 255
199 224 255
199 224 255
199 224 255
199 224 255
199 224 255
199 224 255
199 224 255
199 224 255
199 224 255
199 224 255
199 224 255
199 224 255
199 224 255
199 224 255
199 224 255
199 224 255
200 224 255
200 224 255
200 224 255
200 224 255
200 224 255
200 224 255
200 224 255
200 224 255
200 224 255
200 224 255
200 224 255
200 224 255
200 224 255
200 224 255
200 224 255
200 224 255
200 224 255
200 224 255
200 224 255
200 224 255
200 224 255
200 224 255
200 224 255
200 224 255
200 224 255
200 224 255
200 224 255
200 224 255
200 224 255
200 224 255
200 224 255
200 224 255
200 224 255
201 224 255
201 224 255
201 224 255
201 224 255
201 224 255
201 224 255
201 224 255
201 224 255
201 224 255
201 224 255
201 224 255
201 224 255
201 224 255
201 224 255
201 225 255
201 225 255
201 225 255
201 225 255
201 225 255
202 225 255
202 225 255
202 225 255
202 225 255
202 225 255
202 225 255
202 225 255
202 225 255
202 225 255
202 225 255
202 225 255
202 225 255
202 225 255
202 225 255
202 225 255
202 225 255
203 225 255
203 225 255
203 225 255
203 225 255
203 225 255
203 225 255
203 225 255
203 225 255
203 225 255
203 226 255
203 226 255
203 226 255
203 226 255
203 226 255
203 226 255
203 226 255
204 226 255
204 226 255
204 226 255
204 226 255
204 226 255
204 226 255
204 226 255
204 226 255
204 226 255
204 226 255
204 226 255
204 226 255
204 226 255
204 226 255
204 226 255
204 226 255
205 226 255
205 226 255
205 226 255
205 226 255
205 226 255
205 226 255
205 227 255
205 227 255
205 227 255
205 227 255
205 227 255
205 227 255
205 227 255
205 227 255
205 227 255
205 227 255
206 227 255
206 227 255
206 227 255
206 227 255
206 227 255
206 227 255
206 227 255
206 227 255
206 227 255
206 227 255
206 227 255
206 227 255
206 227 255
206 227 255
206 227 255
206 227 255
206 227 255
207 227 255
207 227 255
207 227 255
207 227 255
207 227 255
207 228 255
207 228 255
207 228 255
207 228 255
207 228 255
207 228 255
207 228 255
207 228 255
207 228 255
207 228 255
207 228 255
207 228 255
207 228 255
207 228 255
208 228 255
208 228 255
208 228 255
208 228 255
208 228 255
208 228 255
208 228 255
208 228 255
208 228 255
208 228 255
208 228 255
208 228 255
208 228 255
208 228 255
208 228 255
208 228 255
208 228 255
208 228 255
208 228 255
208 228 255
208 228 255
209 228 255
209 229 255
209 229 255
209 229 255
209 229 255
209 229 255
209 229 255
209 229 255
209 229 255
209 229 255
209 229 255
209 229 255
209 229 255
209 229 255
209 229 255
209 229 255
209 229 255
209 229 255
209 229 255
209 229 255
209 229 255
209 229 255
209 229 255
209 229 255
209 229 255
209 229 255
209 229 255
209 229 255
209 229 255
209 229 255
209 229 255
209 229 255
209 229 255
209 229 255
209 229 255
209 229 255
209 228 255
209 228 255
208 228 255
208 228 255
208 228 255
208 228 255
208 228 255
208 228 255
208 228 255
208 228 255
208 228 255
208 228 255
208 228 255
208 228 255
208 228 255
208 228 255
208 228 255
208 228 255
208 228 255
208 228 255
208 228 255
208 228 255
207 228 255
207 228 255
207 228 255
207 228 255
207 228 255
207 228 255
207 228 255
207 228 255
207 228 255
207 228 255
207 228 255
207 228 255
207 228 255
207 228 255
207 227 255
207 227 255
207 227 255
207 227 255
207 227 255
206 227 255
206 227 255
206 227 255
206 227 255
206 227 255
206 227 255
206 227 255
206 227 255
206 227 255
206 227 255
206 227 255
206 227 255
206 227 255
206 227 255
206 227 255
206 227 255
206 227 255
205 227 255
205 227 255
205 227 255
205 227 255
205 227 255
205 227 255
205 227 255
205 227 255
205 227 255
205 226 255
205 226 255
205 226 255
205 226 255
205 226 255
205 226 255
205 226 255
204 226 255
204 226 255
204 226 255
204 226 255
204 226 255
204 226 255
204 226 255
204 226 255
204 226 255
204 226 255
204 226 255
204 226 255
204 226 255
204 226 255
204 226 255
204 226 255
203 226 255
203 226 255
203 226 255
203 226 255
203 226 255
203 226 255
203 226 255
203 225 255
203 225 255
203 225 255
203 225 255
203 225 255
203 225 255
203 225 255
203 225 255
203 225 255
202 225 255
202 225 255
202 225 255
202 225 255
202 225 255
202 225 255
202 225 255
202 225 255
202 225 255
202 225 255
202 225 255
202 225 255
202 225 255
202 225 255
202 225 255
202 225 255
202 225 255
201 225 255
201 225 255
201 225 255
201 225 255
201 225 255
201 224 255
201 224 255
201 224 255
201 224 255
201 224 255
201 224 255
201 224 255
201 224 255
201 224 255
201 224 255
201 224 255
201 224 255
201 224 255
201 224 255
201 224 255
200 224 255
200 224 255
200 224 255
200 224 255
200 224 255
200 224 255
200 224 255
200 224 255
200 224 255
200 224 255
200 224 255
200 224 255
200 224 255
200 224 255
200 224 255
200 224 255
200 224 255
200 224 255
200 224 255
200 224 255
200 224 255
200 224 255
200 224 255
200 224 255
200 224 255
200 224 255
200 224 255
200 224 255
200 224 255
200 224 255
200 224 255
200 224 255
200 224 255
200 224 255
200 224 255
200 224 255
200 224 255
200 224 255
200 224 255
200 224 255
200 224 255
200 224 255
200 224 255
200 224 255
200 224 255
200 224 255
200 224 255
200 224 255
200 224 255
200 224 255
200 224 255
200 224 255
200 224 255
200 224 255
200 224 255
200 224 255
200 224 255
200 224 255
200 224 255
200 224 255
200 224 255
200 224 255
200 224 255
200 224 255
200 224 255
200 224 255
200 224 255
200 224 255
200 224 255
200 224 255
200 224 255
200 224 255
200 224 255
200 224 255
200 224 255
200 224 255
201 224 255
201 224 255
201 224 255
201 224 255
201 224 255
201 224 255
201 224 255
201 224 255
201 224 255
201 224 255
201 224 255
201 224 255
201 224 255
201 224 255
201 224 255
201 225 255
201 225 255
201 225 255
201 225 255
201 225 255
202 225 255
202 225 255
202 225 255
202 225 255
202 225 255
202 225 255
202 225 255
202 225 255
202 225 255
202 225 255
202 225 255
202 225 255
202 225 255
202 225 255
202 225 255
202 225 255
202 225 255
203 225 255
203 225 255
203 225 255
203 225 255
203 225 255
203 225 255
203 225 255
203 225 255
203 225 255
203 226 255
203 226 255
203 226 255
203 226 255
203 226 255
203 226 255
203 226 255
204 226 255
204 226 255
204 226 255
204 226 255
204 226 255
204 226 255
204 226 255
204 226 255
204 226 255
204 226 255
204 226 255
204 226 255
204 226 255
204 226 255
204 226 255
204 226 255
205 226 255
205 226 255
205 226 255
205 226 255
205 226 255
205 226 255
205 226 255
205 227 255
205 227 255
205 227 255
205 227 255
205 227 255
205 227 255
205 227 255
205 227 255
205 227 255
206 227 255
206 227 255
206 227 255
206 227 255
206 227 255
206 227 255
206 227 255
206 227 255
206 227 255
206 227 255
206 227 255
206 227 255
206 227 255
206 227 255
206 227 255
206 227 255
206 227 255
207 227 255
207 227 255
207 227 255
207 227 255
207 227 255
207 228 255
207 228 255
207 228 255
207 228 255
207 228 255
207 228 255
207 228 255
207 228 255
207 228 255
207 228 255
207 228 255
207 228 255
207 228 255
207 228 255
208 228 255
208 228 255
208 228 255
208 228 255
208 228 255
208 228 255
208 228 255
208 228 255
208 228 255
208 228 255
208 228 255
208 228 255
208 228 255
208 228 255
208 228 255
208 228 255
208 228 255
208 228 255
208 228 255
208 228 255
209 228 255
209 228 255
209 229 255
209 229 255
209 229 255
209 229 255
209 229 255
209 229 255
209 229 255
209 229 255
209 229 255
209 229 255
209 229 255
209 229 255
209 229 255
209 229 255
209 229 255
209 229 255
209 229 255
209 229 255
209 229 255
210 229 255
209 229 255
209 229 255
209 229 255
209 229 255
209 229 255
209 229 255
209 229 255
209 229 255
209 229 255
209 229 255
209 229 255
209 229 255
209 229 255
209 229 255
209 229 255
209 229 255
209 229 255
209 229 255
209 229 255
209 229 255
209 229 255
209 228 255
209 228 255
208 228 255
208 228 255
208 228 255
208 228 255
208 228 255
208 228 255
208 228 255
208 228 255
208 228 255
208 228 255
208 228 255
208 228 255
208 228 255
208 228 255
208 228 255
208 228 255
208 228 255
208 228 255
208 228 255
208 228 255
207 228 255
207 228 255
207 228 255
207 228 255
207 228 255
207 228 255
207 228 255
207 228 255
207 228 255
207 228 255
207 228 255
207 228 255
207 228 255
207 228 255
207 227 255
207 227 255
207 227 255
207 227 255
207 227 255
206 227 255
206 227 255
206 227 255
206 227 255
206 227 255
206 227 255
206 227 255
206 227 255
206 227 255
206 227 255
206 227 255
206 227 255
206 227 255
206 227 255
206 227 255
206 227 255
206 227 255
205 227 255
205 227 255
205 227 255
205 227 255
205 227 255
205 227 255
205 227 255
205 227 255
205 227 255
205 227 255
205 226 255
205 226 255
205 226 255
205 226 255
205 226 255
205 226 255
204 226 255
204 226 255
204 226 255
204 226 255
204 226 255
204 226 255
204 226 255
204 226 255
204 226 255
204 226 255
204 226 255
204 226 255
204 226 255
204 226 255
204 226 255
204 226 255
203 226 255
203 226 255
203 226 255
203 226 255
203 226 255
203 226 255
203 226 255
203 225 255
203 225 255
203 225 255
203 225 255
203 225 255
203 225 255
203 225 255
203 225 255
203 225 255
202 225 255
202 225 255
202 225 255
202 225 255
202 225 255
202 225 255
202 225 255
202 225 255
202 225 255
202 225 255
202 225 255
202 225 255
202 225 255
202 225 255
202 225 255
202 225 255
202 225 255
201 225 255
201 225 255
201 225 255
201 225 255
201 225 255
201 225 255
201 225 255
201 224 255
201 224 255
201 224 255
201 224 255
201 224 255
201 224 255
201 224 255
201 224 255
201 224 255
201 224 255
201 224 255
201 224 255
201 224 255
201 224 255
201 224 255
200 224 255
200 224 255
200 224 255
200 224 255
200 224 255
200 224 255
200 224 255
200 224 255
200 224 255
200 224 255
200 224 255
200 224 255
200 224 255
200 224 255
200 224 255
200 224 255
200 224 255
200 224 255
200 224 255
200 224 255
200 224 255
200 224 255
200 224 255
200 224 255
200 224 255
200 224 255
200 224 255
200 224 255
200 224 255
200 224 255
200 224 255
200 224 255
200 224 255
200 224 255
200 224 255
200 224 255
200 224 255
200 224 255
200 224 255
200 224 255
200 224 255
200 224 255
200 224 255
200 224 255
200 224 255
200 224 255
200 224 255
200 224 255
200 224 255
200 224 255
200 224 255
200 224 255
200 224 255
200 224 255
200 224 255
200 224 255
200 224 255
200 224 255
200 224 255
200 224 255
200 224 255
200 224 255
200 224 255
200 224 255
200 224 255
201 224 255
201 224 255
201 224 255
201 224 255
201 224 255
201 224 255
201 224 255
201 224 255
201 224 255
201 224 255
201 224 255
201 224 255
201 224 255
201 224 255
201 224 255
201 224 255
201 224 255
201 225 255
201 225 255
201 225 255
201 225 255
201 225 255
202 225 255
202 225 255
202 225 255
202 225 255
202 225 255
202 225 255
202 225 255
202 225 255
202 225 255
202 225 255
202 225 255
202 225 255
202 225 255
202 225 255
202 225 255
202 225 255
202 225 255
202 225 255
203 225 255
203 225 255
203 225 255
203 225 255
203 225 255
203 225 255
203 225 255
203 225 255
203 225 255
203 226 255
203 226 255
203 226 255
203 226 255
203 226 255
203 226 255
203 226 255
204 226 255
204 226 255
204 226 255
204 226 255
204 226 255
204 226 255
204 226 255
204 226 255
204 226 255
204 226 255
204 226 255
204 226 255
204 226 255
204 226 255
204 226 255
204 226 255
205 226 255
205 226 255
205 226 255
205 226 255
205 226 255
205 226 255
205 226 255
205 227 255
205 227 255
205 227 255
205 227 255
205 227 255
205 227 255
205 227 255
205 227 255
205 227 255
206 227 255
206 227 255
206 227 255
206 227 255
206 227 255
206 227 255
206 227 255
206 227 255
206 227 255
206 227 255
206 227 255
206 227 255
206 227 255
206 227 255
206 227 255
206 227 255
206 227 255
207 227 255
207 227 255
207 227 255
207 227 255
207 227 255
207 228 255
207 228 255
207 228 255
207 228 255
207 228 255
207 228 255
207 228 255
207 228 255
207 228 255
207 228 255
207 228 255
207 228 255
207 228 255
207 228 255
208 228 255
208 228 255
208 228 255
208 228 255
208 228 255
208 228 255
208 228 255
208 228 255
208 228 255
208 228 255
208 228 255
208 228 255
208 228 255
208 228 255
208 228 255
208 228 255
208 228 255
208 228 255
208 228 255
208 228 255
209 228 255
209 228 255
209 229 255
209 229 255
209 229 255
209 229 255
209 229 255
209 229 255
209 229 255
209 229 255
209 229 255
209 229 255
209 229 255
209 229 255
209 229 255
209 229 255
209 229 255
209 229 255
209 229 255
209 229 255
209 229 255
209 229 255
209 229 255
210 229 255
210 229 255
210 229 255
210 229 255
210 229 255
210 229 255
209 229 255
209 229 255
209 229 255
209 229 255
209 229 255
209 229 255
209 229 255
209 229 255
209 229 255
209 229 255
209 229 255
209 229 255
209 229 255
209 229 255
209 229 255
209 229 255
209 229 255
209 229 255
209 229 255
209 229 255
209 229 255
209 228 255
208 228 255
208 228 255
208 228 255
208 228 255
208 228 255
208 228 255
208 228 255
208 228 255
208 228 255
208 228 255
208 228 255
208 228 255
208 228 255
208 228 255
208 228 255
208 228 255
208 228 255
208 228 255
208 228 255
208 228 255
207 228 255
207 228 255
207 228 255
207 228 255
207 228 255
207 228 255
207 228 255
207 228 255
207 228 255
207 228 255
207 228 255
207 228 255
207 228 255
207 228 255
207 227 255
207 227 255
207 227 255
207 227 255
207 227 255
206 227 255
206 227 255
206 227 255
206 227 255
206 227 255
206 227 255
206 227 255
206 227 255
206 227 255
206 227 255
206 227 255
206 227 255
206 227 255
206 227 255
206 227 255
206 227 255
206 227 255
205 227 255
205 227 255
205 227 255
205 227 255
205 227 255
205 227 255
205 227 255
205 227 255
205 227 255
205 227 255
205 226 255
205 226 255
205 226 255
205 226 255
205 226 255
205 226 255
204 226 255
204 226 255
204 226 255
204 226 255
204 226 255
204 226 255
204 226 255
204 226 255
204 226 255
204 226 255
204 226 255
204 226 255
204 226 255
204 226 255
204 226 255
204 226 255
203 226 255
203 226 255
203 226 255
203 226 255
203 226 255
203 226 255
203 226 255
203 225 255
203 225 255
203 225 255
203 225 255
203 225 255
203 225 255
203 225 255
203 225 255
203 225 255
203 225 255
202 225 255
202 225 255
202 225 255
202 225 255
202 225 255
202 225 255
202 225 255
202 225 255
202 225 255
202 225 255
202 225 255
202 225 255
202 225 255
202 225 255
202 225 255
202 225 255
202 225 255
202 225 255
201 225 255
201 225 255
201 225 255
201 225 255
201 225 255
201 225 255
201 224 255
201 224 255
201 224 255
201 224 255
201 224 255
201 224 255
201 224 255
201 224 255
201 224 255
201 224 255
201 224 255
201 224 255
201 224 255
201 224 255
201 224 255
201 224 255
201 224 255
201 224 255
200 224 255
200 224 255
200 224 255
200 224 255
200 224 255
200 224 255
200 224 255
200 224 255
200 224 255
200 224 255
200 224 255
200 224 255
200 224 255
200 224 255
200 224 255
200 224 255
200 224 255
200 224 255
200 224 255
200 224 255
200 224 255
200 224 255
200 224 255
200 224 255
200 224 255
200 224 255
200 224 255
200 224 255
200 224 255
200 224 255
200 224 255
200 224 255
200 224 255
200 224 255
200 224 255
200 224 255
200 224 255
200 224 255
200 224 255
200 224 255
200 224 255
200 224 255
200 224 255
200 224 255
200 224 255
200 224 255
200 224 255
200 224 255
200 224 255
200 224 255
200 224 255
200 224 255
201 224 255
201 224 255
201 224 255
201 224 255
201 224 255
201 224 255
201 224 255
201 224 255
201 224 255
201 224 255
201 224 255
201 224 255
201 224 255
201 224 255
201 224 255
201 224 255
201 224 255
201 224 255
201 225 255
201 225 255
201 225 255
201 225 255
201 225 255
201 225 255
202 225 255
202 225 255
202 225 255
202 225 255
202 225 255
202 225 255
202 225 255
202 225 255
202 225 255
202 225 255
202 225 255
202 225 255
202 225 255
202 225 255
202 225 255
202 225 255
202 225 255
202 225 255
203 225 255
203 225 255
203 225 255
203 225 255
203 225 255
203 225 255
203 225 255
203 225 255
203 225 255
203 225 255
203 226 255
203 226 255
203 226 255
203 226 255
203 226 255
203 226 255
203 226 255
204 226 255
204 226 255
204 226 255
204 226 255
204 226 255
204 226 255
204 226 255
204 226 255
204 226 255
204 226 255
204 226 255
204 226 255
204 226 255
204 226 255
204 226 255
204 226 255
205 226 255
205 226 255
205 226 255
205 226 255
205 226 255
205 226 255
205 227 255
205 227 255
205 227 255
205 227 255
205 227 255
205 227 255
205 227 255
205 227 255
205 227 255
205 227 255
206 227 255
206 227 255
206 227 255
206 227 255
206 227 255
206 227 255
206 227 255
206 227 255
206 227 255
206 227 255
206 227 255
206 227 255
206 227 255
206 227 255
206 227 255
206 227 255
206 227 255
207 227 255
207 227 255
207 227 255
207 227 255
207 227 255
207 228 255
207 228 255
207 228 255
207 228 255
207 228 255
207 228 255
207 228 255
207 228 255
207 228 255
207 228 255
207 228 255
207 228 255
207 228 255
207 228 255
208 228 255
208 228 255
208 228 255
208 228 255
208 228 255
208 228 255
208 228 255
208 228 255
208 228 255
208 228 255
208 228 255
208 228 255
208 228 255
208 228 255
208 228 255
208 228 255
208 228 255
208 228 255
208 228 255
208 228 255
209 228 255
209 229 255
209 229 255
209 229 255
209 229 255
209 229 255
209 229 255
209 229 255
209 229 255
209 229 255
209 229 255
209 229 255
209 229 255
209 229 255
209 229 255
209 229 255
209 229 255
209 229 255
209 229 255
209 229 255
209 229 255
209 229 255
210 229 255
210 229 255
210 229 255
210 229 255
210 229 255
210 229 255
210 229 255
210 229 255
210 229 255
210 229 255
210 229 255
210 229 255
210 229 255
209 229 255
209 229 255
209 229 255
209 229 255
209 229 255
209 229 255
209 229 255
209 229 255
209 229 255
209 229 255
209 229 255
209 229 255
209 229 255
209 229 255
209 229 255
209 229 255
209 229 255
209 229 255
209 229 255
209 229 255
209 229 255
209 228 255
209 228 255
208 228 255
208 228 255
208 228 255
208 228 255
208 228 255
208 228 255
208 228 255
208 228 255
208 228 255
208 228 255
208 228 255
208 228 255
208 228 255
208 228 255
208 228 255
208 228 255
208 228 255
208 228 255
208 228 255
208 228 255
207 228 255
207 228 255
207 228 255
207 228 255
207 228 255
207 228 255
207 228 255
207 228 255
207 228 255
207 228 255
207 228 255
207 228 255
207 228 255
207 228 255
207 227 255
207 227 255
207 227 255
207 227 255
206 227 255
206 227 255
206 227 255
206 227 255
206 227 255
206 227 255
206 227 255
206 227 255
206 227 255
206 227 255
206 227 255
206 227 255
206 227 255
206 227 255
206 227 255
206 227 255
206 227 255
205 227 255
205 227 255
205 227 255
205 227 255
205 227 255
205 227 255
205 227 255
205 227 255
205 227 255
205 227 255
205 226 255
205 226 255
205 226 255
205 226 255
205 226 255
205 226 255
204 226 255
204 226 255
204 226 255
204 226 255
204 226 255
204 226 255
204 226 255
204 226 255
204 226 255
204 226 255
204 226 255
204 226 255
204 226 255
204 226 255
204 226 255
204 226 255
203 226 255
203 226 255
203 226 255
203 226 255
203 226 255
203 226 255
203 226 255
203 226 255
203 225 255
203 225 255
203 225 255
203 225 255
203 225 255
203 225 255
203 225 255
203 225 255
203 225 255
202 225 255
202 225 255
202 225 255
202 225 255
202 225 255
202 225 255
202 225 255
202 225 255
202 225 255
202 225 255
202 225 255
202 225 255
202 225 255
202 225 255
202 225 255
202 225 255
202 225 255
202 225 255
202 225 255
201 225 255
201 225 255
201 225 255
201 225 255
201 225 255
201 225 255
201 224 255
201 224 255
201 224 255
201 224 255
201 224 255
201 224 255
201 224 255
201 224 255
201 224 255
201 224 255
201 224 255
201 224 255
201 224 255
201 224 255
201 224 255
201 224 255
201 224 255
201 224 255
201 224 255
201 224 255
201 224 255
201 224 255
200 224 255
200 224 255
200 224 255
200 224 255
200 224 255
200 224 255
200 224 255
200 224 255
200 224 255
200 224 255
200 224 255
200 224 255
200 224 255
200 224 255
200 224 255
200 224 255
200 224 255
200 224 255
200 224 255
200 224 255
200 224 255
200 224 255
200 224 255
200 224 255
200 224 255
200 224 255
200 224 255
200 224 255
200 224 255
200 224 255
200 224 255
200 224 255
200 224 255
200 224 255
200 224 255
200 224 255
201 224 255
201 224 255
201 224 255
201 224 255
201 224 255
201 224 255
201 224 255
201 224 255
201 224 255
201 224 255
201 224 255
201 224 255
201 224 255
201 224 255
201 224 255
201 224 255
201 224 255
201 224 255
201 224 255
201 224 255
201 224 255
201 225 255
201 225 255
201 225 255
201 225 255
201 225 255
201 225 255
201 225 255
202 225 255
202 225 255
202 225 255
202 225 255
202 225 255
202 225 255
202 225 255
202 225 255
202 225 255
202 225 255
202 225 255
202 225 255
202 225 255
202 225 255
202 225 255
202 225 255
202 225 255
202 225 255
202 225 255
203 225 255
203 225 255
203 225 255
203 225 255
203 225 255
203 225 255
203 225 255
203 225 255
203 225 255
203 226 255
203 226 255
203 226 255
203 226 255
203 226 255
203 226 255
203 226 255
203 226 255
204 226 255
204 226 255
204 226 255
204 226 255
204 226 255
204 226 255
204 226 255
204 226 255
204 226 255
204 226 255
204 226 255
204 226 255
204 226 255
204 226 255
204 226 255
204 226 255
205 226 255
205 226 255
205 226 255
205 226 255
205 226 255
205 226 255
205 227 255
205 227 255
205 227 255
205 227 255
205 227 255
205 227 255
205 227 255
205 227 255
205 227 255
205 227 255
206 227 255
206 227 255
206 227 255
206 227 255
206 227 255
206 227 255
206 227 255
206 227 255
206 227 255
206 227 255
206 227 255
206 227 255
206 227 255
206 227 255
206 227 255
206 227 255
206 227 255
207 227 255
207 227 255
207 227 255
207 227 255
207 228 255
207 228 255
207 228 255
207 228 255
207 228 255
207 228 255
207 228 255
207 228 255
207 228 255
207 228 255
207 228 255
207 228 255
207 228 255
207 228 255
208 228 255
208 228 255
208 228 255
208 228 255
208 228 255
208 228 255
208 228 255
208 228 255
208 228 255
208 228 255
208 228 255
208 228 255
208 228 255
208 228 255
208 228 255
208 228 255
208 228 255
208 228 255
208 228 255
208 228 255
209 228 255
209 228 255
209 229 255
209 229 255
209 229 255
209 229 255
209 229 255
209 229 255
209 229 255
209 229 255
209 229 255
209 229 255
209 229 255
209 229 255
209 229 255
209 229 255
209 229 255
209 229 255
209 229 255
209 229 255
209 229 255
209 229 255
209 229 255
210 229 255
210 229 255
210 229 255
210 229 255
210 229 255
210 229 255
210 229 255
210 229 255
210 229 255
210 229 255
210 229 255
210 229 255
210 229 255
210 229 255
210 229 255
210 229 255
210 229 255
210 229 255
210 229 255
210 229 255
209 229 255
209 229 255
209 229 255
209 229 255
209 229 255
209 229 255
209 229 255
209 229 255
209 229 255
209 229 255
209 229 255
209 229 255
209 229 255
209 229 255
209 229 255
209 229 255
209 229 255
209 229 255
209 229 255
209 229 255
209 229 255
209 228 255
208 228 255
208 228 255
208 228 255
208 228 255
208 228 255
208 228 255
208 228 255
208 228 255
208 228 255
208 228 255
208 228 255
208 228 255
208 228 255
208 228 255
208 228 255
208 228 255
208 228 255
208 228 255
208 228 255
208 228 255
207 228 255
207 228 255
207 228 255
207 228 255
207 228 255
207 228 255
207 228 255
207 228 255
207 228 255
207 228 255
207 228 255
207 228 255
207 228 255
207 228 255
207 227 255
207 227 255
207 227 255
207 227 255
206 227 255
206 227 255
206 227 255
206 227 255
206 227 255
206 227 255
206 227 255
206 227 255
206 227 255
206 227 255
206 227 255
206 227 255
206 227 255
206 227 255
206 227 255
206 227 255
206 227 255
205 227 255
205 227 255
205 227 255
205 227 255
205 227 255
205 227 255
205 227 255
205 227 255
205 227 255
205 227 255
205 226 255
205 226 255
205 226 255
205 226 255
205 226 255
205 226 255
204 226 255
204 226 255
204 226 255
204 226 255
204 226 255
204 226 255
204 226 255
204 226 255
204 226 255
204 226 255
204 226 255
204 226 255
204 226 255
204 226 255
204 226 255
204 226 255
204 226 255
203 226 255
203 226 255
203 226 255
203 226 255
203 226 255
203 226 255
203 226 255
203 225 255
203 225 255
203 225 255
203 225 255
203 225 255
203 225 255
203 225 255
203 225 255
203 225 255
203 225 255
202 225 255
202 225 255
202 225 255
202 225 255
202 225 255
202 225 255
202 225 255
202 225 255
202 225 255
202 225 255
202 225 255
202 225 255
202 225 255
202 225 255
202 225 255
202 225 255
202 225 255
202 225 255
202 225 255
201 225 255
201 225 255
201 225 255
201 225 255
201 225 255
201 225 255
201 225 255
201 225 255
201 224 255
201 224 255
201 224 255
201 224 255
201 224 255
201 224 255
201 224 255
201 224 255
201 224 255
201 224 255
201 224 255
201 224 255
201 224 255
201 224 255
201 224 255
201 224 255
201 224 255
201 224 255
201 224 255
201 224 255
201 224 255
201 224 255
201 224 255
201 224 255
201 224 255
201 224 255
201 224 255
201 224 255
201 224 255
201 224 255
201 224 255
201 224 255
201 224 255
201 224 255
201 224 255
201 224 255
201 224 255
201 224 255
201 224 255
201 224 255
201 224 255
201 224 255
201 224 255
201 224 255
201 224 255
201 224 255
201 224 255
201 224 255
201 224 255
201 224 255
201 224 255
201 224 255
201 224 255
201 224 255
201 224 255
201 224 255
201 224 255
201 224 255
201 224 255
201 224 255
201 224 255
201 224 255
201 224 255
201 224 255
201 224 255
201 224 255
201 224 255
201 224 255
201 225 255
201 225 255
201 225 255
201 225 255
201 225 255
201 225 255
201 225 255
202 225 255
202 225 255
202 225 255
202 225 255
202 225 255
202 225 255
202 225 255
202 225 255
202 225 255
202 225 255
202 225 255
202 225 255
202 225 255
202 225 255
202 225 255
202 225 255
202 225 255
202 225 255
202 225 255
202 225 255
203 225 255
203 225 255
203 225 255
203 225 255
203 225 255
203 225 255
203 225 255
203 225 255
203 225 255
203 225 255
203 226 255
203 226 255
203 226 255
203 226 255
203 226 255
203 226 255
203 226 255
204 226 255
204 226 255
204 226 255
204 226 255
204 226 255
204 226 255
204 226 255
204 226 255
204 226 255
204 226 255
204 226 255
204 226 255
204 226 255
204 226 255
204 226 255
204 226 255
204 226 255
205 226 255
205 226 255
205 226 255
205 226 255
205 226 255
205 226 255
205 227 255
205 227 255
205 227 255
205 227 255
205 227 255
205 227 255
205 227 255
205 227 255
205 227 255
205 227 255
206 227 255
206 227 255
206 227 255
206 227 255
206 227 255
206 227 255
206 227 255
206 227 255
206 227 255
206 227 255
206 227 255
206 227 255
206 227 255
206 227 255
206 227 255
206 227 255
206 227 255
207 227 255
207 227 255
207 227 255
207 227 255
207 228 255
207 228 255
207 228 255
207 228 255
207 228 255
207 228 255
207 228 255
207 228 255
207 228 255
207 228 255
207 228 255
207 228 255
207 228 255
207 228 255
208 228 255
208 228 255
208 228 255
208 228 255
208 228 255
208 228 255
208 228 255
208 228 255
208 228 255
208 228 255
208 228 255
208 228 255
208 228 255
208 228 255
208 228 255
208 228 255
208 228 255
208 228 255
208 228 255
208 228 255
209 228 255
209 229 255
209 229 255
209 229 255
209 229 255
209 229 255
209 229 255
209 229 255
209 229 255
209 229 255
209 229 255
209 229 255
209 229 255
209 229 255
209 229 255
209 229 255
209 229 255
209 229 255
209 229 255
209 229 255
209 229 255
209 229 255
210 229 255
210 229 255
210 229 255
210 229 255
210 229 255
210 229 255
210 229 255
210 229 255
210 229 255
210 229 255
210 229 255
210 229 255
210 229 255
210 229 255
210 229 255
210 229 255
210 229 255
210 229 255
210 229 255
210 229 255
210 229 255
210 229 255
210 229 255
210 229 255
210 229 255
210 229 255
210 229 255
210 229 255
209 229 255
209 229 255
209 229 255
209 229 255
209 229 255
209 229 255
209 229 255
209 229 255
209 229 255
209 229 255
209 229 255
209 229 255
209 229 255
209 229 255
209 229 255
209 229 255
209 229 255
209 229 255
209 229 255
209 229 255
209 228 255
208 228 255
208 228 255
208 228 255
208 228 255
208 228 255
208 228 255
208 228 255
208 228 255
208 228 255
208 228 255
208 228 255
208 228 255
208 228 255
208 228 255
208 228 255
208 228 255
208 228 255
208 228 255
208 228 255
208 228 255
207 228 255
207 228 255
207 228 255
207 228 255
207 228 255
207 228 255
207 228 255
207 228 255
207 228 255
207 228 255
207 228 255
207 228 255
207 228 255
207 228 255
207 227 255
207 227 255
207 227 255
207 227 255
206 227 255
206 227 255
206 227 255
206 227 255
206 227 255
206 227 255
206 227 255
206 227 255
206 227 255
206 227 255
206 227 255
206 227 255
206 227 255
206 227 255
206 227 255
206 227 255
206 227 255
205 227 255
205 227 255
205 227 255
205 227 255
205 227 255
205 227 255
205 227 255
205 227 255
205 227 255
205 227 255
205 226 255
205 226 255
205 226 255
205 226 255
205 226 255
205 226 255
205 226 255
204 226 255
204 226 255
204 226 255
204 226 255
204 226 255
204 226 255
204 226 255
204 226 255
204 226 255
204 226 255
204 226 255
204 226 255
204 226 255
204 226 255
204 226 255
204 226 255
203 226 255
203 226 255
203 226 255
203 226 255
203 226 255
203 226 255
203 226 255
203 226 255
203 225 255
203 225 255
203 225 255
203 225 255
203 225 255
203 225 255
203 225 255
203 225 255
203 225 255
203 225 255
202 225 255
202 225 255
202 225 255
202 225 255
202 225 255
202 225 255
202 225 255
202 225 255
202 225 255
202 225 255
202 225 255
202 225 255
202 225 255
202 225 255
202 225 255
202 225 255
202 225 255
202 225 255
202 225 255
202 225 255
202 225 255
201 225 255
201 225 255
201 225 255
201 225 255
201 225 255
201 225 255
201 225 255
201 225 255
201 224 255
201 224 255
201 224 255
201 224 255
201 224 255
201 224 255
201 224 255
201 224 255
201 224 255
201 224 255
201 224 255
201 224 255
201 224 255
201 224 255
201 224 255
201 224 255
201 224 255
201 224 255
201 224 255
201 224 255
201 224 255
201 224 255
201 224 255
201 224 255
201 224 255
201 224 255
201 224 255
201 224 255
201 224 255
201 224 255
201 224 255
201 224 255
201 224 255
201 224 255
201 224 255
201 224 255
201 224 255
201 224 255
201 224 255
201 224 255
201 224 255
201 224 255
201 224 255
201 224 255
201 224 255
201 224 255
201 224 255
201 224 255
201 224 255
201 224 255
201 224 255
201 224 255
201 224 255
201 224 255
201 224 255
201 224 255
201 225 255
201 225 255
201 225 255
201 225 255
201 225 255
201 225 255
201 225 255
201 225 255
202 225 255
202 225 255
202 225 255
202 225 255
202 225 255
202 225 255
202 225 255
202 225 255
202 225 255
202 225 255
202 225 255
202 225 255
202 225 255
202 225 255
202 225 255
202 225 255
202 225 255
202 225 255
202 225 255
202 225 255
202 225 255
203 225 255
203 225 255
203 225 255
203 225 255
203 225 255
203 225 255
203 225 255
203 225 255
203 225 255
203 225 255
203 226 255
203 226 255
203 226 255
203 226 255
203 226 255
203 226 255
203 226 255
203 226 255
204 226 255
204 226 255
204 226 255
204 226 255
204 226 255
204 226 255
204 226 255
204 226 255
204 226 255
204 226 255
204 226 255
204 226 255
204 226 255
204 226 255
204 226 255
204 226 255
205 226 255
205 226 255
205 226 255
205 226 255
205 226 255
205 226 255
205 226 255
205 227 255
205 227 255
205 227 255
205 227 255
205 227 255
205 227 255
205 227 255
205 227 255
205 227 255
205 227 255
206 227 255
206 227 255
206 227 255
206 227 255
206 227 255
206 227 255
206 227 255
206 227 255
206 227 255
206 227 255
206 227 255
206 227 255
206 227 255
206 227 255
206 227 255
206 227 255
206 227 255
207 227 255
207 227 255
207 227 255
207 227 255
207 228 255
207 228 255
207 228 255
207 228 255
207 228 255
207 228 255
207 228 255
207 228 255
207 228 255
207 228 255
207 228 255
207 228 255
207 228 255
207 228 255
208 228 255
208 228 255
208 228 255
208 228 255
208 228 255
208 228 255
208 228 255
208 228 255
208 228 255
208 228 255
208 228 255
208 228 255
208 228 255
208 228 255
208 228 255
208 228 255
208 228 255
208 228 255
208 228 255
209 228 255
209 228 255
209 229 255
209 229 255
209 229 255
209 229 255
209 229 255
209 229 255
209 229 255
209 229 255
209 229 255
209 229 255
209 229 255
209 229 255
209 229 255
209 229 255
209 229 255
209 229 255
209 229 255
209 229 255
209 229 255
209 229 255
210 229 255
210 229 255
210 229 255
210 229 255
210 229 255
210 229 255
210 229 255
210 229 255
210 229 255
210 229 255
210 229 255
210 229 255
210 229 255
210 229 255
210 229 255
210 229 255
210 229 255
210 229 255
210 229 255
210 229 255
210 229 255
210 229 255
210 229 255
210 229 255
210 229 255
210 229 255
210 229 255
210 229 255
210 229 255
210 229 255
210 229 255
210 229 255
210 229 255
210 229 255
210 229 255
209 229 255
209 229 255
209 229 255
209 229 255
209 229 255
209 229 255
209 229 255
209 229 255
209 229 255
209 229 255
209 229 255
209 229 255
209 229 255
209 229 255
209 229 255
209 229 255
209 229 255
209 229 255
209 229 255
209 229 255
209 228 255
209 228 255
208 228 255
208 228 255
208 228 255
208 228 255
208 228 255
208 228 255
208 228 255
208 228 255
208 228 255
208 228 255
208 228 255
208 228 255
208 228 255
208 228 255
208 228 255
208 228 255
208 228 255
208 228 255
208 228 255
207 228 255
207 228 255
207 228 255
207 228 255
207 228 255
207 228 255
207 228 255
207 228 255
207 228 255
207 228 255
207 228 255
207 228 255
207 228 255
207 228 255
207 227 255
207 227 255
207 227 255
207 227 255
207 227 255
206 227 255
206 227 255
206 227 255
206 227 255
206 227 255
206 227 255
206 227 255
206 227 255
206 227 255
206 227 255
206 227 255
206 227 255
206 227 255
206 227 255
206 227 255
206 227 255
205 227 255
205 227 255
205 227 255
205 227 255
205 227 255
205 227 255
205 227 255
205 227 255
205 227 255
205 227 255
205 226 255
205 226 255
205 226 255
205 226 255
205 226 255
205 226 255
205 226 255
204 226 255
204 226 255
204 226 255
204 226 255
204 226 255
204 226 255
204 226 255
204 226 255
204 226 255
204 226 255
204 226 255
204 226 255
204 226 255
204 226 255
204 226 255
204 226 255
203 226 255
203 226 255
203 226 255
203 226 255
203 226 255
203 226 255
203 226 255
203 226 255
203 225 255
203 225 255
203 225 255
203 225 255
203 225 255
203 225 255
203 225 255
203 225 255
203 225 255
203 225 255
203 225 255
202 225 255
202 225 255
202 225 255
202 225 255
202 225 255
202 225 255
202 225 255
202 225 255
202 225 255
202 225 255
202 225 255
202 225 255
202 225 255
202 225 255
202 225 255
202 225 255
202 225 255
202 225 255
202 225 255
202 225 255
202 225 255
202 225 255
202 225 255
201 225 255
201 225 255
201 225 255
201 225 255
201 225 255
201 225 255
201 225 255
201 225 255
201 225 255
201 225 255
201 224 255
201 224 255
201 224 255
201 224 255
201 224 255
201 224 255
201 224 255
201 224 255
201 224 255
201 224 255
201 224 255
201 224 255
201 224 255
201 224 255
201 224 255
201 224 255
201 224 255
201 224 255
201 224 255
201 224 255
201 224 255
201 224 255
201 224 255
201 224 255
201 224 255
201 224 255
201 224 255
201 224 255
201 224 255
201 224 255
201 224 255
201 224 255
201 224 255
201 224 255
201 224 255
201 224 255
201 224 255
201 224 255
201 224 255
201 224 255
201 224 255
201 225 255
201 225 255
201 225 255
201 225 255
201 225 255
201 225 255
201 225 255
201 225 255
201 225 255
202 225 255
202 225 255
202 225 255
202 225 255
202 225 255
202 225 255
202 225 255
202 225 255
202 225 255
202 225 255
202 225 255
202 225 255
202 225 255
202 225 255
202 225 255
202 225 255
202 225 255
202 225 255
202 225 255
202 225 255
202 225 255
202 225 255
202 225 255
203 225 255
203 225 255
203 225 255
203 225 255
203 225 255
203 225 255
203 225 255
203 225 255
203 225 255
203 225 255
203 225 255
203 226 255
203 226 255
203 226 255
203 226 255
203 226 255
203 226 255
203 226 255
204 226 255
204 226 255
204 226 255
204 226 255
204 226 255
204 226 255
204 226 255
204 226 255
204 226 255
204 226 255
204 226 255
204 226 255
204 226 255
204 226 255
204 226 255
204 226 255
204 226 255
205 226 255
205 226 255
205 226 255
205 226 255
205 226 255
205 226 255
205 226 255
205 227 255
205 227 255
205 227 255
205 227 255
205 227 255
205 227 255
205 227 255
205 227 255
205 227 255
206 227 255
206 227 255
206 227 255
206 227 255
206 227 255
206 227 255
206 227 255
206 227 255
206 227 255
206 227 255
206 227 255
206 227 255
206 227 255
206 227 255
206 227 255
206 227 255
206 227 255
206 227 255
207 227 255
207 227 255
207 227 255
207 227 255
207 228 255
207 228 255
207 228 255
207 228 255
207 228 255
207 228 255
207 228 255
207 228 255
207 228 255
207 228 255
207 228 255
207 228 255
207 228 255
208 228 255
208 228 255
208 228 255
208 228 255
208 228 255
208 228 255
208 228 255
208 228 255
208 228 255
208 228 255
208 228 255
208 228 255
208 228 255
208 228 255
208 228 255
208 228 255
208 228 255
208 228 255
208 228 255
208 228 255
209 228 255
209 229 255
209 229 255
209 229 255
209 229 255
209 229 255
209 229 255
209 229 255
209 229 255
209 229 255
209 229 255
209 229 255
209 229 255
209 229 255
209 229 255
209 229 255
209 229 255
209 229 255
209 229 255
209 229 255
209 229 255
209 229 255
210 229 255
210 229 255
210 229 255
210 229 255
210 229 255
210 229 255
210 229 255
210 229 255
210 229 255
210 229 255
210 229 255
210 229 255
210 229 255
210 229 255
210 229 255
210 229 255
210 229 255
210 229 255
210 229 255
210 230 255
210 229 255
210 229 255
210 229 255
210 229 255
210 229 255
210 229 255
210 229 255
210 229 255
210 229 255
210 229 255
210 229 255
210 229 255
210 229 255
210 229 255
210 229 255
210 229 255
210 229 255
210 229 255
210 229 255
210 229 255
210 229 255
210 229 255
209 229 255
209 229 255
209 229 255
209 229 255
209 229 255
209 229 255
209 229 255
209 229 255
209 229 255
209 229 255
209 229 255
209 229 255
209 229 255
209 229 255
209 229 255
209 229 255
209 229 255
209 229 255
209 229 255
209 229 255
209 228 255
208 228 255
208 228 255
208 228 255
208 228 255
208 228 255
208 228 255
208 228 255
208 228 255
208 228 255
208 228 255
208 228 255
208 228 255
208 228 255
208 228 255
208 228 255
208 228 255
208 228 255
208 228 255
208 228 255
208 228 255
207 228 255
207 228 255
207 228 255
207 228 255
207 228 255
207 228 255
207 228 255
207 228 255
207 228 255
207 228 255
207 228 255
207 228 255
207 228 255
207 228 255
207 227 255
207 227 255
207 227 255
207 227 255
206 227 255
206 227 255
206 227 255
206 227 255
206 227 255
206 227 255
206 227 255
206 227 255
206 227 255
206 227 255
206 227 255
206 227 255
206 227 255
206 227 255
206 227 255
206 227 255
206 227 255
205 227 255
205 227 255
205 227 255
205 227 255
205 227 255
205 227 255
205 227 255
205 227 255
205 227 255
205 227 255
205 226 255
205 226 255
205 226 255
205 226 255
205 226 255
205 226 255
205 226 255
204 226 255
204 226 255
204 226 255
204 226 255
204 226 255
204 226 255
204 226 255
204 226 255
204 226 255
204 226 255
204 226 255
204 226 255
204 226 255
204 226 255
204 226 255
204 226 255
203 226 255
203 226 255
203 226 255
203 226 255
203 226 255
203 226 255
203 226 255
203 226 255
203 225 255
203 225 255
203 225 255
203 225 255
203 225 255
203 225 255
203 225 255
203 225 255
203 225 255
203 225 255
203 225 255
202 225 255
202 225 255
202 225 255
202 225 255
202 225 255
202 225 255
202 225 255
202 225 255
202 225 255
202 225 255
202 225 255
202 225 255
202 225 255
202 225 255
202 225 255
202 225 255
202 225 255
202 225 255
202 225 255
202 225 255
202 225 255
202 225 255
202 225 255
202 225 255
202 225 255
202 225 255
201 225 255
201 225 255
201 225 255
201 225 255
201 225 255
201 225 255
201 225 255
201 225 255
201 225 255
201 225 255
201 225 255
201 225 255
201 225 255
201 225 255
201 225 255
201 225 255
201 225 255
201 224 255
201 224 255
201 224 255
201 224 255
201 224 255
201 224 255
201 224 255
201 224 255
201 224 255
201 224 255
201 224 255
201 225 255
201 225 255
201 225 255
201 225 255
201 225 255
201 225 255
201 225 255
201 225 255
201 225 255
201 225 255
201 225 255
201 225 255
201 225 255
201 225 255
201 225 255
201 225 255
201 225 255
201 225 255
202 225 255
202 225 255
202 225 255
202 225 255
202 225 255
202 225 255
202 225 255
202 225 255
202 225 255
202 225 255
202 225 255
202 225 255
202 225 255
202 225 255
202 225 255
202 225 255
202 225 255
202 225 255
202 225 255
202 225 255
202 225 255
202 225 255
202 225 255
202 225 255
202 225 255
202 225 255
203 225 255
203 225 255
203 225 255
203 225 255
203 225 255
203 225 255
203 225 255
203 225 255
203 225 255
203 225 255
203 225 255
203 226 255
203 226 255
203 226 255
203 226 255
203 226 255
203 226 255
203 226 255
203 226 255
204 226 255
204 226 255
204 226 255
204 226 255
204 226 255
204 226 255
204 226 255
204 226 255
204 226 255
204 226 255
204 226 255
204 226 255
204 226 255
204 226 255
204 226 255
204 226 255
204 226 255
205 226 255
205 226 255
205 226 255
205 226 255
205 226 255
205 226 255
205 227 255
205 227 255
205 227 255
205 227 255
205 227 255
205 227 255
205 227 255
205 227 255
205 227 255
205 227 255
206 227 255
206 227 255
206 227 255
206 227 255
206 227 255
206 227 255
206 227 255
206 227 255
206 227 255
206 227 255
206 227 255
206 227 255
206 227 255
206 227 255
206 227 255
206 227 255
206 227 255
207 227 255
207 227 255
207 227 255
207 227 255
207 228 255
207 228 255
207 228 255
207 228 255
207 228 255
207 228 255
207 228 255
207 228 255
207 228 255
207 228 255
207 228 255
207 228 255
207 228 255
207 228 255
208 228 255
208 228 255
208 228 255
208 228 255
208 228 255
208 228 255
208 228 255
208 228 255
208 228 255
208 228 255
208 228 255
208 228 255
208 228 255
208 228 255
208 228 255
208 228 255
208 228 255
208 228 255
208 228 255
208 228 255
209 228 255
209 229 255
209 229 255
209 229 255
209 229 255
209 229 255
209 229 255
209 229 255
209 229 255
209 229 255
209 229 255
209 229 255
209 229 255
209 229 255
209 229 255
209 229 255
209 229 255
209 229 255
209 229 255
209 229 255
209 229 255
210 229 255
210 229 255
210 229 255
210 229 255
210 229 255
210 229 255
210 229 255
210 229 255
210 229 255
210 229 255
210 229 255
210 229 255
210 229 255
210 229 255
210 229 255
210 229 255
210 229 255
210 229 255
210 229 255
210 229 255
210 229 255
210 229 255
210 230 255
211 230 255
211 230 255
210 230 255
210 230 255
210 230 255
210 229 255
210 229 255
210 229 255
210 229 255
210 229 255
210 229 255
210 229 255
210 229 255
210 229 255
210 229 255
210 229 255
210 229 255
210 229 255
210 229 255
210 229 255
210 229 255
210 229 255
210 229 255
210 229 255
210 229 255
210 229 255
210 229 255
209 229 255
209 229 255
209 229 255
209 229 255
209 229 255
209 229 255
209 229 255
209 229 255
209 229 255
209 229 255
209 229 255
209 229 255
209 229 255
209 229 255
209 229 255
209 229 255
209 229 255
209 229 255
209 229 255
209 229 255
209 228 255
208 228 255
208 228 255
208 228 255
208 228 255
208 228 255
208 228 255
208 228 255
208 228 255
208 228 255
208 228 255
208 228 255
208 228 255
208 228 255
208 228 255
208 228 255
208 228 255
208 228 255
208 228 255
208 228 255
207 228 255
207 228 255
207 228 255
207 228 255
207 228 255
207 228 255
207 228 255
207 228 255
207 228 255
207 228 255
207 228 255
207 228 255
207 228 255
207 228 255
207 227 255
207 227 255
207 227 255
207 227 255
206 227 255
206 227 255
206 227 255
206 227 255
206 227 255
206 227 255
206 227 255
206 227 255
206 227 255
206 227 255
206 227 255
206 227 255
206 227 255
206 227 255
206 227 255
206 227 255
206 227 255
205 227 255
205 227 255
205 227 255
205 227 255
205 227 255
205 227 255
205 227 255
205 227 255
205 227 255
205 227 255
205 226 255
205 226 255
205 226 255
205 226 255
205 226 255
205 226 255
205 226 255
204 226 255
204 226 255
204 226 255
204 226 255
204 226 255
204 226 255
204 226 255
204 226 255
204 226 255
204 226 255
204 226 255
204 226 255
204 226 255
204 226 255
204 226 255
204 226 255
204 226 255
203 226 255
203 226 255
203 226 255
203 226 255
203 226 255
203 226 255
203 226 255
203 226 255
203 225 255
203 225 255
203 225 255
203 225 255
203 225 255
203 225 255
203 225 255
203 225 255
203 225 255
203 225 255
203 225 255
203 225 255
202 225 255
202 225 255
202 225 255
202 225 255
202 225 255
202 225 255
202 225 255
202 225 255
202 225 255
202 225 255
202 225 255
202 225 255
202 225 255
202 225 255
202 225 255
202 225 255
202 225 255
202 225 255
202 225 255
202 225 255
202 225 255
202 225 255
202 225 255
202 225 255
202 225 255
202 225 255
202 225 255
202 225 255
202 225 255
202 225 255
202 225 255
201 225 255
201 225 255
201 225 255
201 225 255
201 225 255
201 225 255
201 225 255
201 225 255
201 225 255
201 225 255
201 225 255
201 225 255
201 225 255
201 225 255
201 225 255
201 225 255
201 225 255
201 225 255
201 225 255
201 225 255
201 225 255
201 225 255
201 225 255
201 225 255
201 225 255
201 225 255
202 225 255
202 225 255
202 225 255
202 225 255
202 225 255
202 225 255
202 225 255
202 225 255
202 225 255
202 225 255
202 225 255
202 225 255
202 225 255
202 225 255
202 225 255
202 225 255
202 225 255
202 225 255
202 225 255
202 225 255
202 225 255
202 225 255
202 225 255
202 225 255
202 225 255
202 225 255
202 225 255
202 225 255
202 225 255
202 225 255
202 225 255
203 225 255
203 225 255
203 225 255
203 225 255
203 225 255
203 225 255
203 225 255
203 225 255
203 225 255
203 225 255
203 225 255
203 226 255
203 226 255
203 226 255
203 226 255
203 226 255
203 226 255
203 226 255
203 226 255
203 226 255
204 226 255
204 226 255
204 226 255
204 226 255
204 226 255
204 226 255
204 226 255
204 226 255
204 226 255
204 226 255
204 226 255
204 226 255
204 226 255
204 226 255
204 226 255
204 226 255
204 226 255
205 226 255
205 226 255
205 226 255
205 226 255
205 226 255
205 226 255
205 226 255
205 227 255
205 227 255
205 227 255
205 227 255
205 227 255
205 227 255
205 227 255
205 227 255
205 227 255
205 227 255
206 227 255
206 227 255
206 227 255
206 227 255
206 227 255
206 227 255
206 227 255
206 227 255
206 227 255
206 227 255
206 227 255
206 227 255
206 227 255
206 227 255
206 227 255
206 227 255
206 227 255
207 227 255
207 227 255
207 227 255
207 227 255
207 228 255
207 228 255
207 228 255
207 228 255
207 228 255
207 228 255
207 228 255
207 228 255
207 228 255
207 228 255
207 228 255
207 228 255
207 228 255
207 228 255
208 228 255
208 228 255
208 228 255
208 228 255
208 228 255
208 228 255
208 228 255
208 228 255
208 228 255
208 228 255
208 228 255
208 228 255
208 228 255
208 228 255
208 228 255
208 228 255
208 228 255
208 228 255
208 228 255
209 228 255
209 228 255
209 229 255
209 229 255
209 229 255
209 229 255
209 229 255
209 229 255
209 229 255
209 229 255
209 229 255
209 229 255
209 229 255
209 229 255
209 229 255
209 229 255
209 229 255
209 229 255
209 229 255
209 229 255
209 229 255
210 229 255
210 229 255
210 229 255
210 229 255
210 229 255
210 229 255
210 229 255
210 229 255
210 229 255
210 229 255
210 229 255
210 229 255
210 229 255
210 229 255
210 229 255
210 229 255
210 229 255
210 229 255
210 229 255
210 229 255
210 229 255
210 229 255
210 230 255
210 230 255
210 230 255
211 230 255
211 230 255
211 230 255
211 230 255
211 230 255
211 230 255
211 230 255
211 230 255
210 230 255
210 230 255
210 230 255
210 229 255
210 229 255
210 229 255
210 229 255
210 229 255
210 229 255
210 229 255
210 229 255
210 229 255
210 229 255
210 229 255
210 229 255
210 229 255
210 229 255
210 229 255
210 229 255
210 229 255
210 229 255
210 229 255
210 229 255
210 229 255
209 229 255
209 229 255
209 229 255
209 229 255
209 229 255
209 229 255
209 229 255
209 229 255
209 229 255
209 229 255
209 229 255
209 229 255
209 229 255
209 229 255
209 229 255
209 229 255
209 229 255
209 229 255
209 229 255
209 229 255
209 228 255
209 228 255
208 228 255
208 228 255
208 228 255
208 228 255
208 228 255
208 228 255
208 228 255
208 228 255
208 228 255
208 228 255
208 228 255
208 228 255
208 228 255
208 228 255
208 228 255
208 228 255
208 228 255
208 228 255
208 228 255
207 228 255
207 228 255
207 228 255
207 228 255
207 228 255
207 228 255
207 228 255
207 228 255
207 228 255
207 228 255
207 228 255
207 228 255
207 228 255
207 227 255
207 227 255
207 227 255
207 227 255
207 227 255
206 227 255
206 227 255
206 227 255
206 227 255
206 227 255
206 227 255
206 227 255
206 227 255
206 227 255
206 227 255
206 227 255
206 227 255
206 227 255
206 227 255
206 227 255
206 227 255
206 227 255
205 227 255
205 227 255
205 227 255
205 227 255
205 227 255
205 227 255
205 227 255
205 227 255
205 227 255
205 227 255
205 226 255
205 226 255
205 226 255
205 226 255
205 226 255
205 226 255
205 226 255
204 226 255
204 226 255
204 226 255
204 226 255
204 226 255
204 226 255
204 226 255
204 226 255
204 226 255
204 226 255
204 226 255
204 226 255
204 226 255
204 226 255
204 226 255
204 226 255
204 226 255
203 226 255
203 226 255
203 226 255
203 226 255
203 226 255
203 226 255
203 226 255
203 226 255
203 226 255
203 225 255
203 225 255
203 225 255
203 225 255
203 225 255
203 225 255
203 225 255
203 225 255
203 225 255
203 225 255
203 225 255
203 225 255
202 225 255
202 225 255
202 225 255
202 225 255
202 225 255
202 225 255
202 225 255
202 225 255
202 225 255
202 225 255
202 225 255
202 225 255
202 225 255
202 225 255
202 225 255
202 225 255
202 225 255
202 225 255
202 225 255
202 225 255
202 225 255
202 225 255
202 225 255
202 225 255
202 225 255
202 225 255
202 225 255
202 225 255
202 225 255
202 225 255
202 225 255
202 225 255
202 225 255
202 225 255
202 225 255
202 225 255
202 225 255
202 225 255
202 225 255
202 225 255
202 225 255
202 225 255
202 225 255
202 225 255
202 225 255
202 225 255
202 225 255
202 225 255
202 225 255
202 225 255
202 225 255
202 225 255
202 225 255
202 225 255
202 225 255
202 225 255
202 225 255
202 225 255
202 225 255
202 225 255
202 225 255
202 225 255
202 225 255
202 225 255
202 225 255
202 225 255
202 225 255
202 225 255
202 225 255
202 225 255
202 225 255
202 225 255
202 225 255
202 225 255
202 225 255
202 225 255
202 225 255
202 225 255
203 225 255
203 225 255
203 225 255
203 225 255
203 225 255
203 225 255
203 225 255
203 225 255
203 225 255
203 225 255
203 225 255
203 225 255
203 226 255
203 226 255
203 226 255
203 226 255
203 226 255
203 226 255
203 226 255
203 226 255
203 226 255
204 226 255
204 226 255
204 226 255
204 226 255
204 226 255
204 226 255
204 226 255
204 226 255
204 226 255
204 226 255
204 226 255
204 226 255
204 226 255
204 226 255
204 226 255
204 226 255
204 226 255
204 226 255
205 226 255
205 226 255
205 226 255
205 226 255
205 226 255
205 226 255
205 227 255
205 227 255
205 227 255
205 227 255
205 227 255
205 227 255
205 227 255
205 227 255
205 227 255
205 227 255
206 227 255
206 227 255
206 227 255
206 227 255
206 227 255
206 227 255
206 227 255
206 227 255
206 227 255
206 227 255
206 227 255
206 227 255
206 227 255
206 227 255
206 227 255
206 227 255
206 227 255
207 227 255
207 227 255
207 227 255
207 227 255
207 227 255
207 228 255
207 228 255
207 228 255
207 228 255
207 228 255
207 228 255
207 228 255
207 228 255
207 228 255
207 228 255
207 228 255
207 228 255
207 228 255
208 228 255
208 228 255
208 228 255
208 228 255
208 228 255
208 228 255
208 228 255
208 228 255
208 228 255
208 228 255
208 228 255
208 228 255
208 228 255
208 228 255
208 228 255
208 228 255
208 228 255
208 228 255
208 228 255
209 228 255
209 228 255
209 229 255
209 229 255
209 229 255
209 229 255
209 229 255
209 229 255
209 229 255
209 229 255
209 229 255
209 229 255
209 229 255
209 229 255
209 229 255
209 229 255
209 229 255
209 229 255
209 229 255
209 229 255
209 229 255
209 229 255
210 229 255
210 229 255
210 229 255
210 229 255
210 229 255
210 229 255
210 229 255
210 229 255
210 229 255
210 229 255
210 229 255
210 229 255
210 229 255
210 229 255
210 229 255
210 229 255
210 229 255
210 229 255
210 229 255
210 229 255
210 229 255
210 230 255
210 230 255
210 230 255
211 230 255
211 230 255
211 230 255
211 230 255
211 230 255
211 230 255
211 230 255
211 230 255
211 230 255
211 230 255
211 230 255
211 230 255
211 230 255
211 230 255
211 230 255
211 230 255
210 230 255
210 230 255
210 230 255
210 229 255
210 229 255
210 229 255
210 229 255
210 229 255
210 229 255
210 229 255
210 229 255
210 229 255
210 229 255
210 229 255
210 229 255
210 229 255
210 229 255
210 229 255
210 229 255
210 229 255
210 229 255
210 229 255
210 229 255
210 229 255
209 229 255
209 229 255
209 229 255
209 229 255
207 227 250
203 222 245
198 217 236
191 210 220
195 214 221
184 203 204
189 208 206
187 206 206
180 198 189
180 199 196
182 201 184
186 205 194
174 192 184
182 200 203
182 200 198
185 203 199
184 203 188
191 210 218
191 211 217
189 207 220
194 214 223
195 214 227
206 226 249
207 227 254
208 228 255
208 228 255
208 228 255
208 228 255
208 228 255
208 228 255
208 228 255
208 228 255
208 228 255
208 228 255
208 228 255
208 228 255
207 228 255
207 228 255
207 228 255
207 228 255
207 228 255
207 228 255
207 228 255
207 228 255
207 228 255
207 228 255
207 228 255
207 228 255
207 228 255
207 228 255
207 227 255
207 227 255
207 227 255
207 227 255
206 227 255
206 227 255
206 227 255
206 227 255
206 227 255
206 227 255
206 227 255
206 227 255
206 227 255
206 227 255
206 227 255
206 227 255
206 227 255
206 227 255
206 227 255
206 227 255
206 227 255
205 227 255
205 227 255
205 227 255
205 227 255
205 227 255
205 227 255
205 227 255
205 227 255
205 227 255
205 227 255
205 226 255
205 226 255
205 226 255
205 226 255
205 226 255
205 226 255
205 226 255
204 226 255
204 226 255
204 226 255
204 226 255
204 226 255
204 226 255
204 226 255
204 226 255
204 226 255
204 226 255
204 226 255
204 226 255
204 226 255
204 226 255
204 226 255
204 226 255
204 226 255
204 226 255
203 226 255
203 226 255
203 226 255
203 226 255
203 226 255
203 226 255
203 226 255
203 226 255
203 226 255
203 226 255
203 225 255
203 225 255
203 225 255
203 225 255
203 225 255
203 225 255
203 225 255
203 225 255
203 225 255
203 225 255
203 225 255
203 225 255
203 225 255
202 225 255
202 225 255
202 225 255
202 225 255
202 225 255
202 225 255
202 225 255
202 225 255
202 225 255
202 225 255
202 225 255
202 225 255
202 225 255
202 225 255
202 225 255
202 225 255
202 225 255
202 225 255
202 225 255
202 225 255
202 225 255
202 225 255
202 225 255
202 225 255
202 225 255
202 225 255
202 225 255
202 225 255
202 225 255
202 225 255
202 225 255
202 225 255
202 225 255
202 225 255
202 225 255
202 225 255
202 225 255
202 225 255
202 225 255
202 225 255
202 225 255
202 225 255
202 225 255
202 225 255
202 225 255
202 225 255
202 225 255
202 225 255
202 225 255
202 225 255
202 225 255
202 225 255
202 225 255
202 225 255
202 225 255
202 225 255
202 225 255
202 225 255
202 225 255
202 225 255
202 225 255
202 225 255
202 225 255
202 225 255
202 225 255
202 225 255
203 225 255
203 225 255
203 225 255
203 225 255
203 225 255
203 225 255
203 225 255
203 225 255
203 225 255
203 225 255
203 225 255
203 225 255
203 225 255
203 225 255
203 226 255
203 226 255
203 226 255
203 226 255
203 226 255
203 226 255
203 226 255
203 226 255
204 226 255
204 226 255
204 226 255
204 226 255
204 226 255
204 226 255
204 226 255
204 226 255
204 226 255
204 226 255
204 226 255
204 226 255
204 226 255
204 226 255
204 226 255
204 226 255
204 226 255
204 226 255
204 226 255
205 226 255
205 226 255
205 226 255
205 226 255
205 226 255
205 226 255
205 226 255
205 227 255
205 227 255
205 227 255
205 227 255
205 227 255
205 227 255
205 227 255
205 227 255
205 227 255
205 227 255
206 227 255
206 227 255
206 227 255
206 227 255
206 227 255
206 227 255
206 227 255
206 227 255
206 227 255
206 227 255
206 227 255
206 227 255
206 227 255
206 227 255
206 227 255
206 227 255
206 227 255
207 227 255
207 227 255
207 227 255
207 227 255
207 228 255
207 228 255
207 228 255
207 228 255
207 228 255
207 228 255
207 228 255
207 228 255
207 228 255
207 228 255
207 228 255
207 228 255
207 228 255
207 228 255
208 228 255
208 228 255
208 228 255
208 228 255
208 228 255
208 228 255
208 228 255
208 228 255
208 228 255
208 228 255
208 228 255
208 228 255
206 226 253
205 219 245
201 210 235
197 204 228
197 198 221
196 193 216
192 184 206
195 189 212
197 182 204
193 184 206
192 178 199
187 159 178
196 180 201
193 173 193
195 176 196
191 180 201
195 190 212
195 186 208
192 189 211
201 200 223
195 198 221
203 209 234
203 217 242
208 228 254
209 229 255
209 229 255
209 229 255
209 229 255
210 229 255
210 229 255
210 229 255
210 229 255
210 229 255
210 229 255
210 229 255
210 229 255
210 229 255
210 229 255
210 229 255
210 229 255
210 229 255
210 229 255
210 229 255
210 229 255
210 229 255
210 229 255
210 229 255
210 229 255
210 229 255
210 230 255
210 230 255
210 230 255
211 230 255
211 230 255
211 230 255
211 230 255
211 230 255
211 230 255
211 230 255
211 230 255
211 230 255
211 230 255
211 230 255
211 230 255
211 230 255
211 230 255
211 230 255
211 230 255
211 230 255
211 230 255
211 230 255
211 230 255
211 230 255
211 230 255
211 230 255
211 230 255
210 230 255
210 230 255
210 230 255
210 229 255
210 229 255
210 229 255
210 229 255
210 229 255
210 229 255
210 229 255
210 229 255
210 229 255
210 229 255
210 229 255
210 229 255
208 227 250
195 214 228
190 208 212
176 193 184
174 192 169
154 170 125
165 182 135
147 164 108
139 155 57
144 162 0
136 153 0
133 150 0
143 160 0
135 153 0
133 151 0
137 156 0
136 154 0
142 160 0
151 170 0
141 159 0
145 164 0
129 146 0
144 163 0
145 164 0
138 157 0
139 157 0
134 150 0
135 152 0
146 166 0
139 157 0
139 157 0
135 154 0
135 152 0
140 158 57
155 174 108
162 180 149
157 173 149
173 192 173
185 204 201
188 207 211
196 215 228
206 226 252
208 228 255
208 228 255
208 228 255
208 228 255
208 228 255
208 228 255
208 228 255
207 228 255
207 228 255
207 228 255
207 228 255
207 228 255
207 228 255
207 228 255
207 228 255
207 228 255
207 228 255
207 228 255
207 228 255
207 228 255
207 227 255
207 227 255
207 227 255
207 227 255
206 227 255
206 227 255
206 227 255
206 227 255
206 227 255
206 227 255
206 227 255
206 227 255
206 227 255
206 227 255
206 227 255
206 227 255
206 227 255
206 227 255
206 227 255
206 227 255
206 227 255
206 227 255
205 227 255
205 227 255
205 227 255
205 227 255
205 227 255
205 227 255
205 227 255
205 227 255
205 227 255
205 227 255
205 226 255
205 226 255
205 226 255
205 226 255
205 226 255
205 226 255
205 226 255
204 226 255
204 226 255
204 226 255
204 226 255
204 226 255
204 226 255
204 226 255
204 226 255
204 226 255
204 226 255
204 226 255
204 226 255
204 226 255
204 226 255
204 226 255
204 226 255
204 226 255
204 226 255
204 226 255
203 226 255
203 226 255
203 226 255
203 226 255
203 226 255
203 226 255
203 226 255
203 226 255
203 226 255
203 225 255
203 225 255
203 225 255
203 225 255
203 225 255
203 225 255
203 225 255
203 225 255
203 225 255
203 225 255
203 225 255
203 225 255
203 225 255
203 225 255
203 225 255
203 225 255
202 225 255
202 225 255
202 225 255
202 225 255
202 225 255
202 225 255
202 225 255
202 225 255
202 225 255
202 225 255
202 225 255
202 225 255
202 225 255
202 225 255
202 225 255
202 225 255
202 225 255
202 225 255
202 225 255
202 225 255
202 225 255
202 225 255
202 225 255
202 225 255
202 225 255
202 225 255
202 225 255
202 225 255
202 225 255
202 225 255
202 225 255
202 225 255
202 225 255
202 225 255
202 225 255
202 225 255
202 225 255
202 225 255
202 225 255
202 225 255
202 225 255
202 225 255
202 225 255
202 225 255
202 225 255
202 225 255
202 225 255
202 225 255
202 225 255
202 225 255
202 225 255
202 225 255
203 225 255
203 225 255
203 225 255
203 225 255
203 225 255
203 225 255
203 225 255
203 225 255
203 225 255
203 225 255
203 225 255
203 225 255
203 225 255
203 225 255
203 225 255
203 226 255
203 226 255
203 226 255
203 226 255
203 226 255
203 226 255
203 226 255
203 226 255
203 226 255
203 226 255
204 226 255
204 226 255
204 226 255
204 226 255
204 226 255
204 226 255
204 226 255
204 226 255
204 226 255
204 226 255
204 226 255
204 226 255
204 226 255
204 226 255
204 226 255
204 226 255
204 226 255
204 226 255
204 226 255
205 226 255
205 226 255
205 226 255
205 226 255
205 226 255
205 226 255
205 226 255
205 227 255
205 227 255
205 227 255
205 227 255
205 227 255
205 227 255
205 227 255
205 227 255
205 227 255
205 227 255
206 227 255
206 227 255
206 227 255
206 227 255
206 227 255
206 227 255
206 227 255
206 227 255
206 227 255
206 227 255
206 227 255
206 227 255
206 227 255
206 227 255
206 227 255
206 227 255
206 227 255
207 227 255
207 227 255
207 227 255
207 227 255
207 227 255
207 228 255
207 228 255
207 228 255
207 228 255
207 228 255
207 228 255
207 228 255
207 228 255
207 228 255
207 228 255
207 228 255
207 228 255
207 228 255
208 228 255
208 228 255
208 228 255
208 228 255
208 228 255
208 228 255
208 228 255
206 224 251
197 199 223
195 190 213
191 170 190
186 165 184
185 142 160
182 132 148
180 118 133
177 92 104
176 69 79
179 70 80
176 69 79
179 70 80
176 69 79
178 70 80
178 70 80
178 70 80
178 70 80
178 70 80
178 70 80
178 70 80
178 70 80
178 70 80
179 70 80
179 71 80
179 71 80
179 71 80
180 71 80
180 71 80
179 70 80
178 70 79
178 69 79
172 67 76
180 85 96
182 113 127
183 117 132
184 155 173
188 158 177
192 177 197
199 194 216
202 207 231
206 223 248
210 229 255
210 229 255
210 229 255
210 229 255
210 229 255
210 229 255
210 229 255
210 229 255
210 229 255
210 229 255
210 229 255
210 229 255
210 230 255
210 230 255
210 230 255
211 230 255
211 230 255
211 230 255
211 230 255
211 230 255
211 230 255
211 230 255
211 230 255
211 230 255
211 230 255
211 230 255
211 230 255
211 230 255
211 230 255
211 230 255
211 230 255
211 230 255
211 230 255
211 230 255
211 230 255
211 230 255
211 230 255
211 230 255
211 230 255
211 230 255
211 230 255
211 230 255
211 230 255
211 230 255
211 230 255
211 230 255
211 230 255
210 230 255
210 230 255
210 230 255
210 229 255
210 229 255
208 227 246
187 204 214
189 208 199
177 195 171
150 166 122
147 164 95
134 151 0
138 156 0
142 160 0
125 141 0
141 159 0
138 155 0
146 164 0
144 163 0
139 157 0
144 163 0
142 161 0
140 159 0
154 174 0
148 168 0
147 166 0
142 160 0
144 163 0
148 169 0
143 161 0
145 165 0
150 170 0
144 164 0
150 171 0
151 172 0
145 165 0
149 170 0
145 166 0
145 165 0
153 174 0
146 166 0
142 161 0
141 161 0
144 164 0
140 160 0
138 157 0
137 156 0
145 166 0
144 164 0
136 154 0
136 154 0
146 166 0
149 169 0
137 155 62
144 161 111
166 184 157
177 195 194
194 214 227
202 222 242
208 228 255
208 228 255
208 228 255
208 228 255
207 228 255
207 228 255
207 228 255
207 228 255
207 228 255
207 228 255
207 228 255
207 228 255
207 228 255
207 228 255
207 228 255
207 228 255
207 228 255
207 228 255
207 227 255
207 227 255
207 227 255
207 227 255
206 227 255
206 227 255
206 227 255
206 227 255
206 227 255
206 227 255
206 227 255
206 227 255
206 227 255
206 227 255
206 227 255
206 227 255
206 227 255
206 227 255
206 227 255
206 227 255
206 227 255
205 227 255
205 227 255
205 227 255
205 227 255
205 227 255
205 227 255
205 227 255
205 227 255
205 227 255
205 227 255
205 227 255
205 226 255
205 226 255
205 226 255
205 226 255
205 226 255
205 226 255
205 226 255
204 226 255
204 226 255
204 226 255
204 226 255
204 226 255
204 226 255
204 226 255
204 226 255
204 226 255
204 226 255
204 226 255
204 226 255
204 226 255
204 226 255
204 226 255
204 226 255
204 226 255
204 226 255
204 226 255
204 226 255
203 226 255
203 226 255
203 226 255
203 226 255
203 226 255
203 226 255
203 226 255
203 226 255
203 226 255
203 226 255
203 226 255
203 225 255
203 225 255
203 225 255
203 225 255
203 225 255
203 225 255
203 225 255
203 225 255
203 225 255
203 225 255
203 225 255
203 225 255
203 225 255
203 225 255
203 225 255
203 225 255
203 225 255
203 225 255
203 225 255
202 225 255
202 225 255
202 225 255
202 225 255
202 225 255
202 225 255
202 225 255
202 225 255
202 225 255
202 225 255
202 225 255
202 225 255
202 225 255
202 225 255
202 225 255
202 225 255
202 225 255
202 225 255
202 225 255
202 225 255
202 225 255
202 225 255
202 225 255
202 225 255
202 225 255
202 225 255
202 225 255
202 225 255
202 225 255
202 225 255
202 225 255
202 225 255
203 225 255
203 225 255
203 225 255
203 225 255
203 225 255
203 225 255
203 225 255
203 225 255
203 225 255
203 225 255
203 225 255
203 225 255
203 225 255
203 225 255
203 225 255
203 225 255
203 225 255
203 225 255
203 225 255
203 225 255
203 226 255
203 226 255
203 226 255
203 226 255
203 226 255
203 226 255
203 226 255
203 226 255
203 226 255
203 226 255
204 226 255
204 226 255
204 226 255
204 226 255
204 226 255
204 226 255
204 226 255
204 226 255
204 226 255
204 226 255
204 226 255
204 226 255
204 226 255
204 226 255
204 226 255
204 226 255
204 226 255
204 226 255
204 226 255
204 226 255
205 226 255
205 226 255
205 226 255
205 226 255
205 226 255
205 226 255
205 226 255
205 227 255
205 227 255
205 227 255
205 227 255
205 227 255
205 227 255
205 227 255
205 227 255
205 227 255
205 227 255
205 227 255
206 227 255
206 227 255
206 227 255
206 227 255
206 227 255
206 227 255
206 227 255
206 227 255
206 227 255
206 227 255
206 227 255
206 227 255
206 227 255
206 227 255
206 227 255
206 227 255
206 227 255
207 227 255
207 227 255
207 227 255
207 227 255
207 228 255
207 228 255
207 228 255
207 228 255
207 228 255
207 228 255
207 228 255
207 228 255
207 228 255
207 228 255
207 228 255
207 228 255
207 228 255
207 228 255
208 228 255
208 228 255
208 228 255
208 228 255
205 221 247
197 196 220
190 177 199
186 155 174
180 130 146
177 101 115
174 69 78
176 70 80
178 70 80
177 70 80
176 70 80
176 70 80
176 70 80
176 70 80
175 70 80
175 70 80
175 70 80
175 70 80
175 70 80
175 70 80
175 70 80
175 70 80
175 70 80
175 70 80
175 70 80
175 70 80
175 70 80
175 70 80
176 70 80
176 70 80
176 70 80
176 70 80
176 70 80
176 70 80
177 70 80
177 70 80
178 70 80
177 70 80
178 70 80
178 70 80
179 70 80
179 70 80
180 71 80
180 71 80
181 71 80
181 71 80
180 70 80
179 70 79
180 109 121
182 132 147
188 146 163
192 181 201
197 197 220
202 216 240
210 229 255
210 229 255
210 230 255
210 230 255
210 230 255
211 230 255
211 230 255
211 230 255
211 230 255
211 230 255
211 230 255
211 230 255
211 230 255
211 230 255
211 230 255
211 230 255
211 230 255
211 230 255
211 230 255
211 230 255
211 230 255
211 230 255
211 230 255
211 230 255
211 230 255
211 230 255
211 230 255
211 230 255
211 230 255
211 230 255
211 230 255
211 230 255
211 230 255
211 230 255
211 230 255
211 230 255
211 230 255
211 230 255
211 230 255
211 230 255
211 230 255
207 225 246
184 201 207
170 187 173
164 181 144
146 162 76
142 158 0
131 148 0
136 151 0
151 169 0
138 155 0
146 164 0
149 168 0
141 159 0
139 157 0
148 167 0
146 166 0
149 168 0
152 171 0
147 167 0
150 170 0
150 169 0
148 168 0
149 168 0
145 165 0
145 165 0
149 169 0
152 174 0
154 175 0
153 175 0
152 173 0
156 178 0
151 173 0
144 164 0
145 166 0
141 162 0
158 180 0
148 169 0
152 174 0
143 163 0
146 167 0
150 172 0
145 166 0
147 168 0
151 172 0
144 165 0
149 171 0
141 162 0
143 165 0
153 176 0
148 170 0
141 162 0
150 171 0
146 167 0
145 165 0
146 167 0
134 153 0
141 160 0
142 161 0
140 159 0
146 164 80
152 169 128
179 199 179
186 205 207
202 222 241
208 228 255
208 228 255
208 228 255
207 228 255
207 228 255
207 228 255
207 228 255
207 228 255
207 228 255
207 228 255
207 228 255
207 228 255
207 228 255
207 228 255
207 228 255
207 228 255
207 228 255
207 227 255
207 227 255
207 227 255
207 227 255
206 227 255
206 227 255
206 227 255
206 227 255
206 227 255
206 227 255
206 227 255
206 227 255
206 227 255
206 227 255
206 227 255
206 227 255
206 227 255
206 227 255
206 227 255
206 227 255
206 227 255
205 227 255
205 227 255
205 227 255
205 227 255
205 227 255
205 227 255
205 227 255
205 227 255
205 227 255
205 227 255
205 227 255
205 226 255
205 226 255
205 226 255
205 226 255
205 226 255
205 226 255
205 226 255
204 226 255
204 226 255
204 226 255
204 226 255
204 226 255
204 226 255
204 226 255
204 226 255
204 226 255
204 226 255
204 226 255
204 226 255
204 226 255
204 226 255
204 226 255
204 226 255
204 226 255
204 226 255
204 226 255
204 226 255
204 226 255
203 226 255
203 226 255
203 226 255
203 226 255
203 226 255
203 226 255
203 226 255
203 226 255
203 226 255
203 226 255
203 226 255
203 226 255
203 225 255
203 225 255
203 225 255
203 225 255
203 225 255
203 225 255
203 225 255
203 225 255
203 225 255
203 225 255
203 225 255
203 225 255
203 225 255
203 225 255
203 225 255
203 225 255
203 225 255
203 225 255
203 225 255
203 225 255
203 225 255
203 225 255
203 225 255
203 225 255
203 225 255
203 225 255
203 225 255
203 225 255
203 225 255
203 225 255
203 225 255
203 225 255
203 225 255
203 225 255
203 225 255
203 225 255
203 225 255
203 225 255
203 225 255
203 225 255
203 225 255
203 225 255
203 225 255
203 225 255
203 225 255
203 225 255
203 225 255
203 225 255
203 225 255
203 225 255
203 225 255
203 225 255
203 225 255
203 225 255
203 225 255
203 225 255
203 225 255
203 225 255
203 226 255
203 226 255
203 226 255
203 226 255
203 226 255
203 226 255
203 226 255
203 226 255
203 226 255
203 226 255
203 226 255
203 226 255
204 226 255
204 226 255
204 226 255
204 226 255
204 226 255
204 226 255
204 226 255
204 226 255
204 226 255
204 226 255
204 226 255
204 226 255
204 226 255
204 226 255
204 226 255
204 226 255
204 226 255
204 226 255
204 226 255
204 226 255
204 226 255
205 226 255
205 226 255
205 226 255
205 226 255
205 226 255
205 226 255
205 226 255
205 227 255
205 227 255
205 227 255
205 227 255
205 227 255
205 227 255
205 227 255
205 227 255
205 227 255
205 227 255
205 227 255
206 227 255
206 227 255
206 227 255
206 227 255
206 227 255
206 227 255
206 227 255
206 227 255
206 227 255
206 227 255
206 227 255
206 227 255
206 227 255
206 227 255
206 227 255
206 227 255
206 227 255
207 227 255
207 227 255
207 227 255
207 227 255
207 227 255
207 228 255
207 228 255
207 228 255
207 228 255
207 228 255
207 228 255
207 228 255
207 228 255
207 228 255
207 228 255
207 228 255
207 228 255
207 228 255
208 228 255
208 228 255
208 228 255
200 213 239
194 190 213
188 163 183
183 137 154
178 100 113
176 70 80
176 70 80
176 70 80
176 70 80
175 70 80
175 70 80
174 69 80
174 69 80
173 69 80
173 69 80
173 69 80
173 69 80
173 69 80
173 69 80
173 69 80
172 69 80
172 69 80
172 69 80
172 69 80
172 69 80
172 69 80
172 69 80
173 69 80
173 69 80
173 69 80
173 69 80
173 69 80
174 69 80
173 69 80
173 69 80
174 70 80
174 70 80
174 70 80
174 70 80
174 70 80
175 70 80
175 70 80
175 70 80
176 70 80
176 70 80
176 70 80
177 70 80
177 70 80
178 70 80
178 70 80
178 70 80
179 70 80
179 70 80
180 71 80
180 71 80
181 71 80
181 71 80
179 70 79
175 68 77
175 101 113
187 129 144
186 168 187
192 192 214
205 219 243
211 230 255
211 230 255
211 230 255
211 230 255
211 230 255
211 230 255
211 230 255
211 230 255
211 230 255
211 230 255
211 230 255
211 230 255
211 230 255
211 230 255
211 230 255
211 230 255
211 230 255
211 230 255
211 230 255
211 230 255
211 230 255
211 230 255
211 230 255
211 230 255
211 230 255
211 230 255
211 230 255
211 230 255
211 230 255
211 230 255
211 230 255
211 230 255
201 219 234
191 208 209
165 181 137
154 171 84
136 152 0
142 158 0
148 164 0
142 159 0
150 168 0
140 159 0
140 158 0
145 163 0
139 156 0
148 167 0
148 168 0
148 167 0
156 175 0
141 160 0
150 169 0
146 165 0
154 174 0
148 168 0
152 172 0
151 170 0
154 176 0
153 173 0
155 176 0
158 181 0
153 173 0
143 163 0
151 173 0
152 174 0
147 169 0
149 171 0
155 177 0
154 176 0
151 173 0
149 170 0
157 180 0
145 166 0
144 165 0
155 179 0
147 169 0
147 169 0
163 187 0
151 174 0
152 175 0
150 172 0
155 178 0
146 168 0
149 171 0
148 170 0
146 168 0
147 169 0
149 171 0
151 174 0
154 177 0
150 172 0
152 173 0
158 181 0
146 168 0
143 163 0
142 163 0
135 155 0
146 167 0
141 160 0
130 149 0
140 160 0
150 168 99
159 177 151
181 200 196
199 219 237
207 227 254
208 228 255
208 228 255
207 228 255
207 228 255
207 228 255
207 228 255
207 228 255
207 228 255
207 228 255
207 228 255
207 228 255
207 228 255
207 228 255
207 228 255
207 228 255
207 227 255
207 227 255
207 227 255
207 227 255
206 227 255
206 227 255
206 227 255
206 227 255
206 227 255
206 227 255
206 227 255
206 227 255
206 227 255
206 227 255
206 227 255
206 227 255
206 227 255
206 227 255
206 227 255
206 227 255
206 227 255
206 227 255
205 227 255
205 227 255
205 227 255
205 227 255
205 227 255
205 227 255
205 227 255
205 227 255
205 227 255
205 227 255
205 227 255
205 226 255
205 226 255
205 226 255
205 226 255
205 226 255
205 226 255
205 226 255
205 226 255
204 226 255
204 226 255
204 226 255
204 226 255
204 226 255
204 226 255
204 226 255
204 226 255
204 226 255
204 226 255
204 226 255
204 226 255
204 226 255
204 226 255
204 226 255
204 226 255
204 226 255
204 226 255
204 226 255
204 226 255
204 226 255
204 226 255
203 226 255
203 226 255
203 226 255
203 226 255
203 226 255
203 226 255
203 226 255
203 226 255
203 226 255
203 226 255
203 226 255
203 226 255
203 226 255
203 226 255
203 226 255
203 225 255
203 225 255
203 225 255
203 225 255
203 225 255
203 225 255
203 225 255
203 225 255
203 225 255
203 225 255
203 225 255
203 225 255
203 225 255
203 225 255
203 225 255
203 225 255
203 225 255
203 225 255
203 225 255
203 225 255
203 225 255
203 225 255
203 225 255
203 225 255
203 225 255
203 225 255
203 225 255
203 225 255
203 225 255
203 225 255
203 225 255
203 225 255
203 225 255
203 225 255
203 225 255
203 225 255
203 225 255
203 225 255
203 225 255
203 225 255
203 226 255
203 226 255
203 226 255
203 226 255
203 226 255
203 226 255
203 226 255
203 226 255
203 226 255
203 226 255
203 226 255
203 226 255
203 226 255
203 226 255
203 226 255
204 226 255
204 226 255
204 226 255
204 226 255
204 226 255
204 226 255
204 226 255
204 226 255
204 226 255
204 226 255
204 226 255
204 226 255
204 226 255
204 226 255
204 226 255
204 226 255
204 226 255
204 226 255
204 226 255
204 226 255
204 226 255
204 226 255
204 226 255
205 226 255
205 226 255
205 226 255
205 226 255
205 226 255
205 226 255
205 226 255
205 227 255
205 227 255
205 227 255
205 227 255
205 227 255
205 227 255
205 227 255
205 227 255
205 227 255
205 227 255
205 227 255
206 227 255
206 227 255
206 227 255
206 227 255
206 227 255
206 227 255
206 227 255
206 227 255
206 227 255
206 227 255
206 227 255
206 227 255
206 227 255
206 227 255
206 227 255
206 227 255
206 227 255
207 227 255
207 227 255
207 227 255
207 227 255
207 227 255
207 228 255
207 228 255
207 228 255
207 228 255
207 228 255
207 228 255
207 228 255
207 228 255
207 228 255
207 228 255
207 228 255
207 228 255
207 228 255
208 228 255
208 228 255
208 228 255
202 213 238
184 167 187
189 152 171
181 115 130
174 69 79
175 69 80
176 70 80
175 70 80
175 70 80
174 70 80
173 69 80
173 69 80
172 69 80
172 69 80
172 69 80
171 69 80
171 69 80
171 69 80
171 69 80
171 69 80
171 69 80
171 69 80
170 69 80
170 69 80
170 69 80
170 69 80
170 69 80
171 69 80
171 69 80
170 69 80
171 69 80
171 69 80
171 69 80
171 69 80
171 69 80
171 69 80
172 69 80
172 69 80
172 69 80
172 69 80
172 69 80
173 69 80
173 69 80
173 69 80
173 69 80
173 69 80
174 69 80
174 70 80
174 70 80
175 70 80
175 70 80
175 70 80
176 70 80
176 70 80
177 70 80
177 70 80
177 70 80
178 70 80
178 70 80
178 70 80
179 70 80
179 71 80
180 71 80
180 71 80
181 71 80
182 71 80
179 70 79
178 69 78
178 114 128
186 148 164
189 175 195
200 207 230
210 229 254
211 230 255
211 230 255
211 230 255
211 230 255
211 230 255
211 230 255
211 230 255
211 230 255
211 230 255
211 230 255
211 230 255
211 230 255
211 230 255
212 230 255
212 230 255
212 230 255
212 230 255
211 230 255
211 230 255
211 230 255
211 230 255
211 230 255
211 230 255
203 221 241
190 208 209
177 194 173
145 160 72
150 167 0
146 164 0
145 162 0
144 160 0
150 168 0
150 169 0
147 166 0
150 168 0
146 164 0
153 171 0
134 151 0
151 169 0
144 162 0
148 168 0
147 167 0
147 167 0
147 167 0
151 171 0
153 173 0
155 175 0
166 188 0
161 183 0
155 177 0
153 175 0
156 178 0
159 182 0
157 179 0
158 180 0
150 171 0
155 178 0
157 180 0
158 182 0
157 180 0
156 179 0
158 180 0
154 176 0
156 180 0
158 181 0
160 184 0
154 177 0
154 177 0
155 179 0
156 179 0
153 177 0
159 183 0
153 176 0
154 177 0
144 166 0
158 182 0
148 170 0
151 174 0
152 175 0
157 181 0
152 176 0
161 185 0
153 176 0
152 175 0
152 175 0
151 174 0
157 180 0
152 175 0
148 170 0
149 171 0
149 171 0
145 167 0
134 154 0
144 165 0
135 154 0
148 168 0
138 157 0
136 154 0
148 168 0
145 163 88
156 173 147
180 199 198
200 220 237
208 228 255
208 228 255
207 228 255
207 228 255
207 228 255
207 228 255
207 228 255
207 228 255
207 228 255
207 228 255
207 228 255
207 228 255
207 228 255
207 228 255
207 228 255
207 228 255
207 227 255
207 227 255
207 227 255
207 227 255
206 227 255
206 227 255
206 227 255
206 227 255
206 227 255
206 227 255
206 227 255
206 227 255
206 227 255
206 227 255
206 227 255
206 227 255
206 227 255
206 227 255
206 227 255
206 227 255
206 227 255
206 227 255
205 227 255
205 227 255
205 227 255
205 227 255
205 227 255
205 227 255
205 227 255
205 227 255
205 227 255
205 227 255
205 227 255
205 226 255
205 226 255
205 226 255
205 226 255
205 226 255
205 226 255
205 226 255
205 226 255
205 226 255
204 226 255
204 226 255
204 226 255
204 226 255
204 226 255
204 226 255
204 226 255
204 226 255
204 226 255
204 226 255
204 226 255
204 226 255
204 226 255
204 226 255
204 226 255
204 226 255
204 226 255
204 226 255
204 226 255
204 226 255
204 226 255
204 226 255
204 226 255
204 226 255
204 226 255
203 226 255
203 226 255
203 226 255
203 226 255
203 226 255
203 226 255
203 226 255
203 226 255
203 226 255
203 226 255
203 226 255
203 226 255
203 226 255
203 226 255
203 226 255
203 226 255
203 226 255
203 226 255
203 226 255
203 226 255
203 226 255
203 226 255
203 226 255
203 226 255
203 226 255
203 226 255
203 226 255
203 226 255
203 226 255
203 226 255
203 226 255
203 226 255
203 226 255
203 226 255
203 226 255
203 226 255
203 226 255
203 226 255
203 226 255
203 226 255
203 226 255
203 226 255
203 226 255
203 226 255
203 226 255
203 226 255
203 226 255
203 226 255
203 226 255
203 226 255
203 226 255
203 226 255
203 226 255
203 226 255
204 226 255
204 226 255
204 226 255
204 226 255
204 226 255
204 226 255
204 226 255
204 226 255
204 226 255
204 226 255
204 226 255
204 226 255
204 226 255
204 226 255
204 226 255
204 226 255
204 226 255
204 226 255
204 226 255
204 226 255
204 226 255
204 226 255
204 226 255
204 226 255
204 226 255
205 226 255
205 226 255
205 226 255
205 226 255
205 226 255
205 226 255
205 226 255
205 226 255
205 226 255
205 227 255
205 227 255
205 227 255
205 227 255
205 227 255
205 227 255
205 227 255
205 227 255
205 227 255
205 227 255
205 227 255
206 227 255
206 227 255
206 227 255
206 227 255
206 227 255
206 227 255
206 227 255
206 227 255
206 227 255
206 227 255
206 227 255
206 227 255
206 227 255
206 227 255
206 227 255
206 227 255
206 227 255
206 227 255
207 227 255
207 227 255
207 227 255
207 227 255
207 228 255
207 228 255
207 228 255
207 228 255
207 228 255
207 228 255
207 228 255
207 228 255
207 228 255
207 228 255
207 228 255
207 228 255
207 228 255
207 228 255
208 228 255
208 228 255
202 218 244
194 187 209
188 147 166
177 97 110
173 68 78
176 70 80
175 70 80
174 70 80
173 69 80
173 69 80
172 69 80
172 69 80
171 69 80
171 69 80
170 69 80
170 69 80
170 69 80
170 69 80
170 69 80
169 69 80
169 69 80
169 69 80
169 69 80
169 69 80
169 69 80
169 69 80
169 69 80
169 69 80
169 69 80
169 69 80
169 69 80
169 69 80
169 69 80
169 69 80
170 69 80
170 69 80
169 69 80
170 69 80
170 69 80
170 69 80
170 69 80
170 69 80
171 69 80
171 69 80
171 69 80
172 69 80
172 69 80
172 69 80
172 69 80
172 69 80
172 69 80
173 69 80
173 69 80
173 69 80
174 69 80
174 70 80
174 70 80
175 70 80
175 70 80
175 70 80
175 70 80
176 70 80
177 70 80
177 70 80
177 70 80
178 70 80
178 70 80
179 70 80
179 71 80
180 71 80
180 71 80
181 71 80
182 71 80
182 71 80
183 71 80
180 70 79
178 101 113
182 132 147
193 181 201
207 220 245
211 230 255
211 230 255
211 230 255
211 230 255
211 230 255
211 230 255
212 230 255
212 230 255
212 230 255
212 230 255
212 230 255
212 230 255
212 230 255
212 230 255
212 230 255
212 230 255
212 230 255
197 215 226
174 190 191
158 174 120
141 157 0
138 154 0
142 159 0
145 162 0
151 169 0
143 161 0
150 169 0
152 170 0
150 168 0
153 171 0
151 169 0
148 166 0
159 179 0
156 176 0
156 175 0
160 181 0
155 175 0
161 181 0
165 188 0
152 172 0
153 174 0
153 174 0
156 178 0
158 180 0
160 182 0
153 174 0
158 179 0
157 179 0
158 180 0
157 179 0
157 178 0
155 178 0
158 181 0
163 187 0
156 179 0
162 185 0
155 178 0
156 179 0
154 178 0
159 182 0
166 191 0
157 181 0
155 179 0
162 187 0
158 182 0
160 183 0
157 181 0
155 179 0
163 188 0
157 181 0
153 176 0
160 185 0
153 177 0
154 178 0
160 185 0
158 183 0
154 178 0
159 184 0
152 175 0
161 186 0
153 177 0
154 178 0
152 176 0
157 181 0
155 178 0
152 175 0
156 180 0
149 172 0
146 169 0
147 169 0
145 168 0
151 174 0
152 175 0
150 173 0
148 170 0
143 164 0
141 161 0
134 153 0
142 162 0
138 157 25
155 174 114
173 191 177
199 219 234
208 228 255
208 228 255
208 228 255
207 228 255
207 228 255
207 228 255
207 228 255
207 228 255
207 228 255
207 228 255
207 228 255
207 228 255
207 228 255
207 228 255
207 228 255
207 228 255
207 228 255
207 227 255
207 227 255
207 227 255
207 227 255
206 227 255
206 227 255
206 227 255
206 227 255
206 227 255
206 227 255
206 227 255
206 227 255
206 227 255
206 227 255
206 227 255
206 227 255
206 227 255
206 227 255
206 227 255
206 227 255
206 227 255
206 227 255
205 227 255
205 227 255
205 227 255
205 227 255
205 227 255
205 227 255
205 227 255
205 227 255
205 227 255
205 227 255
205 227 255
205 227 255
205 226 255
205 226 255
205 226 255
205 226 255
205 226 255
205 226 255
205 226 255
205 226 255
204 226 255
204 226 255
204 226 255
204 226 255
204 226 255
204 226 255
204 226 255
204 226 255
204 226 255
204 226 255
204 226 255
204 226 255
204 226 255
204 226 255
204 226 255
204 226 255
204 226 255
204 226 255
204 226 255
204 226 255
204 226 255
204 226 255
204 226 255
204 226 255
204 226 255
204 226 255
204 226 255
204 226 255
204 226 255
204 226 255
203 226 255
203 226 255
203 226 255
203 226 255
203 226 255
203 226 255
203 226 255
203 226 255
203 226 255
203 226 255
203 226 255
203 226 255
203 226 255
203 226 255
203 226 255
203 226 255
203 226 255
203 226 255
203 226 255
203 226 255
203 226 255
203 226 255
203 226 255
203 226 255
203 226 255
203 226 255
203 226 255
203 226 255
203 226 255
203 226 255
203 226 255
203 226 255
203 226 255
203 226 255
203 226 255
203 226 255
204 226 255
204 226 255
204 226 255
204 226 255
204 226 255
204 226 255
204 226 255
204 226 255
204 226 255
204 226 255
204 226 255
204 226 255
204 226 255
204 226 255
204 226 255
204 226 255
204 226 255
204 226 255
204 226 255
204 226 255
204 226 255
204 226 255
204 226 255
204 226 255
204 226 255
204 226 255
204 226 255
204 226 255
204 226 255
205 226 255
205 226 255
205 226 255
205 226 255
205 226 255
205 226 255
205 226 255
205 226 255
205 226 255
205 227 255
205 227 255
205 227 255
205 227 255
205 227 255
205 227 255
205 227 255
205 227 255
205 227 255
205 227 255
205 227 255
205 227 255
206 227 255
206 227 255
206 227 255
206 227 255
206 227 255
206 227 255
206 227 255
206 227 255
206 227 255
206 227 255
206 227 255
206 227 255
206 227 255
206 227 255
206 227 255
206 227 255
206 227 255
206 227 255
207 227 255
207 227 255
207 227 255
207 227 255
207 228 255
207 228 255
207 228 255
207 228 255
207 228 255
207 228 255
207 228 255
207 228 255
207 228 255
207 228 255
207 228 255
207 228 255
207 228 255
207 228 255
208 228 255
208 228 255
207 227 254
202 212 237
188 172 193
177 110 124
177 73 84
177 70 80
175 70 80
174 70 80
173 69 80
172 69 80
171 69 80
171 69 80
171 69 80
170 69 80
169 69 80
169 69 80
169 69 80
169 69 80
168 69 80
168 68 80
168 68 80
168 68 80
168 68 80
168 68 80
168 68 80
168 68 80
167 68 80
168 68 80
167 68 80
168 68 80
168 68 80
168 68 80
168 68 80
168 68 80
168 68 80
168 68 80
168 68 80
168 68 80
168 68 80
169 69 80
169 69 80
169 69 80
169 69 80
169 69 80
169 69 80
169 69 80
170 69 80
170 69 80
170 69 80
170 69 80
171 69 80
171 69 80
171 69 80
171 69 80
172 69 80
172 69 80
172 69 80
172 69 80
173 69 80
173 69 80
173 69 80
174 69 80
174 70 80
174 70 80
174 70 80
175 70 80
175 70 80
176 70 80
176 70 80
176 70 80
177 70 80
177 70 80
178 70 80
178 70 80
179 70 80
179 70 80
180 71 80
180 71 80
181 71 80
182 71 80
182 71 80
183 71 80
183 71 80
179 76 85
185 129 144
185 161 179
204 205 227
212 230 255
212 230 255
212 230 255
212 230 255
212 230 255
212 230 255
212 230 255
212 230 255
212 230 255
212 230 255
212 230 255
198 216 226
179 196 179
153 169 95
141 156 0
138 154 0
142 159 0
151 168 0
144 161 0
147 165 0
150 168 0
148 167 0
158 177 0
148 165 0
145 163 0
157 176 0
157 176 0
153 171 0
159 179 0
152 172 0
152 172 0
158 178 0
151 171 0
153 174 0
158 180 0
161 182 0
152 173 0
153 174 0
158 180 0
155 176 0
157 178 0
165 188 0
160 183 0
163 186 0
161 183 0
156 178 0
157 181 0
159 182 0
162 185 0
156 179 0
157 180 0
152 174 0
160 184 0
161 185 0
163 188 0
154 178 0
160 184 0
159 183 0
159 182 0
166 191 0
161 186 0
162 187 0
160 184 0
162 186 0
156 180 0
162 187 0
165 191 0
157 182 0
158 183 0
158 183 0
161 187 0
156 180 0
162 187 0
160 186 0
156 181 0
151 175 0
158 183 0
156 181 0
159 185 0
153 178 0
157 181 0
156 180 0
155 179 0
155 180 0
150 174 0
152 176 0
150 173 0
157 181 0
151 173 0
152 176 0
145 167 0
152 175 0
154 177 0
152 175 0
156 179 0
150 172 0
142 163 0
140 160 0
149 170 0
146 166 0
140 158 84
160 178 163
197 216 233
208 228 255
208 228 255
208 228 255
208 228 255
207 228 255
207 228 255
207 228 255
207 228 255
207 228 255
207 228 255
207 228 255
207 228 255
207 228 255
207 228 255
207 228 255
207 228 255
207 228 255
207 228 255
207 227 255
207 227 255
207 227 255
207 227 255
206 227 255
206 227 255
206 227 255
206 227 255
206 227 255
206 227 255
206 227 255
206 227 255
206 227 255
206 227 255
206 227 255
206 227 255
206 227 255
206 227 255
206 227 255
206 227 255
206 227 255
206 227 255
206 227 255
205 227 255
205 227 255
205 227 255
205 227 255
205 227 255
205 227 255
205 227 255
205 227 255
205 227 255
205 227 255
205 227 255
205 227 255
205 226 255
205 226 255
205 226 255
205 226 255
205 226 255
205 226 255
205 226 255
205 226 255
205 226 255
204 226 255
204 226 255
204 226 255
204 226 255
204 226 255
204 226 255
204 226 255
204 226 255
204 226 255
204 226 255
204 226 255
204 226 255
204 226 255
204 226 255
204 226 255
204 226 255
204 226 255
204 226 255
204 226 255
204 226 255
204 226 255
204 226 255
204 226 255
204 226 255
204 226 255
204 226 255
204 226 255
204 226 255
204 226 255
204 226 255
204 226 255
204 226 255
204 226 255
204 226 255
204 226 255
204 226 255
204 226 255
204 226 255
204 226 255
204 226 255
204 226 255
204 226 255
204 226 255
204 226 255
204 226 255
204 226 255
204 226 255
204 226 255
204 226 255
204 226 255
204 226 255
204 226 255
204 226 255
204 226 255
204 226 255
204 226 255
204 226 255
204 226 255
204 226 255
204 226 255
204 226 255
204 226 255
204 226 255
204 226 255
204 226 255
204 226 255
204 226 255
204 226 255
204 226 255
204 226 255
204 226 255
204 226 255
204 226 255
204 226 255
204 226 255
204 226 255
204 226 255
204 226 255
204 226 255
204 226 255
204 226 255
204 226 255
204 226 255
204 226 255
205 226 255
205 226 255
205 226 255
205 226 255
205 226 255
205 226 255
205 226 255
205 226 255
205 226 255
205 227 255
205 227 255
205 227 255
205 227 255
205 227 255
205 227 255
205 227 255
205 227 255
205 227 255
205 227 255
205 227 255
205 227 255
206 227 255
206 227 255
206 227 255
206 227 255
206 227 255
206 227 255
206 227 255
206 227 255
206 227 255
206 227 255
206 227 255
206 227 255
206 227 255
206 227 255
206 227 255
206 227 255
206 227 255
206 227 255
206 227 255
207 227 255
207 227 255
207 227 255
207 227 255
207 228 255
207 228 255
207 228 255
207 228 255
207 228 255
207 228 255
207 228 255
207 228 255
207 228 255
207 228 255
207 228 255
207 228 255
207 228 255
207 228 255
208 228 255
208 228 255
208 228 255
207 227 254
200 206 231
192 163 183
175 96 109
175 69 80
175 70 80
174 70 80
173 69 80
172 69 80
171 69 80
170 69 80
170 69 80
170 69 80
169 69 80
169 69 80
168 69 80
168 68 80
168 68 80
167 68 80
167 68 80
167 68 80
167 68 80
167 68 80
167 68 80
166 68 80
166 68 80
166 68 80
166 68 80
166 68 80
166 68 80
166 68 80
166 68 80
167 68 80
167 68 80
167 68 80
167 68 80
167 68 80
167 68 80
167 68 80
167 68 80
167 68 80
167 68 80
168 68 80
168 68 80
168 68 80
168 68 80
168 68 80
169 69 80
169 69 80
169 69 80
169 69 80
170 69 80
169 69 80
170 69 80
170 69 80
170 69 80
170 69 80
171 69 80
171 69 80
171 69 80
172 69 80
172 69 80
172 69 80
173 69 80
173 69 80
173 69 80
173 69 80
174 69 80
174 70 80
175 70 80
174 70 80
175 70 80
175 70 80
176 70 80
177 70 80
176 70 80
177 70 80
177 70 80
178 70 80
178 70 80
179 70 80
179 70 80
180 71 80
181 71 80
181 71 80
182 71 80
182 71 80
183 71 80
183 71 80
180 70 78
176 89 99
188 160 178
201 209 232
212 230 255
212 230 255
212 230 255
212 230 255
212 230 255
204 221 242
180 196 175
145 159 84
145 160 0
150 166 0
141 157 0
139 155 0
143 159 0
162 180 0
155 173 0
151 169 0
145 163 0
150 169 0
158 177 0
157 176 0
157 176 0
153 172 0
160 181 0
156 176 0
152 172 0
153 174 0
161 182 0
153 174 0
152 172 0
157 178 0
157 178 0
158 179 0
160 181 0
158 180 0
155 177 0
156 178 0
166 188 0
162 185 0
160 182 0
166 190 0
164 187 0
154 176 0
163 186 0
165 189 0
163 187 0
163 187 0
162 186 0
164 188 0
158 181 0
161 185 0
161 185 0
160 184 0
166 190 0
164 189 0
166 191 0
161 186 0
165 190 0
163 188 0
161 186 0
166 191 0
165 190 0
161 186 0
163 188 0
162 187 0
162 187 0
161 185 0
161 186 0
159 184 0
166 191 0
163 189 0
159 185 0
164 189 0
160 185 0
161 186 0
160 186 0
160 186 0
158 183 0
164 190 0
158 183 0
162 187 0
159 184 0
159 185 0
158 183 0
152 176 0
161 186 0
152 176 0
155 179 0
154 179 0
153 177 0
152 176 0
152 175 0
157 181 0
150 173 0
150 173 0
152 175 0
140 160 0
141 162 0
146 168 0
148 169 0
135 154 0
157 175 120
176 196 177
198 217 238
208 228 255
208 228 255
208 228 255
208 228 255
208 228 255
207 228 255
207 228 255
207 228 255
207 228 255
207 228 255
207 228 255
207 228 255
207 228 255
207 228 255
207 228 255
207 228 255
207 228 255
207 228 255
207 228 255
207 227 255
207 227 255
207 227 255
207 227 255
206 227 255
206 227 255
206 227 255
206 227 255
206 227 255
206 227 255
206 227 255
206 227 255
206 227 255
206 227 255
206 227 255
206 227 255
206 227 255
206 227 255
206 227 255
206 227 255
206 227 255
206 227 255
206 227 255
205 227 255
205 227 255
205 227 255
205 227 255
205 227 255
205 227 255
205 227 255
205 227 255
205 227 255
205 227 255
205 227 255
205 227 255
205 227 255
205 226 255
205 226 255
205 226 255
205 226 255
205 226 255
205 226 255
205 226 255
205 226 255
205 226 255
205 226 255
204 226 255
204 226 255
204 226 255
204 226 255
204 226 255
204 226 255
204 226 255
204 226 255
204 226 255
204 226 255
204 226 255
204 226 255
204 226 255
204 226 255
204 226 255
204 226 255
204 226 255
204 226 255
204 226 255
204 226 255
204 226 255
204 226 255
204 226 255
204 226 255
204 226 255
204 226 255
204 226 255
204 226 255
204 226 255
204 226 255
204 226 255
204 226 255
204 226 255
204 226 255
204 226 255
204 226 255
204 226 255
204 226 255
204 226 255
204 226 255
204 226 255
204 226 255
204 226 255
204 226 255
204 226 255
204 226 255
204 226 255
204 226 255
204 226 255
204 226 255
204 226 255
204 226 255
204 226 255
204 226 255
204 226 255
204 226 255
204 226 255
204 226 255
204 226 255
204 226 255
204 226 255
204 226 255
204 226 255
204 226 255
204 226 255
204 226 255
204 226 255
204 226 255
204 226 255
204 226 255
204 226 255
205 226 255
205 226 255
205 226 255
205 226 255
205 226 255
205 226 255
205 226 255
205 226 255
205 226 255
205 226 255
205 226 255
205 227 255
205 227 255
205 227 255
205 227 255
205 227 255
205 227 255
205 227 255
205 227 255
205 227 255
205 227 255
205 227 255
205 227 255
205 227 255
206 227 255
206 227 255
206 227 255
206 227 255
206 227 255
206 227 255
206 227 255
206 227 255
206 227 255
206 227 255
206 227 255
206 227 255
206 227 255
206 227 255
206 227 255
206 227 255
206 227 255
206 227 255
206 227 255
207 227 255
207 227 255
207 227 255
207 227 255
207 228 255
207 228 255
207 228 255
207 228 255
207 228 255
207 228 255
207 228 255
207 228 255
207 228 255
207 228 255
207 228 255
207 228 255
207 228 255
207 228 255
208 228 255
208 228 255
208 228 255
208 228 255
208 228 255
199 212 238
190 165 186
175 96 109
177 70 80
175 70 80
174 70 80
172 69 80
172 69 80
171 69 80
170 69 80
170 69 80
169 69 80
168 68 80
168 68 80
168 68 80
167 68 80
167 68 80
166 68 80
166 68 80
166 68 80
166 68 80
166 68 80
166 68 80
166 68 80
166 68 80
165 68 80
165 68 80
165 68 80
165 68 80
165 68 80
166 68 80
166 68 80
165 68 80
166 68 80
166 68 80
166 68 80
166 68 80
166 68 80
166 68 80
166 68 80
166 68 80
167 68 80
167 68 80
167 68 80
167 68 80
167 68 80
167 68 80
167 68 80
168 68 80
168 68 80
168 68 80
168 68 80
168 68 80
169 69 80
169 69 80
169 69 80
169 69 80
170 69 80
170 69 80
170 69 80
171 69 80
171 69 80
171 69 80
171 69 80
172 69 80
172 69 80
172 69 80
172 69 80
173 69 80
173 69 80
173 69 80
174 70 80
174 70 80
175 70 80
175 70 80
175 70 80
175 70 80
176 70 80
176 70 80
177 70 80
177 70 80
177 70 80
178 70 80
178 70 80
179 70 80
179 70 80
180 71 80
180 71 80
181 71 80
181 71 80
182 71 80
183 71 80
183 71 80
184 71 80
184 71 80
173 90 101
184 168 186
201 204 227
212 230 255
157 172 120
137 152 0
146 162 0
147 163 0
144 161 0
152 170 0
145 162 0
156 173 0
154 172 0
149 167 0
156 174 0
158 177 0
153 172 0
160 180 0
159 178 0
153 172 0
159 178 0
159 179 0
149 168 0
154 173 0
161 182 0
162 183 0
161 182 0
154 173 0
161 182 0
163 185 0
162 183 0
162 184 0
156 177 0
158 179 0
162 185 0
159 181 0
159 181 0
160 182 0
161 183 0
161 183 0
159 182 0
162 186 0
165 188 0
165 189 0
167 192 0
168 191 0
166 191 0
166 190 0
162 186 0
162 186 0
165 190 0
165 190 0
164 189 0
164 189 0
167 192 0
166 191 0
162 187 0
167 193 0
166 191 0
163 188 0
166 192 0
165 191 0
160 186 0
161 186 0
166 192 0
159 184 0
164 190 0
167 193 0
166 192 0
164 190 0
162 189 0
163 189 0
161 187 0
166 192 0
162 188 0
160 186 0
161 187 0
164 190 0
160 186 0
161 187 0
157 183 0
159 185 0
161 187 0
164 190 0
156 181 0
161 187 0
155 180 0
158 184 0
159 185 0
157 181 0
157 182 0
150 174 0
155 179 0
153 178 0
148 171 0
151 173 0
144 167 0
144 166 0
155 177 0
147 169 0
136 156 0
140 160 0
140 158 25
155 174 108
182 201 207
204 224 250
208 228 255
208 228 255
208 228 255
208 228 255
208 228 255
208 228 255
207 228 255
207 228 255
207 228 255
207 228 255
207 228 255
207 228 255
207 228 255
207 228 255
207 228 255
207 228 255
207 228 255
207 228 255
207 228 255
207 228 255
207 227 255
207 227 255
207 227 255
207 227 255
206 227 255
206 227 255
206 227 255
206 227 255
206 227 255
206 227 255
206 227 255
206 227 255
206 227 255
206 227 255
206 227 255
206 227 255
206 227 255
206 227 255
206 227 255
206 227 255
206 227 255
206 227 255
206 227 255
206 227 255
206 227 255
205 227 255
205 227 255
205 227 255
205 227 255
205 227 255
205 227 255
205 227 255
205 227 255
205 227 255
205 227 255
205 227 255
205 227 255
205 227 255
205 226 255
205 226 255
205 226 255
205 226 255
205 226 255
205 226 255
205 226 255
205 226 255
205 226 255
205 226 255
205 226 255
205 226 255
204 226 255
204 226 255
204 226 255
204 226 255
204 226 255
204 226 255
204 226 255
204 226 255
204 226 255
204 226 255
204 226 255
204 226 255
204 226 255
204 226 255
204 226 255
204 226 255
204 226 255
204 226 255
204 226 255
204 226 255
204 226 255
204 226 255
204 226 255
204 226 255
204 226 255
204 226 255
204 226 255
204 226 255
204 226 255
204 226 255
204 226 255
204 226 255
204 226 255
204 226 255
204 226 255
204 226 255
204 226 255
204 226 255
204 226 255
204 226 255
204 226 255
204 226 255
204 226 255
204 226 255
204 226 255
204 226 255
204 226 255
204 226 255
204 226 255
204 226 255
204 226 255
204 226 255
204 226 255
204 226 255
204 226 255
204 226 255
205 226 255
205 226 255
205 226 255
205 226 255
205 226 255
205 226 255
205 226 255
205 226 255
205 226 255
205 226 255
205 226 255
205 226 255
205 227 255
205 227 255
205 227 255
205 227 255
205 227 255
205 227 255
205 227 255
205 227 255
205 227 255
205 227 255
205 227 255
205 227 255
205 227 255
205 227 255
206 227 255
206 227 255
206 227 255
206 227 255
206 227 255
206 227 255
206 227 255
206 227 255
206 227 255
206 227 255
206 227 255
206 227 255
206 227 255
206 227 255
206 227 255
206 227 255
206 227 255
206 227 255
206 227 255
206 227 255
207 227 255
207 227 255
207 227 255
207 227 255
207 228 255
207 228 255
207 228 255
207 228 255
207 228 255
207 228 255
207 228 255
207 228 255
207 228 255
207 228 255
207 228 255
207 228 255
207 228 255
207 228 255
208 228 255
208 228 255
208 228 255
208 228 255
208 228 255
208 228 255
206 225 252
194 183 205
179 118 133
177 70 80
175 70 80
174 70 80
173 69 80
172 69 80
170 69 80
170 69 80
169 69 80
169 69 80
168 68 80
167 68 80
167 68 80
167 68 80
166 68 80
166 68 80
166 68 80
165 68 80
165 68 80
165 68 80
165 68 80
165 68 80
165 68 80
165 68 80
165 68 80
165 68 80
165 68 80
164 68 80
165 68 80
165 68 80
165 68 80
165 68 80
165 68 80
165 68 80
165 68 80
165 68 80
165 68 80
165 68 80
165 68 80
166 68 80
165 68 80
166 68 80
166 68 80
166 68 80
166 68 80
166 68 80
167 68 80
167 68 80
167 68 80
167 68 80
167 68 80
168 68 80
168 68 80
168 68 80
168 68 80
169 69 80
169 69 80
169 69 80
169 69 80
169 69 80
170 69 80
170 69 80
170 69 80
171 69 80
171 69 80
171 69 80
171 69 80
171 69 80
172 69 80
172 69 80
173 69 80
173 69 80
173 69 80
173 69 80
174 70 80
174 70 80
175 70 80
175 70 80
175 70 80
175 70 80
176 70 80
176 70 80
176 70 80
177 70 80
177 70 80
178 70 80
178 70 80
179 70 80
179 70 80
180 71 80
180 71 80
181 71 80
181 71 80
182 71 80
182 71 80
183 71 80
184 71 80
185 72 80
179 69 78
182 123 137
147 163 0
152 169 0
146 162 0
150 167 0
144 160 0
149 167 0
152 170 0
157 175 0
152 171 0
155 174 0
162 182 0
157 177 0
154 174 0
153 173 0
160 180 0
166 188 0
166 187 0
165 184 0
164 185 0
158 179 0
157 178 0
156 176 0
163 185 0
159 180 0
166 188 0
164 186 0
162 184 0
164 187 0
165 188 0
165 187 0
165 187 0
164 188 0
163 186 0
164 187 0
162 185 0
167 190 0
161 184 0
163 187 0
169 193 0
166 189 0
168 193 0
162 186 0
163 188 0
164 189 0
164 189 0
169 194 0
167 192 0
166 191 0
166 191 0
164 189 0
169 195 0
165 191 0
167 193 0
167 193 0
165 190 0
168 194 0
166 192 0
167 194 0
164 189 0
165 190 0
164 190 0
166 192 0
165 191 0
163 189 0
165 191 0
165 191 0
163 190 0
162 189 0
164 191 0
162 188 0
167 193 0
166 192 0
162 189 0
165 192 0
165 192 0
163 190 0
161 188 0
164 191 0
159 186 0
160 186 0
161 188 0
161 188 0
158 184 0
153 178 0
159 185 0
155 180 0
158 184 0
158 184 0
154 179 0
159 184 0
155 179 0
149 173 0
157 181 0
155 179 0
157 180 0
145 168 0
152 175 0
148 170 0
148 169 0
144 165 0
143 163 0
143 161 51
169 188 165
196 215 224
208 228 255
208 228 255
208 228 255
208 228 255
208 228 255
208 228 255
208 228 255
208 228 255
207 228 255
207 228 255
207 228 255
207 228 255
207 228 255
207 228 255
207 228 255
207 228 255
207 228 255
207 228 255
207 228 255
207 228 255
207 228 255
207 228 255
207 227 255
207 227 255
207 227 255
207 227 255
207 227 255
206 227 255
206 227 255
206 227 255
206 227 255
206 227 255
206 227 255
206 227 255
206 227 255
206 227 255
206 227 255
206 227 255
206 227 255
206 227 255
206 227 255
206 227 255
206 227 255
206 227 255
206 227 255
206 227 255
206 227 255
206 227 255
205 227 255
205 227 255
205 227 255
205 227 255
205 227 255
205 227 255
205 227 255
205 227 255
205 227 255
205 227 255
205 227 255
205 227 255
205 227 255
205 227 255
205 227 255
205 226 255
205 226 255
205 226 255
205 226 255
205 226 255
205 226 255
205 226 255
205 226 255
205 226 255
205 226 255
205 226 255
205 226 255
205 226 255
205 226 255
205 226 255
205 226 255
204 226 255
204 226 255
204 226 255
204 226 255
204 226 255
204 226 255
204 226 255
204 226 255
204 226 255
204 226 255
204 226 255
204 226 255
204 226 255
204 226 255
204 226 255
204 226 255
204 226 255
204 226 255
204 226 255
204 226 255
204 226 255
204 226 255
204 226 255
204 226 255
204 226 255
204 226 255
204 226 255
204 226 255
204 226 255
204 226 255
204 226 255
204 226 255
204 226 255
204 226 255
205 226 255
205 226 255
205 226 255
205 226 255
205 226 255
205 226 255
205 226 255
205 226 255
205 226 255
205 226 255
205 226 255
205 226 255
205 226 255
205 226 255
205 226 255
205 226 255
205 227 255
205 227 255
205 227 255
205 227 255
205 227 255
205 227 255
205 227 255
205 227 255
205 227 255
205 227 255
205 227 255
205 227 255
205 227 255
205 227 255
205 227 255
206 227 255
206 227 255
206 227 255
206 227 255
206 227 255
206 227 255
206 227 255
206 227 255
206 227 255
206 227 255
206 227 255
206 227 255
206 227 255
206 227 255
206 227 255
206 227 255
206 227 255
206 227 255
206 227 255
206 227 255
206 227 255
207 227 255
207 227 255
207 227 255
207 227 255
207 227 255
207 228 255
207 228 255
207 228 255
207 228 255
207 228 255
207 228 255
207 228 255
207 228 255
207 228 255
207 228 255
207 228 255
207 228 255
207 228 255
207 228 255
208 228 255
208 228 255
208 228 255
208 228 255
208 228 255
208 228 255
208 228 255
208 228 255
200 202 226
184 150 168
178 87 99
176 70 80
175 70 80
173 69 80
172 69 80
171 69 80
170 69 80
169 69 80
168 68 80
168 68 80
167 68 80
167 68 80
166 68 80
166 68 80
166 68 80
165 68 80
165 68 80
165 68 80
165 68 80
164 68 80
164 68 80
164 68 80
164 68 80
164 68 80
164 68 80
164 68 80
164 68 80
164 68 80
164 68 80
164 68 80
164 68 80
164 68 80
164 68 80
164 68 80
164 68 80
164 68 80
164 68 80
164 68 80
165 68 80
165 68 80
165 68 80
165 68 80
165 68 80
165 68 80
166 68 80
166 68 80
166 68 80
166 68 80
166 68 80
166 68 80
167 68 80
167 68 80
167 68 80
167 68 80
167 68 80
168 68 80
168 68 80
168 68 80
168 68 80
169 69 80
169 69 80
169 69 80
169 69 80
170 69 80
170 69 80
170 69 80
170 69 80
171 69 80
171 69 80
171 69 80
171 69 80
172 69 80
172 69 80
172 69 80
173 69 80
173 69 80
173 69 80
173 69 80
174 69 80
174 70 80
174 70 80
175 70 80
175 70 80
176 70 80
176 70 80
176 70 80
177 70 80
177 70 80
178 70 80
178 70 80
178 70 80
179 70 80
179 71 80
180 71 80
180 71 80
181 71 80
181 71 80
181 71 80
182 71 80
183 71 80
184 71 80
184 71 80
139 155 0
146 162 0
150 167 0
157 175 0
157 175 0
156 173 0
153 171 0
152 169 0
162 181 0
156 174 0
161 181 0
163 183 0
164 185 0
154 173 0
164 185 0
161 182 0
161 181 0
165 185 0
159 180 0
161 182 0
167 188 0
153 173 0
166 189 0
166 189 0
171 194 0
166 188 0
170 192 0
163 185 0
162 184 0
165 189 0
167 191 0
166 189 0
167 191 0
166 189 0
165 188 0
167 191 0
166 190 0
167 191 0
165 190 0
167 192 0
168 194 0
168 193 0
168 192 0
170 195 0
167 192 0
168 193 0
170 196 0
169 195 0
167 192 0
169 195 0
169 194 0
168 194 0
169 195 0
168 194 0
169 195 0
169 195 0
167 193 0
168 194 0
168 195 0
168 194 0
167 194 0
168 195 0
166 192 0
167 193 0
167 194 0
167 194 0
168 194 0
167 194 0
165 193 0
164 192 0
166 193 0
166 193 0
165 192 0
166 194 0
166 193 0
164 191 0
163 190 0
165 192 0
163 190 0
163 190 0
164 191 0
164 191 0
159 185 0
159 185 0
164 191 0
161 187 0
161 188 0
161 187 0
156 182 0
156 181 0
154 179 0
155 179 0
154 179 0
148 171 0
160 186 0
156 181 0
150 173 0
146 168 0
148 170 0
153 175 0
152 174 0
141 162 0
145 166 0
138 157 0
157 175 122
183 201 209
208 228 255
208 228 255
208 228 255
208 228 255
208 228 255
208 228 255
208 228 255
208 228 255
208 228 255
208 228 255
207 228 255
207 228 255
207 228 255
207 228 255
207 228 255
207 228 255
207 228 255
207 228 255
207 228 255
207 228 255
207 228 255
207 228 255
207 228 255
207 228 255
207 228 255
207 227 255
207 227 255
207 227 255
207 227 255
207 227 255
206 227 255
206 227 255
206 227 255
206 227 255
206 227 255
206 227 255
206 227 255
206 227 255
206 227 255
206 227 255
206 227 255
206 227 255
206 227 255
206 227 255
206 227 255
206 227 255
206 227 255
206 227 255
206 227 255
206 227 255
206 227 255
206 227 255
205 227 255
205 227 255
205 227 255
205 227 255
205 227 255
205 227 255
205 227 255
205 227 255
205 227 255
205 227 255
205 227 255
205 227 255
205 227 255
205 227 255
205 227 255
205 227 255
205 227 255
205 227 255
205 226 255
205 226 255
205 226 255
205 226 255
205 226 255
205 226 255
205 226 255
205 226 255
205 226 255
205 226 255
205 226 255
205 226 255
205 226 255
205 226 255
205 226 255
205 226 255
205 226 255
205 226 255
205 226 255
205 226 255
205 226 255
205 226 255
205 226 255
205 226 255
205 226 255
205 226 255
205 226 255
205 226 255
205 226 255
205 226 255
205 226 255
205 226 255
205 226 255
205 226 255
205 226 255
205 226 255
205 226 255
205 226 255
205 226 255
205 226 255
205 226 255
205 226 255
205 226 255
205 226 255
205 226 255
205 226 255
205 226 255
205 226 255
205 227 255
205 227 255
205 227 255
205 227 255
205 227 255
205 227 255
205 227 255
205 227 255
205 227 255
205 227 255
205 227 255
205 227 255
205 227 255
205 227 255
205 227 255
205 227 255
205 227 255
205 227 255
206 227 255
206 227 255
206 227 255
206 227 255
206 227 255
206 227 255
206 227 255
206 227 255
206 227 255
206 227 255
206 227 255
206 227 255
206 227 255
206 227 255
206 227 255
206 227 255
206 227 255
206 227 255
206 227 255
206 227 255
206 227 255
206 227 255
207 227 255
207 227 255
207 227 255
207 227 255
207 227 255
207 228 255
207 228 255
207 228 255
207 228 255
207 228 255
207 228 255
207 228 255
207 228 255
207 228 255
207 228 255
207 228 255
207 228 255
207 228 255
207 228 255
207 228 255
208 228 255
208 228 255
208 228 255
208 228 255
208 228 255
208 228 255
208 228 255
208 228 255
208 228 255
208 228 255
194 185 208
179 128 143
174 69 79
175 70 80
174 69 80
172 69 80
171 69 80
170 69 80
169 69 80
168 68 80
168 68 80
167 68 80
167 68 80
166 68 80
166 68 80
165 68 80
165 68 80
165 68 80
165 68 80
164 68 80
164 68 80
164 68 80
164 68 80
164 68 80
164 68 80
163 68 80
163 68 80
163 68 80
163 68 80
163 68 80
163 68 80
163 68 80
163 68 80
163 68 80
163 68 80
164 68 80
164 68 80
164 68 80
164 68 80
164 68 80
164 68 80
164 68 80
164 68 80
164 68 80
164 68 80
165 68 80
165 68 80
165 68 80
165 68 80
165 68 80
166 68 80
166 68 80
166 68 80
166 68 80
166 68 80
166 68 80
167 68 80
167 68 80
167 68 80
167 68 80
168 68 80
168 68 80
168 68 80
168 69 80
168 69 80
169 69 80
169 69 80
169 69 80
170 69 80
170 69 80
170 69 80
170 69 80
171 69 80
171 69 80
171 69 80
172 69 80
172 69 80
172 69 80
172 69 80
173 69 80
173 69 80
173 69 80
174 69 80
174 70 80
174 70 80
175 70 80
175 70 80
175 70 80
175 70 80
176 70 80
176 70 80
177 70 80
177 70 80
177 70 80
178 70 80
178 70 80
178 70 80
179 70 80
179 71 80
180 71 80
180 71 80
181 71 80
181 71 80
182 71 80
183 71 80
183 71 80
155 173 0
155 172 0
162 180 0
164 182 0
157 176 0
156 174 0
157 176 0
155 173 0
163 183 0
167 188 0
166 186 0
161 182 0
160 180 0
164 184 0
161 181 0
158 177 0
161 181 0
158 180 0
164 185 0
165 186 0
167 189 0
162 184 0
165 187 0
168 190 0
163 185 0
168 191 0
165 187 0
169 192 0
170 194 0
166 188 0
167 190 0
174 197 0
167 190 0
168 192 0
171 194 0
170 194 0
169 194 0
168 193 0
170 195 0
167 191 0
168 194 0
170 195 0
170 196 0
169 195 0
170 196 0
170 196 0
169 195 0
170 195 0
169 195 0
169 195 0
169 195 0
169 195 0
169 195 0
169 195 0
168 195 0
167 194 0
167 194 0
167 194 0
168 194 0
167 194 0
168 194 0
167 194 0
168 194 0
167 194 0
167 194 0
166 194 0
166 194 0
166 194 0
166 194 0
166 193 0
166 194 0
167 194 0
166 194 0
166 193 0
166 193 0
165 193 0
167 194 0
166 193 0
166 194 0
166 194 0
166 194 0
165 192 0
166 193 0
164 191 0
161 187 0
164 191 0
161 188 0
162 189 0
163 190 0
160 187 0
163 190 0
163 189 0
164 190 0
157 182 0
157 182 0
158 183 0
154 178 0
155 180 0
155 178 0
144 166 0
147 169 0
145 167 0
153 175 0
140 160 0
142 162 0
139 157 0
155 174 102
186 205 203
204 223 249
208 228 255
208 228 255
208 228 255
208 228 255
208 228 255
208 228 255
208 228 255
208 228 255
208 228 255
208 228 255
208 228 255
208 228 255
207 228 255
207 228 255
207 228 255
207 228 255
207 228 255
207 228 255
207 228 255
207 228 255
207 228 255
207 228 255
207 228 255
207 228 255
207 228 255
207 228 255
207 228 255
207 227 255
207 227 255
207 227 255
207 227 255
207 227 255
206 227 255
206 227 255
206 227 255
206 227 255
206 227 255
206 227 255
206 227 255
206 227 255
206 227 255
206 227 255
206 227 255
206 227 255
206 227 255
206 227 255
206 227 255
206 227 255
206 227 255
206 227 255
206 227 255
206 227 255
206 227 255
206 227 255
206 227 255
205 227 255
205 227 255
205 227 255
205 227 255
205 227 255
205 227 255
205 227 255
205 227 255
205 227 255
205 227 255
205 227 255
205 227 255
205 227 255
205 227 255
205 227 255
205 227 255
205 227 255
205 227 255
205 227 255
205 227 255
205 227 255
205 227 255
205 227 255
205 227 255
205 227 255
205 227 255
205 227 255
205 226 255
205 226 255
205 226 255
205 226 255
205 226 255
205 226 255
205 226 255
205 226 255
205 226 255
205 226 255
205 226 255
205 226 255
205 226 255
205 226 255
205 226 255
205 226 255
205 226 255
205 226 255
205 226 255
205 227 255
205 227 255
205 227 255
205 227 255
205 227 255
205 227 255
205 227 255
205 227 255
205 227 255
205 227 255
205 227 255
205 227 255
205 227 255
205 227 255
205 227 255
205 227 255
205 227 255
205 227 255
205 227 255
205 227 255
205 227 255
205 227 255
205 227 255
205 227 255
205 227 255
206 227 255
206 227 255
206 227 255
206 227 255
206 227 255
206 227 255
206 227 255
206 227 255
206 227 255
206 227 255
206 227 255
206 227 255
206 227 255
206 227 255
206 227 255
206 227 255
206 227 255
206 227 255
206 227 255
206 227 255
206 227 255
206 227 255
206 227 255
206 227 255
207 227 255
207 227 255
207 227 255
207 227 255
207 227 255
207 228 255
207 228 255
207 228 255
207 228 255
207 228 255
207 228 255
207 228 255
207 228 255
207 228 255
207 228 255
207 228 255
207 228 255
207 228 255
207 228 255
207 228 255
208 228 255
208 228 255
208 228 255
208 228 255
208 228 255
208 228 255
208 228 255
208 228 255
208 228 255
208 228 255
208 228 255
208 228 255
206 224 251
196 189 212
180 102 116
176 70 80
175 70 80
173 69 80
172 69 80
171 69 80
170 69 80
169 69 80
168 68 80
167 68 80
167 68 80
166 68 80
166 68 80
165 68 80
165 68 80
165 68 80
164 68 80
164 68 80
164 68 80
164 68 80
163 68 80
163 68 80
163 68 80
163 68 80
163 68 80
163 68 80
163 67 80
163 67 80
163 67 80
163 67 80
163 67 80
163 67 80
163 67 80
163 67 80
163 68 80
163 68 80
163 68 80
163 68 80
163 68 80
163 68 80
164 68 80
164 68 80
164 68 80
164 68 80
164 68 80
164 68 80
165 68 80
165 68 80
165 68 80
165 68 80
165 68 80
165 68 80
165 68 80
166 68 80
166 68 80
166 68 80
166 68 80
167 68 80
167 68 80
167 68 80
167 68 80
167 68 80
167 68 80
168 68 80
168 68 80
168 69 80
169 69 80
169 69 80
169 69 80
169 69 80
170 69 80
170 69 80
170 69 80
170 69 80
171 69 80
171 69 80
171 69 80
172 69 80
172 69 80
172 69 80
172 69 80
172 69 80
173 69 80
173 69 80
173 69 80
174 69 80
174 70 80
174 70 80
175 70 80
175 70 80
176 70 80
176 70 80
176 70 80
177 70 80
177 70 80
177 70 80
177 70 80
178 70 80
178 70 80
179 70 80
179 71 80
179 71 80
180 71 80
180 71 80
181 71 80
181 71 80
182 71 80
149 165 0
159 176 0
161 180 0
163 181 0
159 177 0
167 186 0
157 175 0
159 178 0
162 182 0
163 182 0
157 176 0
161 181 0
165 185 0
158 177 0
166 187 0
170 191 0
167 188 0
166 187 0
164 185 0
161 183 0
164 186 0
167 189 0
169 192 0
169 192 0
170 193 0
170 193 0
172 196 0
166 189 0
168 190 0
167 189 0
171 195 0
170 195 0
168 192 0
169 193 0
170 195 0
171 195 0
170 194 0
170 195 0
170 195 0
170 194 0
170 196 0
170 196 0
171 196 0
170 196 0
171 196 0
170 195 0
169 195 0
169 195 0
169 195 0
170 195 0
169 195 0
170 195 0
168 195 0
168 195 0
168 194 0
168 194 0
169 195 0
168 194 0
168 194 0
167 194 0
167 194 0
167 194 0
167 194 0
167 194 0
167 194 0
166 193 0
167 194 0
166 193 0
166 194 0
166 194 0
166 193 0
166 193 0
166 193 0
166 194 0
166 193 0
166 193 0
166 193 0
166 193 0
166 193 0
166 193 0
166 193 0
165 193 0
165 193 0
164 192 0
164 192 0
164 191 0
164 191 0
164 191 0
165 193 0
162 189 0
164 192 0
159 186 0
159 185 0
159 186 0
163 190 0
158 184 0
153 178 0
157 182 0
159 185 0
153 177 0
154 177 0
150 173 0
143 165 0
142 164 0
138 159 0
148 170 0
142 162 0
136 155 0
143 162 51
176 194 184
206 226 252
208 228 255
208 228 255
208 228 255
208 228 255
208 228 255
208 228 255
208 228 255
208 228 255
208 228 255
208 228 255
208 228 255
208 228 255
208 228 255
208 228 255
207 228 255
207 228 255
207 228 255
207 228 255
207 228 255
207 228 255
207 228 255
207 228 255
207 228 255
207 228 255
207 228 255
207 228 255
207 228 255
207 228 255
207 228 255
207 227 255
207 227 255
207 227 255
207 227 255
207 227 255
207 227 255
206 227 255
206 227 255
206 227 255
206 227 255
206 227 255
206 227 255
206 227 255
206 227 255
206 227 255
206 227 255
206 227 255
206 227 255
206 227 255
206 227 255
206 227 255
206 227 255
206 227 255
206 227 255
206 227 255
206 227 255
206 227 255
206 227 255
206 227 255
206 227 255
206 227 255
206 227 255
206 227 255
205 227 255
205 227 255
205 227 255
205 227 255
205 227 255
205 227 255
205 227 255
205 227 255
205 227 255
205 227 255
205 227 255
205 227 255
205 227 255
205 227 255
205 227 255
205 227 255
205 227 255
205 227 255
205 227 255
205 227 255
205 227 255
205 227 255
205 227 255
205 227 255
204 226 255
204 226 255
199 221 252
199 221 251
197 219 250
205 227 255
205 227 255
205 227 255
205 227 255
205 227 255
205 227 255
205 227 255
205 227 255
205 227 255
205 227 255
205 227 255
205 227 255
205 227 255
205 227 255
205 227 255
205 227 255
205 227 255
205 227 255
205 227 255
205 227 255
205 227 255
205 227 255
205 227 255
205 227 255
205 227 255
206 227 255
206 227 255
206 227 255
206 227 255
206 227 255
206 227 255
206 227 255
206 227 255
206 227 255
206 227 255
206 227 255
206 227 255
206 227 255
206 227 255
206 227 255
206 227 255
206 227 255
206 227 255
206 227 255
206 227 255
206 227 255
206 227 255
206 227 255
206 227 255
206 227 255
206 227 255
206 227 255
207 227 255
207 227 255
207 227 255
207 227 255
207 227 255
207 228 255
207 228 255
207 228 255
207 228 255
207 228 255
207 228 255
207 228 255
207 228 255
207 228 255
207 228 255
207 228 255
207 228 255
207 228 255
207 228 255
207 228 255
207 228 255
208 228 255
208 228 255
208 228 255
208 228 255
208 228 255
208 228 255
208 228 255
208 228 255
208 228 255
208 228 255
208 228 255
208 228 255
208 228 255
208 228 255
206 222 248
192 174 195
176 84 95
177 70 80
174 70 80
173 69 80
171 69 80
170 69 80
169 69 80
168 69 80
168 68 80
167 68 80
167 68 80
166 68 80
165 68 80
165 68 80
165 68 80
164 68 80
164 68 80
164 68 80
164 68 80
163 68 80
163 68 80
163 68 80
163 67 80
163 67 80
163 67 80
162 67 80
162 67 80
162 67 80
162 67 80
162 67 80
162 67 80
162 67 80
162 67 80
163 67 80
163 67 80
163 67 80
163 67 80
163 67 80
163 67 80
163 68 80
163 68 80
163 68 80
163 68 80
164 68 80
164 68 80
164 68 80
164 68 80
164 68 80
164 68 80
164 68 80
165 68 80
165 68 80
165 68 80
165 68 80
165 68 80
165 68 80
166 68 80
166 68 80
166 68 80
166 68 80
167 68 80
167 68 80
167 68 80
167 68 80
168 68 80
168 68 80
168 68 80
168 68 80
169 69 80
169 69 80
169 69 80
170 69 80
170 69 80
170 69 80
170 69 80
170 69 80
171 69 80
171 69 80
171 69 80
171 69 80
172 69 80
172 69 80
172 69 80
172 69 80
173 69 80
173 69 80
174 69 80
174 69 80
174 70 80
174 70 80
175 70 80
175 70 80
175 70 80
175 70 80
176 70 80
176 70 80
177 70 80
177 70 80
177 70 80
177 70 80
178 70 80
178 70 80
179 70 80
179 70 80
180 71 80
180 71 80
181 71 80
181 71 80
181 71 80
157 174 0
157 175 0
162 181 0
157 175 0
157 175 0
164 184 0
161 181 0
160 179 0
164 183 0
163 183 0
163 182 0
162 182 0
169 190 0
167 188 0
163 184 0
165 186 0
171 193 0
167 188 0
168 189 0
172 195 0
170 192 0
168 191 0
167 189 0
171 194 0
170 193 0
170 192 0
171 194 0
173 196 0
165 187 0
172 197 0
172 196 0
172 196 0
172 195 0
170 195 0
172 196 0
171 196 0
170 196 0
172 196 0
172 197 0
172 196 0
172 197 0
171 196 0
170 195 0
171 196 0
170 196 0
170 195 0
170 195 0
170 195 0
169 195 0
170 195 0
169 195 0
169 195 0
169 195 0
168 195 0
169 195 0
168 194 0
167 194 0
167 194 0
167 194 0
166 194 0
167 194 0
167 194 0
167 194 0
167 194 0
167 194 0
166 194 0
167 194 0
166 193 0
166 193 0
166 193 0
165 193 0
165 193 0
166 193 0
166 193 0
166 193 0
166 193 0
165 193 0
165 193 0
165 193 0
165 193 0
165 193 0
166 193 0
166 193 0
165 193 0
165 193 0
166 193 0
165 193 0
166 193 0
166 193 0
165 193 0
166 193 0
165 192 0
163 190 0
162 189 0
163 190 0
163 190 0
160 187 0
162 188 0
158 184 0
159 184 0
162 187 0
154 179 0
161 186 0
146 169 0
163 188 0
154 177 0
144 166 0
146 167 0
148 169 0
133 151 0
140 158 80
177 196 182
206 225 250
208 228 255
208 228 255
208 228 255
208 228 255
208 228 255
208 228 255
208 228 255
208 228 255
208 228 255
208 228 255
208 228 255
208 228 255
208 228 255
208 228 255
208 228 255
208 228 255
208 228 255
207 228 255
207 228 255
207 228 255
207 228 255
207 228 255
207 228 255
207 228 255
207 228 255
207 228 255
207 228 255
207 228 255
207 228 255
207 228 255
207 228 255
207 228 255
207 228 255
207 227 255
207 227 255
207 227 255
207 227 255
207 227 255
207 227 255
206 227 255
206 227 255
206 227 255
206 227 255
206 227 255
206 227 255
206 227 255
206 227 255
206 227 255
206 227 255
206 227 255
206 227 255
206 227 255
206 227 255
206 227 255
206 227 255
206 227 255
206 227 255
206 227 255
206 227 255
206 227 255
206 227 255
206 227 255
206 227 255
206 227 255
206 227 255
206 227 255
206 227 255
206 227 255
206 227 255
206 227 255
206 227 255
206 227 255
205 227 255
205 227 255
205 227 255
205 227 255
204 225 254
179 201 238
167 190 231
156 180 223
136 160 212
115 142 199
98 127 192
85 116 186
61 99 178
62 99 178
61 99 177
61 99 178
61 99 176
64 101 178
85 116 186
90 120 190
111 138 199
125 150 206
150 174 220
168 190 229
186 207 241
203 224 254
205 227 255
205 227 255
205 227 255
205 227 255
205 227 255
206 227 255
206 227 255
206 227 255
206 227 255
206 227 255
206 227 255
206 227 255
206 227 255
206 227 255
206 227 255
206 227 255
206 227 255
206 227 255
206 227 255
206 227 255
206 227 255
206 227 255
206 227 255
206 227 255
206 227 255
206 227 255
206 227 255
206 227 255
206 227 255
206 227 255
206 227 255
206 227 255
206 227 255
206 227 255
206 227 255
206 227 255
206 227 255
207 227 255
207 227 255
207 227 255
207 227 255
207 227 255
207 227 255
207 228 255
207 228 255
207 228 255
207 228 255
207 228 255
207 228 255
207 228 255
207 228 255
207 228 255
207 228 255
207 228 255
207 228 255
207 228 255
207 228 255
207 228 255
207 228 255
208 228 255
208 228 255
208 228 255
208 228 255
208 228 255
208 228 255
208 228 255
208 228 255
208 228 255
208 228 255
208 228 255
208 228 255
208 228 255
208 228 255
208 228 255
208 228 255
208 228 255
205 224 250
192 167 187
179 90 102
177 70 80
175 70 80
173 69 80
171 69 80
170 69 80
169 69 80
168 68 80
167 68 80
167 68 80
166 68 80
166 68 80
165 68 80
165 68 80
164 68 80
164 68 80
164 68 80
163 68 80
163 68 80
163 68 80
163 67 80
163 67 80
163 67 80
162 67 80
162 67 80
162 67 80
162 67 80
162 67 80
162 67 80
162 67 80
162 67 80
162 67 80
162 67 80
162 67 80
162 67 80
162 67 80
162 67 80
162 67 80
163 67 80
163 67 80
163 67 80
163 67 80
163 68 80
163 68 80
163 68 80
163 68 80
164 68 80
164 68 80
164 68 80
164 68 80
164 68 80
164 68 80
164 68 80
165 68 80
165 68 80
165 68 80
165 68 80
166 68 80
166 68 80
166 68 80
166 68 80
166 68 80
167 68 80
167 68 80
167 68 80
167 68 80
167 68 80
168 68 80
168 68 80
168 68 80
168 68 80
169 69 80
169 69 80
169 69 80
170 69 80
170 69 80
170 69 80
170 69 80
170 69 80
171 69 80
171 69 80
171 69 80
171 69 80
172 69 80
172 69 80
172 69 80
173 69 80
173 69 80
173 69 80
174 69 80
174 69 80
174 70 80
174 70 80
175 70 80
175 70 80
175 70 80
176 70 80
176 70 80
176 70 80
177 70 80
177 70 80
177 70 80
177 70 80
178 70 80
178 70 80
179 70 80
179 71 80
180 71 80
180 71 80
180 71 80
180 71 80
157 175 0
164 184 0
159 179 0
164 184 0
162 181 0
165 185 0
165 185 0
161 180 0
168 188 0
167 187 0
171 190 0
168 189 0
166 186 0
175 195 0
170 192 0
169 192 0
173 194 0
172 194 0
173 195 0
170 192 0
170 192 0
169 191 0
168 190 0
172 195 0
170 193 0
173 196 0
173 196 0
171 195 0
173 197 0
173 197 0
174 198 0
173 197 0
173 197 0
173 197 0
172 197 0
171 196 0
171 196 0
171 196 0
172 196 0
171 196 0
171 196 0
171 196 0
172 196 0
168 195 0
170 195 0
170 195 0
170 195 0
169 195 0
169 195 0
168 194 0
169 195 0
169 195 0
167 194 0
168 195 0
168 195 0
168 194 0
168 194 0
168 195 0
168 194 0
167 194 0
168 194 0
167 194 0
167 194 0
167 194 0
166 193 0
166 193 0
166 193 0
166 193 0
166 193 0
166 193 0
166 193 0
166 193 0
166 193 0
166 193 0
166 193 0
165 193 0
165 193 0
165 193 0
165 193 0
165 193 0
165 193 0
165 193 0
165 193 0
165 193 0
165 193 0
165 193 0
165 193 0
165 193 0
165 193 0
165 193 0
166 193 0
165 193 0
164 191 0
164 191 0
163 190 0
165 192 0
165 192 0
163 190 0
157 183 0
161 187 0
162 187 0
156 181 0
160 185 0
157 182 0
156 180 0
152 175 0
150 173 0
152 175 0
152 174 0
144 164 0
143 163 0
140 159 0
146 164 76
179 197 186
209 228 255
208 228 255
208 228 255
208 228 255
208 228 255
208 228 255
208 228 255
208 228 255
208 228 255
208 228 255
208 228 255
208 228 255
208 228 255
208 228 255
208 228 255
208 228 255
208 228 255
208 228 255
208 228 255
208 228 255
208 228 255
207 228 255
207 228 255
207 228 255
207 228 255
207 228 255
207 228 255
207 228 255
207 228 255
207 228 255
207 228 255
207 228 255
207 228 255
207 228 255
207 228 255
207 228 255
207 228 255
207 228 255
207 227 255
207 227 255
207 227 255
207 227 255
207 227 255
207 227 255
206 227 255
206 227 255
206 227 255
206 227 255
206 227 255
206 227 255
206 227 255
206 227 255
206 227 255
206 227 255
206 227 255
206 227 255
206 227 255
206 227 255
206 227 255
206 227 255
206 227 255
206 227 255
206 227 255
206 227 255
206 227 255
206 227 255
206 227 255
206 227 255
206 227 255
206 227 255
206 227 255
205 226 255
184 206 240
157 180 221
115 142 198
75 109 181
61 98 176
62 99 176
61 99 178
61 99 177
61 99 170
60 98 173
61 99 175
61 99 176
62 99 178
62 99 178
61 99 178
62 99 179
60 98 173
61 99 176
62 99 178
62 99 178
61 99 175
61 97 174
61 98 175
61 99 178
70 105 180
107 134 193
149 173 219
179 201 238
202 223 253
206 227 255
206 227 255
206 227 255
206 227 255
206 227 255
206 227 255
206 227 255
206 227 255
206 227 255
206 227 255
206 227 255
206 227 255
206 227 255
206 227 255
206 227 255
206 227 255
206 227 255
206 227 255
206 227 255
206 227 255
206 227 255
206 227 255
206 227 255
206 227 255
206 227 255
206 227 255
206 227 255
207 227 255
207 227 255
207 227 255
207 227 255
207 227 255
207 227 255
207 228 255
207 228 255
207 228 255
207 228 255
207 228 255
207 228 255
207 228 255
207 228 255
207 228 255
207 228 255
207 228 255
207 228 255
207 228 255
207 228 255
207 228 255
207 228 255
207 228 255
208 228 255
208 228 255
208 228 255
208 228 255
208 228 255
208 228 255
208 228 255
208 228 255
208 228 255
208 228 255
208 228 255
208 228 255
208 228 255
208 228 255
208 228 255
208 228 255
208 228 255
208 228 255
208 228 255
208 228 255
209 228 255
196 186 208
179 93 105
176 70 80
175 70 80
173 69 80
171 69 80
170 69 80
169 69 80
168 68 80
167 68 80
167 68 80
166 68 80
166 68 80
165 68 80
165 68 80
164 68 80
164 68 80
163 68 80
163 68 80
163 68 80
163 67 80
163 67 80
163 67 80
162 67 80
162 67 80
162 67 80
162 67 80
162 67 80
162 67 80
162 67 80
162 67 80
162 67 80
162 67 80
162 67 80
162 67 80
162 67 80
162 67 80
162 67 80
162 67 80
162 67 80
162 67 80
163 67 80
163 67 80
163 67 80
163 67 80
163 67 80
163 68 80
163 68 80
163 68 80
163 68 80
164 68 80
164 68 80
164 68 80
164 68 80
164 68 80
165 68 80
165 68 80
165 68 80
165 68 80
165 68 80
166 68 80
166 68 80
166 68 80
166 68 80
167 68 80
167 68 80
167 68 80
167 68 80
167 68 80
167 68 80
168 68 80
168 68 80
168 68 80
168 68 80
169 69 80
169 69 80
169 69 80
170 69 80
170 69 80
170 69 80
170 69 80
171 69 80
171 69 80
171 69 80
171 69 80
172 69 80
172 69 80
172 69 80
172 69 80
172 69 80
173 69 80
173 69 80
173 69 80
174 69 80
174 70 80
174 70 80
174 70 80
175 70 80
175 70 80
175 70 80
176 70 80
176 70 80
176 70 80
177 70 80
177 70 80
177 70 80
178 70 80
178 70 80
178 70 80
179 70 80
179 71 80
179 70 80
180 71 80
181 71 80
165 183 0
164 184 0
168 187 0
164 183 0
170 191 0
170 189 0
158 178 0
170 190 0
166 187 0
170 191 0
165 185 0
167 188 0
170 191 0
171 192 0
166 187 0
166 187 0
172 194 0
174 196 0
172 194 0
170 192 0
174 197 0
169 192 0
173 196 0
172 194 0
172 196 0
172 196 0
174 197 0
174 198 0
173 197 0
173 197 0
173 197 0
173 197 0
173 197 0
172 197 0
172 197 0
172 197 0
171 196 0
171 196 0
171 196 0
172 197 0
172 197 0
170 195 0
170 195 0
170 196 0
169 195 0
170 196 0
170 196 0
169 195 0
170 196 0
169 195 0
169 195 0
169 195 0
168 195 0
169 195 0
168 194 0
168 195 0
168 194 0
167 194 0
168 194 0
168 194 0
167 194 0
167 194 0
167 194 0
168 194 0
167 194 0
166 194 0
167 194 0
166 193 0
166 193 0
166 193 0
166 193 0
165 193 0
166 193 0
165 193 0
165 193 0
165 193 0
165 193 0
165 193 0
165 193 0
165 193 0
165 193 0
165 193 0
165 193 0
165 193 0
165 193 0
165 193 0
165 193 0
165 193 0
165 193 0
165 193 0
165 193 0
165 193 0
165 193 0
165 193 0
166 193 0
166 194 0
166 194 0
164 191 0
164 191 0
162 188 0
162 189 0
161 188 0
166 192 0
157 182 0
160 185 0
160 185 0
156 180 0
154 178 0
154 177 0
151 174 0
149 171 0
150 172 0
145 165 0
140 158 0
150 167 108
189 208 212
209 229 255
209 229 255
209 228 255
209 228 255
208 228 255
208 228 255
208 228 255
208 228 255
208 228 255
208 228 255
208 228 255
208 228 255
208 228 255
208 228 255
208 228 255
208 228 255
208 228 255
208 228 255
208 228 255
208 228 255
208 228 255
208 228 255
208 228 255
208 228 255
208 228 255
207 228 255
207 228 255
207 228 255
207 228 255
207 228 255
207 228 255
207 228 255
207 228 255
207 228 255
207 228 255
207 228 255
207 228 255
207 228 255
207 228 255
207 228 255
207 228 255
207 228 255
207 228 255
207 227 255
207 227 255
207 227 255
207 227 255
207 227 255
207 227 255
207 227 255
206 227 255
206 227 255
206 227 255
206 227 255
206 227 255
206 227 255
206 227 255
206 227 255
206 227 255
206 227 255
206 227 255
206 227 255
206 227 255
206 227 255
206 227 255
206 227 255
202 223 253
166 189 229
125 151 205
70 105 179
61 99 176
61 99 177
61 99 178
61 98 175
60 98 172
61 99 175
62 99 178
60 98 174
62 99 179
59 97 172
61 99 177
61 99 176
61 99 172
62 99 177
62 99 175
62 99 176
62 99 177
61 98 171
62 99 179
61 99 175
62 99 178
62 99 177
61 99 174
61 99 173
61 99 173
61 98 175
60 98 173
61 99 176
86 116 186
136 160 212
169 191 231
200 222 252
206 227 255
206 227 255
206 227 255
206 227 255
206 227 255
206 227 255
206 227 255
206 227 255
206 227 255
206 227 255
206 227 255
206 227 255
206 227 255
206 227 255
206 227 255
206 227 255
206 227 255
207 227 255
207 227 255
207 227 255
207 227 255
207 227 255
207 227 255
207 227 255
207 228 255
207 228 255
207 228 255
207 228 255
207 228 255
207 228 255
207 228 255
207 228 255
207 228 255
207 228 255
207 228 255
207 228 255
207 228 255
207 228 255
207 228 255
207 228 255
207 228 255
208 228 255
208 228 255
208 228 255
208 228 255
208 228 255
208 228 255
208 228 255
208 228 255
208 228 255
208 228 255
208 228 255
208 228 255
208 228 255
208 228 255
208 228 255
208 228 255
208 228 255
208 228 255
208 228 255
208 228 255
208 228 255
209 228 255
209 228 255
209 229 255
209 229 255
195 184 206
181 115 129
177 70 80
175 70 80
173 69 80
172 69 80
170 69 80
169 69 80
168 68 80
167 68 80
167 68 80
166 68 80
166 68 80
165 68 80
164 68 80
164 68 80
164 68 80
163 68 80
163 68 80
163 68 80
163 67 80
162 67 80
162 67 80
162 67 80
162 67 80
162 67 80
162 67 80
162 67 80
162 67 80
162 67 80
162 67 80
162 67 80
162 67 80
162 67 80
162 67 80
162 67 80
162 67 80
162 67 80
162 67 80
162 67 80
162 67 80
162 67 80
162 67 80
162 67 80
163 67 80
163 67 80
163 67 80
163 68 80
163 68 80
163 68 80
163 68 80
163 68 80
164 68 80
164 68 80
164 68 80
164 68 80
165 68 80
165 68 80
165 68 80
165 68 80
165 68 80
165 68 80
166 68 80
166 68 80
166 68 80
166 68 80
166 68 80
167 68 80
167 68 80
167 68 80
167 68 80
168 68 80
168 68 80
168 68 80
168 68 80
169 69 80
169 69 80
169 69 80
169 69 80
169 69 80
170 69 80
170 69 80
170 69 80
171 69 80
171 69 80
171 69 80
171 69 80
172 69 80
172 69 80
172 69 80
172 69 80
172 69 80
173 69 80
173 69 80
173 69 80
174 69 80
174 70 80
174 70 80
174 70 80
175 70 80
175 70 80
175 70 80
176 70 80
176 70 80
176 70 80
176 70 80
177 70 80
177 70 80
177 70 80
178 70 80
179 70 80
178 70 80
179 70 80
179 70 80
179 71 80
180 71 80
159 178 0
168 187 0
167 186 0
165 184 0
168 188 0
169 189 0
168 188 0
172 193 0
166 186 0
165 185 0
171 192 0
170 191 0
172 193 0
168 190 0
176 198 0
173 195 0
170 191 0
171 193 0
173 195 0
173 196 0
171 193 0
174 197 0
175 198 0
175 198 0
174 198 0
174 198 0
175 198 0
174 198 0
173 197 0
173 197 0
174 197 0
171 196 0
172 197 0
173 197 0
171 196 0
173 197 0
172 196 0
172 196 0
170 196 0
172 196 0
171 196 0
171 196 0
172 197 0
171 196 0
170 196 0
171 196 0
170 196 0
169 195 0
170 195 0
169 195 0
170 195 0
169 195 0
168 195 0
169 195 0
168 195 0
168 195 0
168 195 0
168 194 0
167 194 0
167 194 0
167 194 0
167 194 0
166 194 0
167 194 0
168 194 0
167 194 0
166 193 0
167 194 0
166 193 0
166 194 0
165 193 0
165 193 0
166 193 0
166 193 0
166 193 0
165 193 0
166 193 0
165 193 0
165 193 0
165 193 0
165 193 0
165 193 0
165 193 0
165 193 0
165 193 0
165 193 0
165 193 0
165 193 0
165 193 0
165 193 0
165 193 0
165 193 0
165 193 0
165 193 0
165 193 0
165 193 0
165 193 0
166 193 0
166 193 0
166 193 0
165 192 0
159 185 0
165 192 0
162 188 0
165 191 0
161 187 0
164 190 0
155 180 0
159 183 0
155 179 0
161 185 0
154 177 0
149 170 0
154 176 0
141 160 0
138 156 0
166 185 151
196 215 233
209 229 255
209 229 255
209 229 255
209 229 255
209 229 255
209 228 255
209 228 255
208 228 255
208 228 255
208 228 255
208 228 255
208 228 255
208 228 255
208 228 255
208 228 255
208 228 255
208 228 255
208 228 255
208 228 255
208 228 255
208 228 255
208 228 255
208 228 255
208 228 255
208 228 255
208 228 255
208 228 255
208 228 255
207 228 255
207 228 255
207 228 255
207 228 255
207 228 255
207 228 255
207 228 255
207 228 255
207 228 255
207 228 255
207 228 255
207 228 255
207 228 255
207 228 255
207 228 255
207 228 255
207 228 255
207 228 255
207 228 255
207 228 255
207 227 255
207 227 255
207 227 255
207 227 255
207 227 255
207 227 255
207 227 255
207 227 255
207 227 255
207 227 255
206 227 255
206 227 255
206 227 255
206 227 255
174 195 233
132 156 209
78 111 183
61 98 175
61 99 177
61 99 174
61 99 173
62 99 176
62 99 177
61 99 175
61 99 174
61 99 174
62 99 177
61 99 175
61 99 175
62 99 176
61 99 174
61 99 175
63 100 178
61 99 172
62 99 177
61 99 175
60 98 172
62 99 175
61 99 173
60 97 171
61 98 175
61 98 174
61 98 176
61 99 175
63 99 177
61 99 175
61 98 175
61 98 175
61 98 174
61 98 173
62 99 178
67 102 179
139 162 209
180 202 237
206 227 255
206 227 255
206 227 255
206 227 255
206 227 255
207 227 255
207 227 255
207 227 255
207 227 255
207 227 255
207 227 255
207 227 255
207 227 255
207 228 255
207 228 255
207 228 255
207 228 255
207 228 255
207 228 255
207 228 255
207 228 255
207 228 255
207 228 255
207 228 255
207 228 255
207 228 255
207 228 255
207 228 255
207 228 255
207 228 255
207 228 255
207 228 255
207 228 255
207 228 255
208 228 255
208 228 255
208 228 255
208 228 255
208 228 255
208 228 255
208 228 255
208 228 255
208 228 255
208 228 255
208 228 255
208 228 255
208 228 255
208 228 255
208 228 255
208 228 255
208 228 255
208 228 255
208 228 255
208 228 255
208 228 255
208 228 255
209 228 255
209 229 255
209 229 255
209 229 255
209 229 255
209 229 255
203 209 234
185 141 158
177 70 80
176 70 80
174 69 80
172 69 80
171 69 80
170 69 80
169 69 80
168 68 80
167 68 80
166 68 80
166 68 80
165 68 80
165 68 80
164 68 80
164 68 80
164 68 80
163 68 80
163 68 80
163 67 80
162 67 80
162 67 80
162 67 80
162 67 80
162 67 80
162 67 80
162 67 80
162 67 80
162 67 80
162 67 80
162 67 80
162 67 80
162 67 80
162 67 80
162 67 80
162 67 80
162 67 80
162 67 80
162 67 80
162 67 80
162 67 80
162 67 80
162 67 80
162 67 80
163 67 80
163 67 80
163 67 80
163 67 80
163 68 80
163 68 80
163 68 80
163 68 80
164 68 80
164 68 80
164 68 80
164 68 80
164 68 80
165 68 80
165 68 80
165 68 80
165 68 80
165 68 80
166 68 80
166 68 80
166 68 80
166 68 80
166 68 80
167 68 80
167 68 80
167 68 80
167 68 80
167 68 80
168 68 80
168 68 80
168 69 80
168 68 80
169 69 80
169 69 80
169 69 80
169 69 80
170 69 80
170 69 80
170 69 80
170 69 80
171 69 80
171 69 80
171 69 80
171 69 80
171 69 80
172 69 80
172 69 80
172 69 80
172 69 80
173 69 80
173 69 80
173 69 80
174 69 80
174 70 80
174 70 80
175 70 80
174 70 80
175 70 80
175 70 80
176 70 80
176 70 80
176 70 80
176 70 80
177 70 80
177 70 80
177 70 80
178 70 80
178 70 80
178 70 80
179 70 80
179 70 80
179 71 80
180 71 80
165 184 0
169 188 0
165 185 0
167 186 0
170 191 0
165 184 0
164 184 0
169 190 0
171 192 0
172 193 0
174 195 0
165 186 0
168 189 0
176 198 0
174 196 0
172 194 0
173 195 0
175 197 0
176 198 0
174 197 0
177 199 0
176 199 0
176 198 0
176 199 0
176 198 0
175 198 0
173 197 0
174 198 0
173 197 0
174 198 0
173 197 0
173 197 0
172 196 0
173 197 0
173 197 0
174 197 0
172 196 0
172 196 0
171 196 0
171 196 0
171 196 0
171 196 0
172 197 0
171 196 0
172 196 0
171 196 0
170 195 0
169 195 0
169 195 0
169 195 0
169 195 0
170 195 0
169 195 0
169 195 0
169 195 0
169 195 0
168 195 0
169 195 0
168 194 0
168 194 0
168 194 0
167 194 0
167 194 0
167 194 0
167 194 0
167 194 0
166 194 0
167 194 0
166 193 0
166 194 0
166 194 0
166 194 0
166 193 0
166 193 0
165 193 0
165 193 0
165 193 0
166 193 0
165 193 0
165 193 0
165 193 0
165 193 0
165 193 0
165 193 0
165 193 0
165 193 0
165 193 0
165 193 0
165 193 0
165 193 0
165 193 0
165 193 0
165 193 0
165 193 0
165 193 0
165 193 0
165 193 0
165 193 0
165 193 0
166 193 0
165 193 0
167 194 0
166 193 0
166 193 0
163 190 0
161 187 0
162 188 0
164 190 0
156 181 0
160 185 0
158 183 0
154 177 0
155 178 0
154 176 0
150 171 0
150 171 0
146 166 0
144 162 44
168 186 161
208 228 254
209 229 255
209 229 255
209 229 255
209 229 255
209 229 255
209 229 255
209 229 255
209 229 255
209 228 255
209 228 255
208 228 255
208 228 255
208 228 255
208 228 255
208 228 255
208 228 255
208 228 255
208 228 255
208 228 255
208 228 255
208 228 255
208 228 255
208 228 255
208 228 255
208 228 255
208 228 255
208 228 255
208 228 255
208 228 255
208 228 255
208 228 255
208 228 255
208 228 255
207 228 255
207 228 255
207 228 255
207 228 255
207 228 255
207 228 255
207 228 255
207 228 255
207 228 255
207 228 255
207 228 255
207 228 255
207 228 255
207 228 255
207 228 255
207 228 255
207 228 255
207 228 255
207 228 255
207 228 255
207 228 255
207 228 255
207 228 255
207 227 255
203 224 253
167 189 227
99 127 191
61 98 174
61 99 173
61 99 175
61 98 174
62 99 174
62 99 178
61 99 172
61 99 173
61 99 174
61 99 175
61 99 171
61 99 175
62 99 175
63 99 177
61 99 174
62 100 177
61 98 174
62 99 174
61 99 174
62 100 178
60 98 172
61 98 172
61 99 174
60 98 170
61 98 170
61 99 174
61 99 176
61 99 174
61 98 174
59 97 171
61 99 176
61 99 173
60 98 173
61 98 173
61 98 173
60 97 173
61 99 175
61 98 174
61 99 175
62 98 176
105 131 190
169 190 228
205 226 254
207 228 255
207 228 255
207 228 255
207 228 255
207 228 255
207 228 255
207 228 255
207 228 255
207 228 255
207 228 255
207 228 255
207 228 255
207 228 255
207 228 255
207 228 255
207 228 255
207 228 255
207 228 255
207 228 255
207 228 255
207 228 255
207 228 255
207 228 255
207 228 255
208 228 255
208 228 255
208 228 255
208 228 255
208 228 255
208 228 255
208 228 255
208 228 255
208 228 255
208 228 255
208 228 255
208 228 255
208 228 255
208 228 255
208 228 255
208 228 255
208 228 255
208 228 255
208 228 255
208 228 255
208 228 255
208 228 255
208 228 255
209 228 255
209 228 255
209 229 255
209 229 255
209 229 255
209 229 255
209 229 255
209 229 255
209 229 255
209 229 255
208 225 251
188 162 182
178 76 87
176 70 80
174 70 80
172 69 80
171 69 80
170 69 80
169 69 80
168 68 80
167 68 80
166 68 80
166 68 80
166 68 80
165 68 80
164 68 80
164 68 80
164 68 80
163 68 80
163 68 80
163 67 80
162 67 80
162 67 80
162 67 80
162 67 80
162 67 80
162 67 80
162 67 80
162 67 80
162 67 80
162 67 80
162 67 80
162 67 80
162 67 80
162 67 80
162 67 80
162 67 80
162 67 80
162 67 80
162 67 80
162 67 80
162 67 80
162 67 80
162 67 80
162 67 80
162 67 80
163 67 80
163 67 80
163 67 80
163 67 80
163 68 80
163 68 80
163 68 80
164 68 80
164 68 80
164 68 80
164 68 80
164 68 80
164 68 80
164 68 80
165 68 80
165 68 80
165 68 80
165 68 80
166 68 80
166 68 80
166 68 80
166 68 80
166 68 80
167 68 80
167 68 80
167 68 80
167 68 80
167 68 80
168 68 80
168 68 80
168 68 80
168 69 80
169 69 80
169 69 80
169 69 80
169 69 80
170 69 80
170 69 80
170 69 80
170 69 80
170 69 80
171 69 80
171 69 80
171 69 80
171 69 80
171 69 80
172 69 80
172 69 80
172 69 80
173 69 80
173 69 80
173 69 80
173 69 80
174 69 80
174 70 80
174 70 80
174 70 80
175 70 80
175 70 80
175 70 80
176 70 80
176 70 80
176 70 80
177 70 80
177 70 80
177 70 80
177 70 80
178 70 80
178 70 80
178 70 80
179 70 80
179 70 80
179 71 80
180 71 80
166 184 0
167 186 0
166 185 0
163 183 0
173 193 0
174 194 0
167 187 0
172 192 0
176 197 0
169 190 0
173 194 0
172 193 0
173 194 0
174 196 0
175 197 0
175 197 0
178 200 0
175 198 0
176 199 0
176 199 0
175 198 0
176 199 0
177 199 0
174 198 0
176 198 0
174 198 0
175 198 0
174 197 0
173 197 0
173 197 0
173 197 0
175 198 0
174 198 0
174 198 0
172 196 0
172 197 0
172 197 0
173 197 0
172 197 0
172 196 0
172 197 0
171 196 0
171 196 0
171 196 0
171 196 0
171 196 0
171 196 0
169 195 0
170 196 0
170 195 0
169 195 0
170 195 0
169 195 0
170 195 0
169 195 0
168 194 0
169 195 0
168 194 0
169 195 0
168 195 0
166 194 0
167 194 0
167 194 0
167 194 0
168 194 0
167 194 0
166 194 0
167 194 0
167 194 0
167 194 0
166 193 0
166 193 0
166 193 0
166 193 0
165 193 0
165 193 0
165 193 0
165 193 0
165 193 0
166 193 0
165 193 0
165 193 0
165 193 0
165 193 0
165 193 0
165 193 0
165 193 0
165 193 0
165 193 0
165 193 0
165 193 0
165 193 0
165 193 0
165 193 0
165 193 0
165 193 0
165 193 0
165 193 0
166 193 0
165 193 0
166 193 0
166 193 0
166 194 0
166 193 0
166 193 0
167 194 0
166 193 0
163 188 0
160 186 0
162 188 0
159 184 0
158 182 0
153 177 0
160 183 0
157 180 0
147 169 0
155 177 0
155 176 0
144 162 0
153 170 111
194 214 221
209 229 255
209 229 255
209 229 255
209 229 255
209 229 255
209 229 255
209 229 255
209 229 255
209 229 255
209 229 255
209 229 255
209 229 255
209 228 255
209 228 255
208 228 255
208 228 255
208 228 255
208 228 255
208 228 255
208 228 255
208 228 255
208 228 255
208 228 255
208 228 255
208 228 255
208 228 255
208 228 255
208 228 255
208 228 255
208 228 255
208 228 255
208 228 255
208 228 255
208 228 255
208 228 255
208 228 255
208 228 255
208 228 255
208 228 255
207 228 255
207 228 255
207 228 255
207 228 255
207 228 255
207 228 255
207 228 255
207 228 255
207 228 255
207 228 255
207 228 255
207 228 255
207 228 255
207 228 255
207 228 255
207 228 255
170 192 231
87 118 183
62 99 176
62 99 175
60 97 170
62 99 175
61 99 170
62 99 176
62 99 175
61 99 173
60 98 171
60 98 169
61 99 173
61 99 172
61 99 173
61 98 171
61 99 173
60 98 170
61 99 173
61 99 172
60 98 171
61 98 171
61 99 172
61 98 172
61 99 172
62 99 174
60 98 168
62 99 175
61 99 172
59 97 167
60 98 172
62 99 174
61 98 172
61 98 173
60 98 171
60 98 171
61 99 175
61 98 175
61 98 174
61 98 174
61 97 172
61 98 172
61 97 170
61 97 172
62 99 177
60 97 171
80 112 183
169 190 230
206 227 255
207 228 255
207 228 255
207 228 255
207 228 255
207 228 255
207 228 255
207 228 255
207 228 255
207 228 255
207 228 255
207 228 255
207 228 255
207 228 255
207 228 255
207 228 255
208 228 255
208 228 255
208 228 255
208 228 255
208 228 255
208 228 255
208 228 255
208 228 255
208 228 255
208 228 255
208 228 255
208 228 255
208 228 255
208 228 255
208 228 255
208 228 255
208 228 255
208 228 255
208 228 255
208 228 255
208 228 255
208 228 255
208 228 255
208 228 255
208 228 255
209 228 255
209 229 255
209 229 255
209 229 255
209 229 255
209 229 255
209 229 255
209 229 255
209 229 255
209 229 255
209 229 255
209 229 255
209 229 255
209 229 255
199 205 229
181 115 129
178 70 80
175 70 80
173 69 80
172 69 80
170 69 80
169 69 80
169 69 80
168 68 80
167 68 80
166 68 80
166 68 80
165 68 80
165 68 80
164 68 80
164 68 80
164 68 80
163 68 80
163 68 80
163 67 80
163 67 80
162 67 80
162 67 80
162 67 80
162 67 80
162 67 80
162 67 80
162 67 80
162 67 80
162 67 80
162 67 80
162 67 80
162 67 80
162 67 80
162 67 80
162 67 80
162 67 80
162 67 80
162 67 80
162 67 80
162 67 80
162 67 80
162 67 80
162 67 80
162 67 80
163 67 80
163 67 80
163 67 80
163 68 80
163 68 80
163 68 80
163 68 80
164 68 80
164 68 80
164 68 80
164 68 80
164 68 80
164 68 80
165 68 80
165 68 80
165 68 80
165 68 80
166 68 80
165 68 80
166 68 80
166 68 80
166 68 80
167 68 80
167 68 80
167 68 80
167 68 80
167 68 80
168 68 80
168 68 80
168 68 80
168 68 80
168 68 80
169 69 80
169 69 80
169 69 80
169 69 80
170 69 80
170 69 80
170 69 80
170 69 80
170 69 80
170 69 80
171 69 80
171 69 80
171 69 80
172 69 80
172 69 80
172 69 80
173 69 80
173 69 80
173 69 80
173 69 80
174 69 80
173 69 80
174 69 80
174 70 80
174 70 80
175 70 80
175 70 80
175 70 80
176 70 80
176 70 80
176 70 80
176 70 80
177 70 80
177 70 80
177 70 80
178 70 80
177 70 80
178 70 80
178 70 80
178 70 80
179 70 80
179 71 80
180 71 80
166 186 0
176 195 0
167 186 0
174 195 0
171 191 0
172 194 0
172 192 0
168 188 0
175 195 0
173 195 0
175 197 0
175 197 0
177 198 0
174 196 0
176 198 0
174 197 0
176 199 0
176 198 0
176 199 0
176 198 0
176 199 0
175 198 0
175 198 0
174 198 0
176 199 0
175 198 0
175 198 0
174 198 0
174 198 0
174 198 0
173 197 0
173 197 0
175 198 0
174 198 0
174 197 0
174 197 0
173 197 0
172 197 0
172 197 0
171 196 0
172 197 0
171 196 0
172 197 0
171 196 0
172 197 0
171 196 0
171 196 0
171 196 0
170 195 0
170 195 0
170 195 0
169 195 0
171 196 0
169 195 0
169 195 0
169 195 0
168 195 0
169 195 0
168 194 0
168 194 0
167 194 0
169 195 0
168 194 0
167 194 0
167 194 0
166 194 0
166 194 0
166 194 0
167 194 0
167 194 0
167 194 0
166 194 0
166 193 0
166 193 0
167 194 0
166 193 0
166 193 0
165 193 0
165 193 0
165 193 0
165 193 0
165 193 0
165 193 0
165 193 0
165 193 0
165 193 0
165 193 0
165 193 0
165 193 0
165 193 0
165 193 0
165 193 0
165 193 0
165 193 0
165 193 0
165 193 0
165 193 0
166 193 0
165 193 0
165 193 0
166 193 0
166 193 0
166 193 0
166 194 0
166 193 0
166 194 0
167 194 0
164 190 0
164 191 0
160 185 0
168 194 0
162 187 0
157 181 0
159 183 0
154 177 0
160 183 0
152 174 0
151 173 0
145 166 0
146 165 0
150 168 0
177 195 181
207 226 252
209 229 255
209 229 255
209 229 255
209 229 255
209 229 255
209 229 255
209 229 255
209 229 255
209 229 255
209 229 255
209 229 255
209 229 255
209 229 255
209 229 255
209 229 255
209 229 255
209 228 255
209 228 255
208 228 255
208 228 255
208 228 255
208 228 255
208 228 255
208 228 255
208 228 255
208 228 255
208 228 255
208 228 255
208 228 255
208 228 255
208 228 255
208 228 255
208 228 255
208 228 255
208 228 255
208 228 255
208 228 255
208 228 255
208 228 255
208 228 255
208 228 255
208 228 255
208 228 255
208 228 255
208 228 255
207 228 255
207 228 255
207 228 255
207 228 255
207 228 255
207 228 255
184 206 239
83 114 179
61 98 176
61 98 173
60 97 166
61 99 175
61 98 174
62 99 177
60 98 170
61 99 174
60 98 169
60 98 172
61 99 171
62 99 172
62 99 176
62 99 174
61 99 177
61 98 171
60 98 170
61 99 174
61 99 169
62 99 173
62 100 175
62 99 175
61 98 173
60 98 170
61 99 173
60 98 171
63 100 176
60 98 171
61 98 172
59 97 165
62 99 174
62 99 178
61 98 174
62 99 173
62 99 177
60 97 169
60 97 171
62 99 175
59 97 167
61 99 175
60 97 167
60 97 171
61 98 172
61 97 172
61 97 172
61 97 173
61 96 169
62 97 175
90 119 184
172 194 231
207 228 255
207 228 255
207 228 255
207 228 255
207 228 255
207 228 255
208 228 255
208 228 255
208 228 255
208 228 255
208 228 255
208 228 255
208 228 255
208 228 255
208 228 255
208 228 255
208 228 255
208 228 255
208 228 255
208 228 255
208 228 255
208 228 255
208 228 255
208 228 255
208 228 255
208 228 255
208 228 255
208 228 255
208 228 255
208 228 255
208 228 255
208 228 255
208 228 255
209 228 255
209 229 255
209 229 255
209 229 255
209 229 255
209 229 255
209 229 255
209 229 255
209 229 255
209 229 255
209 229 255
209 229 255
209 229 255
209 229 255
209 229 255
209 229 255
209 229 255
209 229 255
205 222 248
188 160 179
180 74 84
176 70 80
174 70 80
173 69 80
171 69 80
170 69 80
169 69 80
168 68 80
167 68 80
167 68 80
166 68 80
165 68 80
165 68 80
164 68 80
164 68 80
164 68 80
163 68 80
163 68 80
163 67 80
163 67 80
162 67 80
162 67 80
162 67 80
162 67 80
162 67 80
162 67 80
162 67 80
162 67 80
162 67 80
162 67 80
162 67 80
162 67 80
162 67 80
162 67 80
162 67 80
162 67 80
162 67 80
162 67 80
162 67 80
162 67 80
162 67 80
162 67 80
162 67 80
163 67 80
163 67 80
163 67 80
163 67 80
163 68 80
163 68 80
163 68 80
163 68 80
164 68 80
164 68 80
164 68 80
164 68 80
164 68 80
164 68 80
165 68 80
165 68 80
165 68 80
165 68 80
165 68 80
165 68 80
166 68 80
166 68 80
166 68 80
166 68 80
166 68 80
167 68 80
167 68 80
167 68 80
167 68 80
168 68 80
168 68 80
168 68 80
168 68 80
169 69 80
168 69 80
169 69 80
169 69 80
169 69 80
169 69 80
170 69 80
170 69 80
170 69 80
170 69 80
171 69 80
171 69 80
171 69 80
171 69 80
172 69 80
172 69 80
172 69 80
173 69 80
172 69 80
173 69 80
173 69 80
173 69 80
173 69 80
174 69 80
174 70 80
174 70 80
175 70 80
174 70 80
175 70 80
175 70 80
175 70 80
176 70 80
176 70 80
176 70 80
177 70 80
177 70 80
177 70 80
177 70 80
178 70 80
178 70 80
178 70 80
179 70 80
179 70 80
179 70 80
180 71 80
167 185 0
171 191 0
174 194 0
177 197 0
173 193 0
170 190 0
176 197 0
175 196 0
176 197 0
177 198 0
174 194 0
175 197 0
178 200 0
176 198 0
178 200 0
178 200 0
178 200 0
177 199 0
177 199 0
176 199 0
176 199 0
175 198 0
175 198 0
177 199 0
173 197 0
175 198 0
174 198 0
175 198 0
174 198 0
173 197 0
174 197 0
173 197 0
174 198 0
174 197 0
174 197 0
172 196 0
173 197 0
173 197 0
172 197 0
172 197 0
172 197 0
172 197 0
172 197 0
171 196 0
171 196 0
170 196 0
171 196 0
170 196 0
171 196 0
170 195 0
169 195 0
170 195 0
171 196 0
169 195 0
170 196 0
169 195 0
169 195 0
170 195 0
169 195 0
168 195 0
168 194 0
168 194 0
168 195 0
168 195 0
168 194 0
167 194 0
167 194 0
167 194 0
167 194 0
167 194 0
167 194 0
167 194 0
167 194 0
166 193 0
166 193 0
166 193 0
166 193 0
166 193 0
166 193 0
165 193 0
165 193 0
166 193 0
166 193 0
165 193 0
165 193 0
165 193 0
165 193 0
165 193 0
165 193 0
165 193 0
165 193 0
165 193 0
165 193 0
165 193 0
165 193 0
165 193 0
165 193 0
165 193 0
165 193 0
165 193 0
165 193 0
166 193 0
166 193 0
165 193 0
166 194 0
167 194 0
167 194 0
167 194 0
168 194 0
168 194 0
165 191 0
166 191 0
165 191 0
159 183 0
162 187 0
163 186 0
157 180 0
157 179 0
153 175 0
145 165 0
149 169 0
135 153 0
147 164 88
198 217 230
209 229 255
209 229 255
209 229 255
209 229 255
209 229 255
209 229 255
209 229 255
209 229 255
209 229 255
209 229 255
209 229 255
209 229 255
209 229 255
209 229 255
209 229 255
209 229 255
209 229 255
209 229 255
209 229 255
209 229 255
209 229 255
209 229 255
209 228 255
208 228 255
208 228 255
208 228 255
208 228 255
208 228 255
208 228 255
208 228 255
208 228 255
208 228 255
208 228 255
208 228 255
208 228 255
208 228 255
208 228 255
208 228 255
208 228 255
208 228 255
208 228 255
208 228 255
208 228 255
208 228 255
208 228 255
208 228 255
208 228 255
208 228 255
190 211 241
116 142 194
61 98 172
60 97 173
61 98 169
60 98 167
61 98 173
60 98 170
61 99 173
62 99 171
62 99 172
61 99 171
60 98 166
60 98 170
62 100 178
60 98 172
60 98 171
60 98 172
62 99 175
61 99 171
61 99 171
61 99 171
61 99 174
61 99 171
61 99 169
61 99 170
61 99 172
61 99 173
60 98 171
61 99 170
61 99 172
61 99 172
61 99 172
61 99 170
61 99 174
61 98 174
61 99 174
60 98 168
60 98 170
61 98 172
61 99 172
62 98 175
62 98 173
61 98 174
61 99 174
61 98 174
60 97 170
60 97 168
61 96 172
61 97 171
61 97 172
61 96 170
61 96 171
60 96 169
123 147 201
193 214 245
208 228 255
208 228 255
208 228 255
208 228 255
208 228 255
208 228 255
208 228 255
208 228 255
208 228 255
208 228 255
208 228 255
208 228 255
208 228 255
208 228 255
208 228 255
208 228 255
208 228 255
208 228 255
208 228 255
208 228 255
208 228 255
208 228 255
208 228 255
208 228 255
208 228 255
209 228 255
209 229 255
209 229 255
209 229 255
209 229 255
209 229 255
209 229 255
209 229 255
209 229 255
209 229 255
209 229 255
209 229 255
209 229 255
209 229 255
209 229 255
209 229 255
209 229 255
209 229 255
209 229 255
209 229 255
209 229 255
209 229 255
209 229 255
200 207 231
180 107 120
179 70 80
176 70 80
174 70 80
172 69 80
171 69 80
170 69 80
169 69 80
168 68 80
167 68 80
167 68 80
166 68 80
165 68 80
165 68 80
164 68 80
164 68 80
164 68 80
164 68 80
163 68 80
163 67 80
163 67 80
163 67 80
162 67 80
162 67 80
162 67 80
162 67 80
162 67 80
162 67 80
162 67 80
162 67 80
162 67 80
162 67 80
162 67 80
162 67 80
162 67 80
162 67 80
162 67 80
162 67 80
162 67 80
162 67 80
162 67 80
162 67 80
162 67 80
162 67 80
163 67 80
163 67 80
163 67 80
163 68 80
163 68 80
163 68 80
163 68 80
164 68 80
164 68 80
164 68 80
164 68 80
164 68 80
164 68 80
165 68 80
165 68 80
165 68 80
165 68 80
165 68 80
165 68 80
166 68 80
166 68 80
166 68 80
166 68 80
166 68 80
166 68 80
167 68 80
167 68 80
167 68 80
167 68 80
168 68 80
168 68 80
168 68 80
168 68 80
169 69 80
168 69 80
169 69 80
169 69 80
169 69 80
169 69 80
170 69 80
170 69 80
171 69 80
170 69 80
171 69 80
171 69 80
171 69 80
171 69 80
171 69 80
172 69 80
172 69 80
173 69 80
173 69 80
172 69 80
173 69 80
173 69 80
173 69 80
174 70 80
174 69 80
174 70 80
174 70 80
174 70 80
175 70 80
175 70 80
175 70 80
176 70 80
176 70 80
176 70 80
176 70 80
177 70 80
177 70 80
177 70 80
178 70 80
178 70 80
178 70 80
178 70 80
179 70 80
179 71 80
179 70 80
180 71 80
171 190 0
176 197 0
176 196 0
175 195 0
172 192 0
172 192 0
176 197 0
175 196 0
172 193 0
175 197 0
178 199 0
179 199 0
176 198 0
178 200 0
177 199 0
178 200 0
177 199 0
177 199 0
175 198 0
179 200 0
177 199 0
176 198 0
176 199 0
175 198 0
177 199 0
174 197 0
175 198 0
175 198 0
175 198 0
174 198 0
176 198 0
173 197 0
173 197 0
174 197 0
172 196 0
173 197 0
173 197 0
173 197 0
172 196 0
172 197 0
174 197 0
172 197 0
173 197 0
171 196 0
172 196 0
171 196 0
171 196 0
170 196 0
171 196 0
170 196 0
170 196 0
170 195 0
169 195 0
170 195 0
169 195 0
169 195 0
169 195 0
169 195 0
169 195 0
168 195 0
168 194 0
169 195 0
168 194 0
168 195 0
168 194 0
168 195 0
167 194 0
167 194 0
168 194 0
167 194 0
167 194 0
166 194 0
167 194 0
167 194 0
167 194 0
166 193 0
166 193 0
166 194 0
166 193 0
166 193 0
166 193 0
166 193 0
165 193 0
166 193 0
165 193 0
165 193 0
165 193 0
166 193 0
166 193 0
165 193 0
165 193 0
165 193 0
165 193 0
165 193 0
165 193 0
165 193 0
165 193 0
166 193 0
165 193 0
165 193 0
165 193 0
166 193 0
165 193 0
166 193 0
166 194 0
166 193 0
167 194 0
167 194 0
167 194 0
167 194 0
168 195 0
169 195 0
166 192 0
167 192 0
163 189 0
160 185 0
163 188 0
163 187 0
159 182 0
155 177 0
159 181 0
154 175 0
145 164 0
144 162 62
190 208 211
210 229 255
210 229 255
210 229 255
210 229 255
210 229 255
209 229 255
209 229 255
209 229 255
209 229 255
209 229 255
209 229 255
209 229 255
209 229 255
209 229 255
209 229 255
209 229 255
209 229 255
209 229 255
209 229 255
209 229 255
209 229 255
209 229 255
209 229 255
209 229 255
209 229 255
209 229 255
209 229 255
209 229 255
209 228 255
208 228 255
208 228 255
208 228 255
208 228 255
208 228 255
208 228 255
208 228 255
208 228 255
208 228 255
208 228 255
208 228 255
208 228 255
208 228 255
208 228 255
208 228 255
208 228 255
205 225 254
147 170 214
77 110 174
61 98 171
62 99 174
62 99 172
61 98 173
61 99 172
61 99 174
60 98 169
61 98 167
60 98 169
61 99 171
62 99 173
60 98 170
60 98 165
61 98 172
60 98 168
60 98 171
61 99 169
61 99 171
61 99 171
60 98 168
61 99 174
59 97 166
61 98 170
62 99 173
61 98 171
61 99 172
62 100 172
60 98 169
61 99 172
59 98 169
62 99 175
60 98 171
60 98 168
61 99 169
60 98 168
61 99 174
60 98 168
61 98 172
61 97 170
60 98 169
60 97 168
61 99 173
60 98 168
62 98 174
60 98 169
59 98 169
60 96 167
62 98 175
59 95 164
62 98 172
60 97 169
61 97 173
60 96 166
61 96 171
70 103 174
145 168 212
207 227 255
208 228 255
208 228 255
208 228 255
208 228 255
208 228 255
208 228 255
208 228 255
208 228 255
208 228 255
208 228 255
208 228 255
208 228 255
208 228 255
208 228 255
208 228 255
208 228 255
209 228 255
209 228 255
209 229 255
209 229 255
209 229 255
209 229 255
209 229 255
209 229 255
209 229 255
209 229 255
209 229 255
209 229 255
209 229 255
209 229 255
209 229 255
209 229 255
209 229 255
209 229 255
209 229 255
209 229 255
209 229 255
209 229 255
209 229 255
209 229 255
210 229 255
210 229 255
210 229 255
210 229 255
209 228 254
198 187 208
178 90 101
177 70 80
175 70 80
173 69 80
172 69 80
171 69 80
170 69 80
169 69 80
168 68 80
167 68 80
166 68 80
166 68 80
166 68 80
165 68 80
165 68 80
164 68 80
164 68 80
164 68 80
164 68 80
163 68 80
163 68 80
163 67 80
163 67 80
162 67 80
162 67 80
162 67 80
162 67 80
162 67 80
162 67 80
162 67 80
162 67 80
162 67 80
162 67 80
162 67 80
162 67 80
162 67 80
162 67 80
162 67 80
162 67 80
162 67 80
162 67 80
162 67 80
163 67 80
163 67 80
163 67 80
163 67 80
163 68 80
163 68 80
163 68 80
163 68 80
164 68 80
164 68 80
164 68 80
164 68 80
164 68 80
164 68 80
165 68 80
165 68 80
165 68 80
165 68 80
165 68 80
166 68 80
166 68 80
166 68 80
166 68 80
166 68 80
166 68 80
167 68 80
167 68 80
167 68 80
167 68 80
167 68 80
167 68 80
168 68 80
168 68 80
168 68 80
168 68 80
169 69 80
169 69 80
169 69 80
169 69 80
169 69 80
169 69 80
170 69 80
170 69 80
170 69 80
171 69 80
171 69 80
171 69 80
171 69 80
172 69 80
172 69 80
172 69 80
172 69 80
172 69 80
172 69 80
173 69 80
173 69 80
173 69 80
174 69 80
174 70 80
174 70 80
174 70 80
174 70 80
175 70 80
175 70 80
175 70 80
175 70 80
176 70 80
176 70 80
176 70 80
177 70 80
176 70 80
177 70 80
177 70 80
177 70 80
178 70 80
178 70 80
178 70 80
179 70 80
179 70 80
179 70 80
179 71 80
180 71 80
177 196 0
177 197 0
174 194 0
174 193 0
174 195 0
177 198 0
179 200 0
179 200 0
178 199 0
177 198 0
178 200 0
178 200 0
177 199 0
179 200 0
178 200 0
179 200 0
176 199 0
176 199 0
178 200 0
177 199 0
177 199 0
176 199 0
176 199 0
175 198 0
176 199 0
176 199 0
175 198 0
176 199 0
174 198 0
174 198 0
174 198 0
175 198 0
174 198 0
174 198 0
174 197 0
175 198 0
173 197 0
174 197 0
174 197 0
173 197 0
172 197 0
173 197 0
172 197 0
173 197 0
172 197 0
170 196 0
172 196 0
171 196 0
171 196 0
172 196 0
171 196 0
170 196 0
171 196 0
170 196 0
171 196 0
170 195 0
169 195 0
169 195 0
169 195 0
169 195 0
169 195 0
169 195 0
168 195 0
169 195 0
168 194 0
168 194 0
168 195 0
168 195 0
168 194 0
168 194 0
167 194 0
167 194 0
167 194 0
167 194 0
167 194 0
167 194 0
166 194 0
166 194 0
166 194 0
166 194 0
167 194 0
166 193 0
166 193 0
166 194 0
166 193 0
165 193 0
165 193 0
165 193 0
165 193 0
165 193 0
165 193 0
165 193 0
165 193 0
166 193 0
165 193 0
166 193 0
165 193 0
165 193 0
166 193 0
166 193 0
166 193 0
166 193 0
165 193 0
166 194 0
166 193 0
167 194 0
167 194 0
166 194 0
167 194 0
167 194 0
167 194 0
168 194 0
168 195 0
167 192 0
166 191 0
165 191 0
163 188 0
159 182 0
156 179 0
160 184 0
158 181 0
160 182 0
149 169 0
148 167 0
142 160 0
165 183 149
208 227 249
210 229 255
210 229 255
210 229 255
210 229 255
210 229 255
210 229 255
210 229 255
210 229 255
210 229 255
209 229 255
209 229 255
209 229 255
209 229 255
209 229 255
209 229 255
209 229 255
209 229 255
209 229 255
209 229 255
209 229 255
209 229 255
209 229 255
209 229 255
209 229 255
209 229 255
209 229 255
209 229 255
209 229 255
209 229 255
209 229 255
209 229 255
209 229 255
209 229 255
209 228 255
209 228 255
208 228 255
208 228 255
208 228 255
208 228 255
208 228 255
208 228 255
208 228 255
196 216 247
113 139 191
61 98 171
61 98 171
60 98 169
62 99 169
61 99 170
61 99 173
61 98 169
62 99 170
60 98 167
59 97 162
61 99 172
62 99 174
61 98 167
61 98 171
59 97 165
61 98 171
59 97 164
61 98 170
61 99 169
61 99 172
62 99 174
60 98 171
60 99 166
60 98 172
60 98 168
61 99 173
61 99 173
60 98 169
60 98 169
60 97 166
61 97 170
60 99 170
60 97 172
61 98 170
60 98 167
60 98 170
59 97 167
58 97 165
61 99 172
61 99 171
59 95 164
60 97 167
61 98 171
59 97 165
61 98 171
61 98 168
58 97 160
60 95 167
59 96 163
60 97 168
61 96 169
61 97 171
61 99 172
59 97 165
61 98 172
61 97 168
60 96 168
61 97 170
118 142 194
190 211 243
208 228 255
208 228 255
208 228 255
208 228 255
208 228 255
208 228 255
208 228 255
209 228 255
209 228 255
209 229 255
209 229 255
209 229 255
209 229 255
209 229 255
209 229 255
209 229 255
209 229 255
209 229 255
209 229 255
209 229 255
209 229 255
209 229 255
209 229 255
209 229 255
209 229 255
209 229 255
209 229 255
209 229 255
209 229 255
209 229 255
209 229 255
209 229 255
209 229 255
210 229 255
210 229 255
210 229 255
210 229 255
210 229 255
210 229 255
210 229 255
210 229 255
210 229 255
206 223 248
185 155 173
179 71 80
177 70 80
175 70 80
173 69 80
171 69 80
170 69 80
169 69 80
169 69 80
168 68 80
167 68 80
167 68 80
166 68 80
165 68 80
165 68 80
165 68 80
164 68 80
164 68 80
164 68 80
164 68 80
163 68 80
163 68 80
163 68 80
163 68 80
163 67 80
162 67 80
162 67 80
162 67 80
162 67 80
162 67 80
162 67 80
162 67 80
162 67 80
162 67 80
162 67 80
162 67 80
162 67 80
162 67 80
163 67 80
162 67 80
163 67 80
163 67 80
163 67 80
163 67 80
163 68 80
163 68 80
163 68 80
163 68 80
163 68 80
164 68 80
164 68 80
164 68 80
164 68 80
164 68 80
164 68 80
165 68 80
165 68 80
165 68 80
165 68 80
165 68 80
165 68 80
165 68 80
166 68 80
166 68 80
166 68 80
166 68 80
166 68 80
167 68 80
167 68 80
167 68 80
167 68 80
167 68 80
168 68 80
168 68 80
168 68 80
168 68 80
168 68 80
169 69 80
169 69 80
169 69 80
169 69 80
169 69 80
170 69 80
170 69 80
170 69 80
170 69 80
170 69 80
171 69 80
171 69 80
171 69 80
171 69 80
171 69 80
172 69 80
172 69 80
172 69 80
173 69 80
173 69 80
173 69 80
173 69 80
173 69 80
173 69 80
174 70 80
174 70 80
174 70 80
175 70 80
175 70 80
175 70 80
175 70 80
175 70 80
176 70 80
176 70 80
176 70 80
176 70 80
177 70 80
177 70 80
177 70 80
177 70 80
177 70 80
178 70 80
178 70 80
178 70 80
178 70 80
179 70 80
179 71 80
179 71 80
180 71 80
171 189 0
171 189 0
177 198 0
179 199 0
179 199 0
176 196 0
177 198 0
180 201 0
179 200 0
179 200 0
178 200 0
179 200 0
177 199 0
178 200 0
177 199 0
178 200 0
177 199 0
177 199 0
177 199 0
180 201 0
177 199 0
177 199 0
176 198 0
175 198 0
176 198 0
176 198 0
176 199 0
175 198 0
175 198 0
176 199 0
175 198 0
175 198 0
175 198 0
175 198 0
174 198 0
175 198 0
174 198 0
174 198 0
174 198 0
173 197 0
173 197 0
173 197 0
173 197 0
172 197 0
172 197 0
173 197 0
170 196 0
172 197 0
171 196 0
172 196 0
171 196 0
170 196 0
170 196 0
170 196 0
170 195 0
170 196 0
169 195 0
170 195 0
169 195 0
170 195 0
169 195 0
169 195 0
170 195 0
170 195 0
169 195 0
168 195 0
167 194 0
169 195 0
169 195 0
168 194 0
167 194 0
167 194 0
168 194 0
168 194 0
168 194 0
167 194 0
166 194 0
167 194 0
167 194 0
167 194 0
166 194 0
167 194 0
166 193 0
167 194 0
166 194 0
166 194 0
166 193 0
166 193 0
166 193 0
166 194 0
166 193 0
165 193 0
166 193 0
166 193 0
165 193 0
165 193 0
165 193 0
165 193 0
166 194 0
166 193 0
166 194 0
166 193 0
166 193 0
166 194 0
166 193 0
166 193 0
167 194 0
167 194 0
167 194 0
167 194 0
168 194 0
168 195 0
168 194 0
169 195 0
169 195 0
168 193 0
168 193 0
163 188 0
165 190 0
163 186 0
164 187 0
161 183 0
164 186 0
155 177 0
148 168 0
139 156 0
155 171 117
202 221 237
210 229 255
210 229 255
210 229 255
210 229 255
210 229 255
210 229 255
210 229 255
210 229 255
210 229 255
210 229 255
210 229 255
210 229 255
210 229 255
210 229 255
209 229 255
209 229 255
209 229 255
209 229 255
209 229 255
209 229 255
209 229 255
209 229 255
209 229 255
209 229 255
209 229 255
209 229 255
209 229 255
209 229 255
209 229 255
209 229 255
209 229 255
209 229 255
209 229 255
209 229 255
209 229 255
209 229 255
209 229 255
209 229 255
209 229 255
209 229 255
183 204 236
75 108 173
59 97 160
61 98 166
61 98 168
60 98 165
59 97 167
61 99 174
61 98 172
60 98 169
61 99 170
61 99 170
61 98 169
61 98 170
61 98 169
62 99 174
60 98 168
60 98 168
59 98 166
61 99 169
63 100 172
61 99 174
61 99 169
59 97 167
59 97 165
58 97 163
61 99 173
62 99 174
61 99 172
60 98 167
59 97 165
61 98 169
60 98 166
62 99 172
59 97 166
61 99 172
59 97 164
61 98 170
61 99 172
60 98 169
57 96 162
60 98 172
61 99 172
60 97 165
60 97 171
61 98 169
61 98 172
60 97 171
61 98 171
60 97 167
59 95 165
61 98 171
61 97 173
60 96 165
60 96 169
59 95 163
62 97 172
61 97 174
61 96 169
61 95 170
59 94 164
61 95 170
78 108 176
184 204 237
209 229 255
209 229 255
209 229 255
209 229 255
209 229 255
209 229 255
209 229 255
209 229 255
209 229 255
209 229 255
209 229 255
209 229 255
209 229 255
209 229 255
209 229 255
209 229 255
209 229 255
209 229 255
209 229 255
209 229 255
209 229 255
209 229 255
209 229 255
209 229 255
209 229 255
209 229 255
210 229 255
210 229 255
210 229 255
210 229 255
210 229 255
210 229 255
210 229 255
210 229 255
210 229 255
210 229 255
210 229 255
210 229 255
210 229 255
210 229 255
205 216 241
185 122 136
179 70 80
177 70 80
174 70 80
173 69 80
172 69 80
170 69 80
170 69 80
169 69 80
168 68 80
167 68 80
167 68 80
166 68 80
166 68 80
165 68 80
165 68 80
164 68 80
164 68 80
164 68 80
164 68 80
164 68 80
163 68 80
163 68 80
163 68 80
163 68 80
163 68 80
163 67 80
163 67 80
163 67 80
163 67 80
163 67 80
163 67 80
163 67 80
163 67 80
163 67 80
163 67 80
163 67 80
163 67 80
163 67 80
163 67 80
163 68 80
163 68 80
163 68 80
163 68 80
163 68 80
163 68 80
164 68 80
164 68 80
164 68 80
164 68 80
164 68 80
164 68 80
164 68 80
164 68 80
165 68 80
165 68 80
165 68 80
165 68 80
165 68 80
165 68 80
165 68 80
166 68 80
166 68 80
166 68 80
166 68 80
167 68 80
167 68 80
167 68 80
167 68 80
167 68 80
167 68 80
168 68 80
168 68 80
168 68 80
168 68 80
168 68 80
168 69 80
169 69 80
169 69 80
169 69 80
169 69 80
169 69 80
170 69 80
170 69 80
170 69 80
170 69 80
171 69 80
171 69 80
171 69 80
171 69 80
171 69 80
172 69 80
172 69 80
172 69 80
172 69 80
173 69 80
173 69 80
173 69 80
173 69 80
173 69 80
174 70 80
174 69 80
174 70 80
174 70 80
175 70 80
175 70 80
175 70 80
175 70 80
175 70 80
176 70 80
176 70 80
176 70 80
176 70 80
177 70 80
177 70 80
177 70 80
177 70 80
178 70 80
178 70 80
178 70 80
178 70 80
179 70 80
178 70 80
179 70 80
179 71 80
179 71 80
180 71 80
176 195 0
172 191 0
178 198 0
180 199 0
180 199 0
179 200 0
180 201 0
180 201 0
181 201 0
180 201 0
179 200 0
180 201 0
177 199 0
177 199 0
179 200 0
179 200 0
177 199 0
178 200 0
177 199 0
177 199 0
177 199 0
176 199 0
178 200 0
177 199 0
176 199 0
177 199 0
176 199 0
176 199 0
176 199 0
176 199 0
175 198 0
175 198 0
176 198 0
175 198 0
176 199 0
173 197 0
174 198 0
173 197 0
174 197 0
173 197 0
174 197 0
173 197 0
173 197 0
174 198 0
174 198 0
172 196 0
173 197 0
173 197 0
173 197 0
171 196 0
171 196 0
172 197 0
170 196 0
171 196 0
170 195 0
170 196 0
170 196 0
171 196 0
170 196 0
170 195 0
170 195 0
171 196 0
170 195 0
170 195 0
169 195 0
169 195 0
169 195 0
168 194 0
169 195 0
168 194 0
168 195 0
168 195 0
168 194 0
168 195 0
167 194 0
167 194 0
167 194 0
168 195 0
166 194 0
167 194 0
167 194 0
166 193 0
167 194 0
167 194 0
166 193 0
166 194 0
166 194 0
166 194 0
166 194 0
166 194 0
166 193 0
166 194 0
166 193 0
165 193 0
166 194 0
166 193 0
166 193 0
166 193 0
166 193 0
166 194 0
166 193 0
166 194 0
166 193 0
167 194 0
166 193 0
166 194 0
167 194 0
166 193 0
167 194 0
167 194 0
167 194 0
167 194 0
168 194 0
168 194 0
168 194 0
169 195 0
168 194 0
168 193 0
168 193 0
166 190 0
164 189 0
162 185 0
165 187 0
157 178 0
163 185 0
157 178 0
156 175 0
160 179 72
197 215 228
210 229 255
210 229 255
210 229 255
210 229 255
210 229 255
210 229 255
210 229 255
210 229 255
210 229 255
210 229 255
210 229 255
210 229 255
210 229 255
210 229 255
210 229 255
210 229 255
210 229 255
210 229 255
210 229 255
210 229 255
209 229 255
209 229 255
209 229 255
209 229 255
209 229 255
209 229 255
209 229 255
209 229 255
209 229 255
209 229 255
209 229 255
209 229 255
209 229 255
209 229 255
209 229 255
209 229 255
209 229 255
207 227 254
152 175 216
59 97 162
60 97 168
61 98 167
59 96 161
61 99 168
59 97 162
61 98 166
59 97 165
59 97 163
60 98 163
61 99 169
60 98 171
60 98 167
61 99 171
61 99 173
62 99 173
61 99 172
60 98 167
60 98 171
61 98 172
61 99 170
61 98 170
62 99 175
60 98 170
59 97 164
60 98 170
60 99 170
60 98 169
61 99 172
60 98 169
59 98 165
61 99 171
59 98 164
61 99 172
59 97 167
60 98 165
59 98 168
60 98 168
61 99 173
59 98 167
61 99 172
62 99 172
59 97 162
62 98 170
59 96 164
61 98 170
60 98 167
60 97 167
61 99 172
60 98 167
59 96 164
60 97 166
61 99 173
60 98 169
59 96 164
61 97 170
59 95 164
61 97 170
61 96 169
59 95 162
62 95 172
61 98 175
61 95 166
64 98 171
153 175 216
209 229 255
209 229 255
209 229 255
209 229 255
209 229 255
209 229 255
209 229 255
209 229 255
209 229 255
209 229 255
209 229 255
209 229 255
209 229 255
209 229 255
209 229 255
209 229 255
209 229 255
209 229 255
210 229 255
210 229 255
210 229 255
210 229 255
210 229 255
210 229 255
210 229 255
210 229 255
210 229 255
210 229 255
210 229 255
210 229 255
210 229 255
210 229 255
210 229 255
210 229 255
210 229 255
210 229 255
210 229 255
210 229 255
203 206 230
183 91 103
179 70 80
176 70 80
174 70 80
173 69 80
172 69 80
170 69 80
170 69 80
169 69 80
168 68 80
167 68 80
167 68 80
166 68 80
166 68 80
165 68 80
165 68 80
165 68 80
165 68 80
164 68 80
164 68 80
164 68 80
164 68 80
163 68 80
163 68 80
163 68 80
163 68 80
163 68 80
163 68 80
163 68 80
163 68 80
163 68 80
163 67 80
163 68 80
163 67 80
163 68 80
163 67 80
163 68 80
163 68 80
163 68 80
163 68 80
163 68 80
163 68 80
164 68 80
164 68 80
164 68 80
164 68 80
164 68 80
164 68 80
164 68 80
164 68 80
164 68 80
164 68 80
165 68 80
165 68 80
165 68 80
165 68 80
165 68 80
165 68 80
165 68 80
166 68 80
166 68 80
166 68 80
166 68 80
166 68 80
167 68 80
167 68 80
167 68 80
167 68 80
167 68 80
168 68 80
168 68 80
168 68 80
168 68 80
168 68 80
168 68 80
169 69 80
169 69 80
169 69 80
169 69 80
169 69 80
170 69 80
170 69 80
170 69 80
170 69 80
170 69 80
170 69 80
171 69 80
171 69 80
171 69 80
172 69 80
172 69 80
172 69 80
172 69 80
172 69 80
173 69 80
173 69 80
173 69 80
173 69 80
173 69 80
174 69 80
174 69 80
174 70 80
174 70 80
174 70 80
175 70 80
175 70 80
175 70 80
175 70 80
176 70 80
176 70 80
176 70 80
176 70 80
176 70 80
177 70 80
177 70 80
177 70 80
177 70 80
177 70 80
178 70 80
178 70 80
178 70 80
179 70 80
179 70 80
179 70 80
180 71 80
179 71 80
180 71 80
180 71 80
180 199 0
178 197 0
178 197 0
180 200 0
180 201 0
181 202 0
180 201 0
180 201 0
180 201 0
179 200 0
180 201 0
180 201 0
180 201 0
179 200 0
178 200 0
178 200 0
179 200 0
177 199 0
179 200 0
178 200 0
177 199 0
178 199 0
177 199 0
177 199 0
176 198 0
177 199 0
176 199 0
176 199 0
177 199 0
175 198 0
176 198 0
175 198 0
175 198 0
175 198 0
177 199 0
175 198 0
175 198 0
176 199 0
173 197 0
176 198 0
173 197 0
172 197 0
173 197 0
174 198 0
173 197 0
172 197 0
171 196 0
172 197 0
173 197 0
172 197 0
173 197 0
172 196 0
170 196 0
171 196 0
172 197 0
171 196 0
171 196 0
171 196 0
170 196 0
169 195 0
171 196 0
169 195 0
170 196 0
170 195 0
170 195 0
170 195 0
170 195 0
169 195 0
169 195 0
169 195 0
169 195 0
168 195 0
168 194 0
167 194 0
168 194 0
168 194 0
168 194 0
168 194 0
168 194 0
167 194 0
167 194 0
167 194 0
167 194 0
167 194 0
167 194 0
167 194 0
167 194 0
166 194 0
167 194 0
167 194 0
166 193 0
166 194 0
167 194 0
166 193 0
166 194 0
166 193 0
166 193 0
166 194 0
166 193 0
166 193 0
167 194 0
166 194 0
167 194 0
167 194 0
166 194 0
166 194 0
167 194 0
167 194 0
168 194 0
167 194 0
168 194 0
168 195 0
168 195 0
168 194 0
168 194 0
169 195 0
170 195 0
169 195 0
171 196 0
166 191 0
167 191 0
160 184 0
158 181 0
165 189 0
164 186 0
155 177 0
152 173 0
145 164 0
137 153 25
187 205 203
210 230 255
210 230 255
210 230 255
210 229 255
210 229 255
210 229 255
210 229 255
210 229 255
210 229 255
210 229 255
210 229 255
210 229 255
210 229 255
210 229 255
210 229 255
210 229 255
210 229 255
210 229 255
210 229 255
210 229 255
210 229 255
210 229 255
210 229 255
210 229 255
210 229 255
210 229 255
210 229 255
209 229 255
209 229 255
209 229 255
209 229 255
209 229 255
209 229 255
209 229 255
209 229 255
208 228 255
127 151 198
62 99 172
62 99 174
61 99 171
60 98 167
60 98 167
60 97 162
60 98 163
60 97 166
60 98 168
59 97 169
59 98 164
61 99 172
60 98 167
61 99 169
61 98 166
60 98 167
60 98 165
61 98 169
60 98 173
59 97 165
60 98 167
60 98 169
60 98 166
60 98 169
62 100 174
61 98 170
60 98 168
59 98 164
60 99 169
60 98 167
61 99 168
60 98 166
59 98 166
61 98 170
60 98 169
61 99 170
61 98 170
60 98 170
60 98 166
60 98 169
60 98 167
61 98 173
59 97 164
59 97 166
59 98 165
61 98 169
59 98 163
61 98 173
60 97 168
60 97 166
61 98 169
60 98 168
60 97 166
60 98 166
60 98 170
61 97 168
61 97 170
60 97 169
60 95 167
60 96 168
60 96 167
61 97 170
59 95 162
61 95 167
61 98 171
60 94 166
135 157 207
208 228 255
209 229 255
209 229 255
209 229 255
209 229 255
209 229 255
209 229 255
209 229 255
209 229 255
210 229 255
210 229 255
210 229 255
210 229 255
210 229 255
210 229 255
210 229 255
210 229 255
210 229 255
210 229 255
210 229 255
210 229 255
210 229 255
210 229 255
210 229 255
210 229 255
210 229 255
210 229 255
210 229 255
210 229 255
210 229 255
210 229 255
210 229 255
210 229 255
210 230 255
210 230 255
210 230 255
195 181 202
178 73 82
178 70 80
176 70 80
174 70 80
173 69 80
172 69 80
171 69 80
170 69 80
169 69 80
168 68 80
168 68 80
167 68 80
167 68 80
166 68 80
166 68 80
165 68 80
165 68 80
165 68 80
165 68 80
164 68 80
164 68 80
164 68 80
164 68 80
164 68 80
164 68 80
164 68 80
163 68 80
163 68 80
163 68 80
163 68 80
163 68 80
163 68 80
163 68 80
163 68 80
163 68 80
163 68 80
163 68 80
164 68 80
164 68 80
163 68 80
164 68 80
164 68 80
164 68 80
164 68 80
164 68 80
164 68 80
164 68 80
164 68 80
165 68 80
165 68 80
165 68 80
165 68 80
165 68 80
165 68 80
165 68 80
166 68 80
166 68 80
166 68 80
166 68 80
166 68 80
166 68 80
166 68 80
167 68 80
167 68 80
167 68 80
167 68 80
167 68 80
167 68 80
168 68 80
168 68 80
168 68 80
168 68 80
168 68 80
169 69 80
169 69 80
169 69 80
170 69 80
169 69 80
170 69 80
169 69 80
170 69 80
170 69 80
170 69 80
171 69 80
170 69 80
171 69 80
171 69 80
171 69 80
171 69 80
172 69 80
172 69 80
172 69 80
173 69 80
173 69 80
173 69 80
173 69 80
173 69 80
173 69 80
174 69 80
173 69 80
174 70 80
174 70 80
174 70 80
175 70 80
175 70 80
175 70 80
175 70 80
175 70 80
176 70 80
176 70 80
176 70 80
176 70 80
177 70 80
177 70 80
177 70 80
177 70 80
177 70 80
178 70 80
178 70 80
178 70 80
178 70 80
179 70 80
179 70 80
179 70 80
179 70 80
179 71 80
180 71 80
180 71 80
180 71 80
180 200 0
181 201 0
182 201 0
182 202 0
180 201 0
181 202 0
181 201 0
180 201 0
180 201 0
180 201 0
180 201 0
180 201 0
179 200 0
178 200 0
178 200 0
178 200 0
179 200 0
179 200 0
177 199 0
177 199 0
178 200 0
178 200 0
177 199 0
178 200 0
177 199 0
177 199 0
177 199 0
175 198 0
175 198 0
176 199 0
176 199 0
175 198 0
176 199 0
176 198 0
175 198 0
176 199 0
174 198 0
173 197 0
174 198 0
175 198 0
173 197 0
174 198 0
173 197 0
175 198 0
173 197 0
173 197 0
172 197 0
172 197 0
173 197 0
172 197 0
172 197 0
174 198 0
172 197 0
171 196 0
171 196 0
172 196 0
172 197 0
171 196 0
171 196 0
170 196 0
171 196 0
171 196 0
170 195 0
169 195 0
170 196 0
171 196 0
170 196 0
170 195 0
170 195 0
169 195 0
168 195 0
169 195 0
169 195 0
169 195 0
170 195 0
169 195 0
168 194 0
168 195 0
169 195 0
168 195 0
169 195 0
168 194 0
168 194 0
167 194 0
168 195 0
168 194 0
168 194 0
167 194 0
167 194 0
167 194 0
167 194 0
168 194 0
167 194 0
168 194 0
167 194 0
167 194 0
166 193 0
167 194 0
167 194 0
166 194 0
167 194 0
167 194 0
167 194 0
167 194 0
168 194 0
167 194 0
167 194 0
168 194 0
167 194 0
167 194 0
168 194 0
167 194 0
168 195 0
168 194 0
169 195 0
169 195 0
169 195 0
170 195 0
171 196 0
170 195 0
167 192 0
169 193 0
164 188 0
165 189 0
162 185 0
159 181 0
157 178 0
143 161 0
151 170 0
153 171 25
173 190 171
210 229 254
211 230 255
211 230 255
211 230 255
211 230 255
211 230 255
210 230 255
210 230 255
210 230 255
210 229 255
210 229 255
210 229 255
210 229 255
210 229 255
210 229 255
210 229 255
210 229 255
210 229 255
210 229 255
210 229 255
210 229 255
210 229 255
210 229 255
210 229 255
210 229 255
210 229 255
210 229 255
210 229 255
210 229 255
210 229 255
210 229 255
210 229 255
210 229 255
203 222 250
106 133 190
61 98 166
61 97 163
60 97 161
59 97 163
60 98 170
60 97 162
59 98 166
60 98 168
59 97 165
60 98 170
60 97 166
59 98 164
60 98 165
60 98 170
59 97 165
61 98 170
60 99 169
59 98 160
60 98 167
62 99 173
60 98 164
61 98 170
60 98 170
61 99 174
58 96 162
59 97 164
61 99 171
58 97 163
60 98 168
60 98 166
59 97 164
59 97 167
61 99 169
59 97 165
60 98 168
61 99 168
61 99 170
61 98 169
59 98 165
60 98 167
59 97 161
61 99 169
60 98 167
62 99 174
59 97 165
60 98 168
59 98 166
59 98 165
60 97 166
62 98 170
58 97 161
61 97 169
61 97 171
60 96 167
59 96 165
60 97 170
60 95 165
61 96 168
60 97 167
59 94 163
60 96 164
61 95 168
61 96 166
60 94 165
61 97 169
60 95 167
60 93 162
60 93 164
104 128 181
205 224 252
210 229 255
210 229 255
210 229 255
210 229 255
210 229 255
210 229 255
210 229 255
210 229 255
210 229 255
210 229 255
210 229 255
210 229 255
210 229 255
210 229 255
210 229 255
210 229 255
210 229 255
210 229 255
210 229 255
210 229 255
210 229 255
210 229 255
210 229 255
210 229 255
210 230 255
210 230 255
210 230 255
211 230 255
211 230 255
211 230 255
211 230 255
211 230 255
211 230 255
197 179 199
179 70 80
178 70 80
176 70 80
174 70 80
173 69 80
172 69 80
171 69 80
170 69 80
169 69 80
169 69 80
168 68 80
167 68 80
167 68 80
167 68 80
166 68 80
166 68 80
165 68 80
165 68 80
165 68 80
165 68 80
165 68 80
165 68 80
164 68 80
164 68 80
164 68 80
164 68 80
164 68 80
164 68 80
164 68 80
164 68 80
164 68 80
164 68 80
164 68 80
164 68 80
164 68 80
164 68 80
164 68 80
164 68 80
164 68 80
164 68 80
164 68 80
164 68 80
164 68 80
164 68 80
164 68 80
165 68 80
165 68 80
165 68 80
165 68 80
165 68 80
165 68 80
165 68 80
165 68 80
166 68 80
166 68 80
166 68 80
166 68 80
166 68 80
166 68 80
166 68 80
167 68 80
167 68 80
167 68 80
167 68 80
167 68 80
168 68 80
168 68 80
168 68 80
168 68 80
168 68 80
168 69 80
169 69 80
169 69 80
169 69 80
169 69 80
169 69 80
169 69 80
169 69 80
170 69 80
170 69 80
170 69 80
170 69 80
171 69 80
171 69 80
171 69 80
171 69 80
171 69 80
171 69 80
171 69 80
172 69 80
172 69 80
172 69 80
172 69 80
173 69 80
173 69 80
173 69 80
173 69 80
173 69 80
174 69 80
174 70 80
174 70 80
174 70 80
174 70 80
175 70 80
175 70 80
175 70 80
175 70 80
175 70 80
176 70 80
176 70 80
176 70 80
177 70 80
177 70 80
177 70 80
177 70 80
177 70 80
178 70 80
178 70 80
178 70 80
178 70 80
179 70 80
179 70 80
179 70 80
179 70 80
179 70 80
179 71 80
180 71 80
180 71 80
180 71 80
180 71 80
181 200 0
177 197 0
181 201 0
182 202 0
181 201 0
183 202 0
180 201 0
181 201 0
181 202 0
179 200 0
180 201 0
181 201 0
181 202 0
179 200 0
179 200 0
179 200 0
180 201 0
180 201 0
179 200 0
178 200 0
179 200 0
177 199 0
179 200 0
179 200 0
178 200 0
178 200 0
176 199 0
177 199 0
176 199 0
176 199 0
177 199 0
175 198 0
176 199 0
175 198 0
176 198 0
176 199 0
175 198 0
174 198 0
174 198 0
175 198 0
174 197 0
173 197 0
174 197 0
174 197 0
175 198 0
173 197 0
172 197 0
174 198 0
172 197 0
173 197 0
173 197 0
172 197 0
174 198 0
173 197 0
172 197 0
172 196 0
172 196 0
172 197 0
172 196 0
171 196 0
172 197 0
172 197 0
171 196 0
171 196 0
171 196 0
170 196 0
170 196 0
170 196 0
170 195 0
170 195 0
171 196 0
170 195 0
170 195 0
169 195 0
170 195 0
169 195 0
169 195 0
169 195 0
169 195 0
169 195 0
168 194 0
168 195 0
168 194 0
167 194 0
167 194 0
169 195 0
167 194 0
168 194 0
167 194 0
167 194 0
167 194 0
167 194 0
168 194 0
168 195 0
167 194 0
168 194 0
167 194 0
167 194 0
167 194 0
167 194 0
167 194 0
168 194 0
167 194 0
167 194 0
167 194 0
167 194 0
168 194 0
167 194 0
167 194 0
167 194 0
169 195 0
168 195 0
168 194 0
169 195 0
169 195 0
169 195 0
171 196 0
168 195 0
170 195 0
171 196 0
170 195 0
170 195 0
166 191 0
165 188 0
167 190 0
160 182 0
163 185 0
164 186 0
159 180 0
154 173 0
152 171 0
172 189 161
211 230 255
211 230 255
211 230 255
211 230 255
211 230 255
211 230 255
211 230 255
211 230 255
211 230 255
211 230 255
211 230 255
211 230 255
210 230 255
210 230 255
210 230 255
210 230 255
210 229 255
210 229 255
210 229 255
210 229 255
210 229 255
210 229 255
210 229 255
210 229 255
210 229 255
210 229 255
210 229 255
210 229 255
210 229 255
210 229 255
210 229 255
204 224 251
96 124 174
59 97 161
61 98 168
60 97 161
61 98 163
60 98 164
58 97 165
62 99 167
59 97 165
61 99 168
59 97 163
58 97 161
59 97 164
61 99 168
60 97 165
60 98 169
59 97 163
58 97 164
59 97 163
59 98 166
60 98 163
60 98 167
58 97 161
59 97 165
60 98 167
60 98 163
59 98 165
60 98 167
59 98 163
60 98 167
57 96 160
60 98 167
61 99 167
59 97 164
60 98 168
59 97 164
59 98 166
60 98 168
59 97 166
59 98 162
59 98 163
60 98 166
60 98 167
60 98 166
60 98 168
58 97 163
58 96 161
61 99 170
59 97 163
61 98 168
59 97 162
60 97 167
61 98 169
61 97 166
60 97 170
61 98 168
60 97 165
60 97 166
60 96 166
58 96 164
60 97 168
61 96 168
59 96 163
61 98 172
59 94 157
59 95 164
61 96 166
61 95 166
62 98 174
60 91 163
61 92 164
104 128 183
203 223 251
210 229 255
210 229 255
210 229 255
210 229 255
210 229 255
210 229 255
210 229 255
210 229 255
210 229 255
210 229 255
210 229 255
210 229 255
210 229 255
210 229 255
210 229 255
210 229 255
210 230 255
210 230 255
210 230 255
211 230 255
211 230 255
211 230 255
211 230 255
211 230 255
211 230 255
211 230 255
211 230 255
211 230 255
211 230 255
211 230 255
211 230 255
191 162 180
180 70 80
178 70 80
176 70 80
175 70 80
173 69 80
172 69 80
171 69 80
170 69 80
170 69 80
169 69 80
168 69 80
168 68 80
168 68 80
167 68 80
167 68 80
166 68 80
166 68 80
166 68 80
165 68 80
165 68 80
165 68 80
165 68 80
165 68 80
165 68 80
165 68 80
164 68 80
164 68 80
164 68 80
164 68 80
164 68 80
164 68 80
164 68 80
164 68 80
164 68 80
164 68 80
164 68 80
164 68 80
164 68 80
164 68 80
164 68 80
165 68 80
165 68 80
165 68 80
165 68 80
165 68 80
165 68 80
165 68 80
165 68 80
165 68 80
166 68 80
166 68 80
166 68 80
166 68 80
166 68 80
166 68 80
166 68 80
166 68 80
166 68 80
167 68 80
167 68 80
167 68 80
167 68 80
167 68 80
168 68 80
168 68 80
168 68 80
168 68 80
168 68 80
168 68 80
168 69 80
169 69 80
169 69 80
169 69 80
169 69 80
169 69 80
170 69 80
170 69 80
170 69 80
170 69 80
170 69 80
171 69 80
171 69 80
171 69 80
171 69 80
171 69 80
172 69 80
172 69 80
172 69 80
172 69 80
172 69 80
172 69 80
173 69 80
173 69 80
173 69 80
173 69 80
173 69 80
173 69 80
174 69 80
174 70 80
174 70 80
174 70 80
175 70 80
175 70 80
175 70 80
175 70 80
175 70 80
176 70 80
176 70 80
176 70 80
176 70 80
176 70 80
177 70 80
177 70 80
177 70 80
177 70 80
178 70 80
177 70 80
178 70 80
178 70 80
178 70 80
179 70 80
179 70 80
179 70 80
179 70 80
180 71 80
180 71 80
180 71 80
180 71 80
180 71 80
180 71 80
181 71 80
182 202 0
180 201 0
182 202 0
181 201 0
182 202 0
181 201 0
181 201 0
180 201 0
180 201 0
183 202 0
181 201 0
180 201 0
180 201 0
179 200 0
180 201 0
181 201 0
181 201 0
181 201 0
177 199 0
178 200 0
180 201 0
178 200 0
179 200 0
177 199 0
178 199 0
178 200 0
176 199 0
178 200 0
177 199 0
177 199 0
176 199 0
175 198 0
175 198 0
177 199 0
176 199 0
176 199 0
176 199 0
175 198 0
176 199 0
174 198 0
175 198 0
175 198 0
175 198 0
174 198 0
173 197 0
174 198 0
174 198 0
174 198 0
174 197 0
174 198 0
173 197 0
174 198 0
174 198 0
173 197 0
172 197 0
171 196 0
173 197 0
172 196 0
172 196 0
171 196 0
171 196 0
172 197 0
172 197 0
172 196 0
169 195 0
170 196 0
172 196 0
171 196 0
170 196 0
170 196 0
170 196 0
169 195 0
171 196 0
169 195 0
170 196 0
168 195 0
170 195 0
170 196 0
169 195 0
170 195 0
169 195 0
168 195 0
168 195 0
169 195 0
169 195 0
168 195 0
168 195 0
167 194 0
168 194 0
168 194 0
168 195 0
168 194 0
168 194 0
168 194 0
168 195 0
167 194 0
168 194 0
167 194 0
168 194 0
167 194 0
169 195 0
168 194 0
168 194 0
168 194 0
167 194 0
168 194 0
168 194 0
168 194 0
168 194 0
168 195 0
169 195 0
168 194 0
169 195 0
169 195 0
169 195 0
169 195 0
169 195 0
170 195 0
170 196 0
171 196 0
171 196 0
171 196 0
171 195 0
171 195 0
168 192 0
165 187 0
165 188 0
165 186 0
159 179 0
152 171 0
153 172 0
149 167 0
160 174 159
211 230 255
211 230 255
211 230 255
211 230 255
211 230 255
211 230 255
211 230 255
211 230 255
211 230 255
211 230 255
211 230 255
211 230 255
211 230 255
211 230 255
211 230 255
211 230 255
211 230 255
211 230 255
211 230 255
210 230 255
210 230 255
210 230 255
210 230 255
210 229 255
210 229 255
210 229 255
210 229 255
210 229 255
210 229 255
206 226 252
106 133 188
58 96 156
61 97 158
58 96 159
60 97 164
60 97 160
61 98 165
61 97 168
61 98 167
58 96 160
60 97 166
60 98 167
60 98 164
60 98 165
59 97 163
60 99 168
59 97 159
59 98 166
59 97 164
61 99 168
60 98 166
61 99 169
60 98 166
60 98 167
59 98 163
58 97 162
60 98 168
59 97 164
60 98 163
60 98 168
59 97 165
60 98 166
60 99 165
59 97 162
62 99 172
59 98 165
60 98 165
60 98 166
59 97 166
60 99 166
60 98 166
60 98 165
60 98 168
59 97 164
59 98 163
58 96 158
59 96 168
59 97 163
60 99 169
61 96 168
58 97 162
61 98 168
60 95 166
60 96 165
59 97 164
58 94 158
60 98 167
57 95 160
61 98 170
61 96 168
59 96 166
60 97 170
59 95 164
60 95 167
59 94 164
58 94 160
58 93 159
59 94 162
60 93 161
59 93 163
58 91 156
60 92 162
58 88 154
106 130 184
204 224 250
210 229 255
210 229 255
210 229 255
210 229 255
210 229 255
210 229 255
210 230 255
210 230 255
210 230 255
211 230 255
211 230 255
211 230 255
211 230 255
211 230 255
211 230 255
211 230 255
211 230 255
211 230 255
211 230 255
211 230 255
211 230 255
211 230 255
211 230 255
211 230 255
211 230 255
211 230 255
211 230 255
211 230 255
211 230 255
192 152 169
181 71 80
178 70 80
176 70 80
175 70 80
173 69 80
173 69 80
172 69 80
171 69 80
170 69 80
169 69 80
169 69 80
168 68 80
168 68 80
168 68 80
167 68 80
167 68 80
167 68 80
166 68 80
166 68 80
166 68 80
166 68 80
165 68 80
165 68 80
165 68 80
165 68 80
165 68 80
165 68 80
165 68 80
165 68 80
165 68 80
165 68 80
165 68 80
165 68 80
165 68 80
165 68 80
165 68 80
165 68 80
165 68 80
165 68 80
165 68 80
165 68 80
165 68 80
165 68 80
165 68 80
165 68 80
166 68 80
166 68 80
166 68 80
166 68 80
166 68 80
166 68 80
166 68 80
166 68 80
166 68 80
167 68 80
167 68 80
167 68 80
167 68 80
167 68 80
167 68 80
167 68 80
168 68 80
168 68 80
168 68 80
168 68 80
168 68 80
168 68 80
169 69 80
169 69 80
169 69 80
169 69 80
169 69 80
169 69 80
170 69 80
170 69 80
170 69 80
170 69 80
170 69 80
171 69 80
171 69 80
171 69 80
171 69 80
171 69 80
171 69 80
172 69 80
172 69 80
172 69 80
172 69 80
172 69 80
173 69 80
172 69 80
173 69 80
173 69 80
173 69 80
173 69 80
174 69 80
174 70 80
174 70 80
174 70 80
175 70 80
175 70 80
175 70 80
175 70 80
175 70 80
175 70 80
176 70 80
176 70 80
176 70 80
176 70 80
176 70 80
177 70 80
177 70 80
177 70 80
177 70 80
178 70 80
177 70 80
177 70 80
178 70 80
178 70 80
179 70 80
178 70 80
179 70 80
179 70 80
179 70 80
180 71 80
179 71 80
180 71 80
180 71 80
180 71 80
180 71 80
181 71 80
181 71 80
183 202 0
181 201 0
182 202 0
184 203 0
183 202 0
182 202 0
181 201 0
182 202 0
180 201 0
181 201 0
180 201 0
180 201 0
180 201 0
180 201 0
179 200 0
181 201 0
181 201 0
180 201 0
178 200 0
178 200 0
179 200 0
180 201 0
180 201 0
180 201 0
177 199 0
179 200 0
178 200 0
179 200 0
176 199 0
178 200 0
177 199 0
178 200 0
177 199 0
177 199 0
177 199 0
177 199 0
177 199 0
176 198 0
175 198 0
175 198 0
175 198 0
176 199 0
176 199 0
175 198 0
175 198 0
175 198 0
175 198 0
175 198 0
173 197 0
173 197 0
175 198 0
174 198 0
174 197 0
173 197 0
173 197 0
172 197 0
174 198 0
173 197 0
171 196 0
171 196 0
171 196 0
172 197 0
171 196 0
172 196 0
171 196 0
172 196 0
172 196 0
172 197 0
172 196 0
170 196 0
170 196 0
170 195 0
170 196 0
170 195 0
171 196 0
170 196 0
170 196 0
170 196 0
170 195 0
170 195 0
169 195 0
170 195 0
169 195 0
170 195 0
169 195 0
169 195 0
170 195 0
169 195 0
168 194 0
168 195 0
169 195 0
168 194 0
168 194 0
169 195 0
168 195 0
168 194 0
169 195 0
167 194 0
168 194 0
169 195 0
168 195 0
168 194 0
168 194 0
169 195 0
168 195 0
168 194 0
168 194 0
169 195 0
169 195 0
169 195 0
167 194 0
169 195 0
169 195 0
170 195 0
169 195 0
169 195 0
170 195 0
171 196 0
171 196 0
171 196 0
171 196 0
171 196 0
172 196 0
173 197 0
169 193 0
170 194 0
166 188 0
163 185 0
162 183 0
158 177 0
157 177 0
151 169 0
153 172 0
174 190 163
211 230 255
211 230 255
211 230 255
211 230 255
211 230 255
211 230 255
211 230 255
211 230 255
211 230 255
211 230 255
211 230 255
211 230 255
211 230 255
211 230 255
211 230 255
211 230 255
211 230 255
211 230 255
211 230 255
211 230 255
211 230 255
211 230 255
211 230 255
211 230 255
211 230 255
211 230 255
211 230 255
203 222 250
110 135 187
58 96 153
60 97 163
58 95 158
59 96 160
59 97 162
60 98 167
59 96 161
60 98 161
62 99 171
60 97 164
61 99 166
59 97 160
59 98 163
59 97 162
61 98 170
60 98 167
59 98 165
59 98 162
60 98 164
60 98 164
59 97 165
58 97 161
59 97 161
60 99 169
60 98 166
58 98 161
59 97 167
61 98 169
59 98 164
61 99 169
59 98 165
59 98 166
60 98 167
59 97 163
59 97 164
58 97 164
60 98 168
60 98 165
59 97 163
59 97 163
60 98 168
60 98 168
58 97 164
60 97 166
61 98 168
58 96 162
61 99 169
59 97 164
57 96 159
60 98 167
59 97 163
59 97 165
59 96 163
59 97 164
60 98 164
60 98 167
60 97 164
59 95 160
59 96 162
61 98 169
61 98 169
59 96 165
59 97 161
60 96 166
59 95 160
58 92 155
60 97 169
60 96 166
59 93 162
58 92 158
59 92 157
58 90 154
60 92 162
59 92 160
101 124 182
210 229 255
211 230 255
211 230 255
211 230 255
211 230 255
211 230 255
211 230 255
211 230 255
211 230 255
211 230 255
211 230 255
211 230 255
211 230 255
211 230 255
211 230 255
211 230 255
211 230 255
211 230 255
211 230 255
211 230 255
211 230 255
211 230 255
211 230 255
211 230 255
211 230 255
211 230 255
211 230 255
211 230 255
188 153 170
181 71 80
179 70 80
177 70 80
175 70 80
174 70 80
173 69 80
172 69 80
171 69 80
170 69 80
170 69 80
169 69 80
169 69 80
168 68 80
168 68 80
168 68 80
167 68 80
167 68 80
167 68 80
166 68 80
166 68 80
166 68 80
166 68 80
166 68 80
166 68 80
166 68 80
165 68 80
165 68 80
165 68 80
165 68 80
165 68 80
165 68 80
165 68 80
165 68 80
165 68 80
165 68 80
165 68 80
165 68 80
165 68 80
166 68 80
166 68 80
165 68 80
166 68 80
166 68 80
166 68 80
166 68 80
166 68 80
166 68 80
166 68 80
166 68 80
166 68 80
167 68 80
167 68 80
167 68 80
167 68 80
167 68 80
167 68 80
168 68 80
168 68 80
168 68 80
168 68 80
168 68 80
168 68 80
168 68 80
168 69 80
169 69 80
169 69 80
169 69 80
169 69 80
169 69 80
169 69 80
170 69 80
170 69 80
170 69 80
170 69 80
170 69 80
170 69 80
170 69 80
171 69 80
171 69 80
171 69 80
171 69 80
171 69 80
172 69 80
172 69 80
172 69 80
172 69 80
172 69 80
173 69 80
173 69 80
173 69 80
173 69 80
174 69 80
174 69 80
174 69 80
174 69 80
174 70 80
174 70 80
174 70 80
174 70 80
175 70 80
175 70 80
175 70 80
175 70 80
175 70 80
176 70 80
176 70 80
176 70 80
176 70 80
176 70 80
177 70 80
177 70 80
177 70 80
177 70 80
177 70 80
178 70 80
178 70 80
178 70 80
178 70 80
178 70 80
179 70 80
179 70 80
179 70 80
179 70 80
179 71 80
179 71 80
180 71 80
180 71 80
180 71 80
180 71 80
181 71 80
181 71 80
181 71 80
181 71 80
181 201 0
183 202 0
183 202 0
183 203 0
181 201 0
183 203 0
183 202 0
181 201 0
183 202 0
182 202 0
181 201 0
181 201 0
180 201 0
182 202 0
180 201 0
181 201 0
181 201 0
180 201 0
179 200 0
179 200 0
179 200 0
179 200 0
180 201 0
179 200 0
178 200 0
178 200 0
179 200 0
179 200 0
178 200 0
177 199 0
177 199 0
178 199 0
177 199 0
178 199 0
177 199 0
176 199 0
178 200 0
176 199 0
175 198 0
176 199 0
175 198 0
177 199 0
175 198 0
175 198 0
175 198 0
175 198 0
176 199 0
175 198 0
174 197 0
174 198 0
174 198 0
176 199 0
174 197 0
175 198 0
174 197 0
174 198 0
173 197 0
174 198 0
174 197 0
173 197 0
172 197 0
173 197 0
173 197 0
171 196 0
171 196 0
173 197 0
172 197 0
171 196 0
169 195 0
171 196 0
172 197 0
171 196 0
170 196 0
170 196 0
171 196 0
171 196 0
170 196 0
170 195 0
170 196 0
170 195 0
170 196 0
171 196 0
170 195 0
169 195 0
170 195 0
169 195 0
170 195 0
170 196 0
169 195 0
170 196 0
170 195 0
169 195 0
168 195 0
170 195 0
169 195 0
168 195 0
168 195 0
170 195 0
169 195 0
169 195 0
169 195 0
169 195 0
168 194 0
168 195 0
168 195 0
168 194 0
169 195 0
169 195 0
169 195 0
169 195 0
169 195 0
169 195 0
168 195 0
169 195 0
170 195 0
170 195 0
171 196 0
171 196 0
170 196 0
171 196 0
170 196 0
172 196 0
171 196 0
172 197 0
173 197 0
170 193 0
167 190 0
167 189 0
168 190 0
161 183 0
162 183 0
156 176 0
154 173 0
146 163 0
184 201 184
212 230 255
212 230 255
212 230 255
212 230 255
211 230 255
211 230 255
211 230 255
211 230 255
211 230 255
211 230 255
211 230 255
211 230 255
211 230 255
211 230 255
211 230 255
211 230 255
211 230 255
211 230 255
211 230 255
211 230 255
211 230 255
211 230 255
211 230 255
211 230 255
211 230 255
209 228 254
126 149 191
59 95 154
60 97 162
58 96 158
60 96 163
61 98 163
59 96 161
59 97 161
59 97 162
60 97 161
59 98 163
60 98 166
60 98 167
59 97 160
58 97 161
58 97 163
61 98 171
58 97 161
61 98 167
60 97 166
60 98 165
58 97 160
60 98 165
59 97 162
60 98 169
61 98 167
59 97 164
59 98 163
61 98 170
57 96 159
58 97 160
59 97 161
61 99 170
60 98 168
59 98 165
58 97 160
60 98 163
60 98 166
59 98 164
58 97 163
59 97 162
59 97 159
58 97 160
59 98 160
57 96 160
58 97 159
60 98 169
60 97 165
59 97 165
61 98 170
59 97 163
59 97 163
59 97 167
60 98 168
60 97 166
59 98 164
61 98 168
59 97 164
60 96 163
61 98 172
60 95 165
56 93 150
60 97 166
60 97 166
60 97 163
59 94 160
59 95 164
58 94 158
59 94 163
58 94 159
61 94 167
59 93 158
59 93 160
58 94 161
60 93 163
58 90 153
59 90 159
131 150 196
207 226 253
211 230 255
211 230 255
211 230 255
211 230 255
211 230 255
211 230 255
211 230 255
211 230 255
211 230 255
211 230 255
211 230 255
211 230 255
211 230 255
211 230 255
211 230 255
211 230 255
211 230 255
211 230 255
211 230 255
211 230 255
211 230 255
212 230 255
212 230 255
212 230 255
212 230 255
192 155 172
181 71 80
179 71 80
177 70 80
176 70 80
174 70 80
174 70 80
173 69 80
172 69 80
171 69 80
170 69 80
170 69 80
170 69 80
169 69 80
168 69 80
168 68 80
168 68 80
168 68 80
167 68 80
167 68 80
167 68 80
167 68 80
167 68 80
167 68 80
166 68 80
166 68 80
166 68 80
166 68 80
166 68 80
166 68 80
166 68 80
166 68 80
166 68 80
166 68 80
166 68 80
166 68 80
166 68 80
166 68 80
166 68 80
166 68 80
166 68 80
166 68 80
166 68 80
166 68 80
166 68 80
166 68 80
167 68 80
167 68 80
167 68 80
167 68 80
167 68 80
167 68 80
167 68 80
168 68 80
168 68 80
168 68 80
168 68 80
168 68 80
168 68 80
168 68 80
168 69 80
169 69 80
169 69 80
169 69 80
169 69 80
169 69 80
169 69 80
170 69 80
170 69 80
170 69 80
170 69 80
170 69 80
171 69 80
170 69 80
170 69 80
171 69 80
171 69 80
171 69 80
171 69 80
171 69 80
172 69 80
172 69 80
172 69 80
172 69 80
172 69 80
172 69 80
173 69 80
173 69 80
173 69 80
173 69 80
173 69 80
174 69 80
174 69 80
174 70 80
174 70 80
174 70 80
174 70 80
174 70 80
174 70 80
175 70 80
175 70 80
175 70 80
175 70 80
176 70 80
176 70 80
176 70 80
176 70 80
176 70 80
177 70 80
177 70 80
177 70 80
177 70 80
177 70 80
177 70 80
178 70 80
178 70 80
178 70 80
178 70 80
178 70 80
179 70 80
179 70 80
179 71 80
179 71 80
179 71 80
179 71 80
180 71 80
180 71 80
180 71 80
180 71 80
180 71 80
181 71 80
181 71 80
181 71 80
181 71 80
182 71 80
183 202 0
183 203 0
182 202 0
183 202 0
183 202 0
181 202 0
182 202 0
182 202 0
182 202 0
183 202 0
181 201 0
181 201 0
182 202 0
181 201 0
180 201 0
181 202 0
179 200 0
180 201 0
180 201 0
180 201 0
179 200 0
181 201 0
180 201 0
177 199 0
178 200 0
179 200 0
179 200 0
178 200 0
180 201 0
178 200 0
179 200 0
179 200 0
178 200 0
179 200 0
177 199 0
178 199 0
176 199 0
176 199 0
175 198 0
178 200 0
176 199 0
175 198 0
176 199 0
175 198 0
176 199 0
176 199 0
175 198 0
175 198 0
175 198 0
174 198 0
173 197 0
175 198 0
174 198 0
174 198 0
174 198 0
174 198 0
175 198 0
173 197 0
174 198 0
173 197 0
174 198 0
172 196 0
173 197 0
174 198 0
173 197 0
174 197 0
173 197 0
173 197 0
172 197 0
172 197 0
172 196 0
172 197 0
171 196 0
171 196 0
172 196 0
172 196 0
172 196 0
171 196 0
170 196 0
172 196 0
170 195 0
172 196 0
172 196 0
170 196 0
171 196 0
170 196 0
171 196 0
170 196 0
170 195 0
170 196 0
170 196 0
170 196 0
169 195 0
169 195 0
169 195 0
169 195 0
169 195 0
170 196 0
170 195 0
169 195 0
169 195 0
169 195 0
170 195 0
169 195 0
169 195 0
169 195 0
170 195 0
168 195 0
169 195 0
171 196 0
169 195 0
171 196 0
170 195 0
169 195 0
169 195 0
170 196 0
170 196 0
170 196 0
171 196 0
172 197 0
171 196 0
173 197 0
173 197 0
173 197 0
173 197 0
173 197 0
172 196 0
167 190 0
166 187 0
165 187 0
161 181 0
159 179 0
155 175 0
159 178 0
135 149 0
179 196 177
212 230 255
212 230 255
212 230 255
212 230 255
212 230 255
212 230 255
212 230 255
212 230 255
212 230 255
212 230 255
212 230 255
211 230 255
211 230 255
211 230 255
211 230 255
211 230 255
211 230 255
211 230 255
211 230 255
211 230 255
211 230 255
211 230 255
211 230 255
211 230 255
124 148 192
56 94 149
59 96 159
59 96 157
60 97 162
58 95 157
59 97 167
59 97 159
58 96 161
59 96 159
60 98 164
58 96 156
60 97 164
59 97 160
61 98 167
59 98 164
57 96 154
60 98 165
60 98 168
59 97 162
59 97 161
60 98 166
59 98 162
59 98 158
61 99 167
59 98 163
59 97 159
61 97 168
59 97 163
60 98 163
58 97 158
59 97 161
59 97 163
58 97 160
60 98 166
58 97 160
60 98 167
58 97 159
59 98 163
60 97 166
59 97 163
61 99 169
57 96 158
57 96 158
60 99 169
60 98 165
58 97 160
56 95 153
61 98 170
62 99 173
59 97 164
59 97 161
57 96 159
60 97 163
59 96 160
59 97 164
58 95 159
59 96 162
61 99 166
60 97 166
58 95 160
60 98 169
60 97 163
59 94 160
59 96 163
58 94 156
60 96 166
58 95 158
59 95 161
59 94 163
57 92 158
59 94 162
60 94 164
58 95 158
59 93 157
60 94 165
59 94 163
58 93 159
60 91 160
138 158 200
211 230 255
211 230 255
211 230 255
211 230 255
211 230 255
211 230 255
211 230 255
211 230 255
211 230 255
211 230 255
211 230 255
211 230 255
211 230 255
212 230 255
212 230 255
212 230 255
212 230 255
212 230 255
212 230 255
212 230 255
212 230 255
212 230 255
212 230 255
212 230 255
196 178 198
183 71 80
180 71 80
178 70 80
176 70 80
175 70 80
174 70 80
173 69 80
173 69 80
171 69 80
171 69 80
170 69 80
170 69 80
170 69 80
169 69 80
169 69 80
168 68 80
168 68 80
168 68 80
168 68 80
168 68 80
167 68 80
167 68 80
167 68 80
167 68 80
167 68 80
167 68 80
167 68 80
166 68 80
166 68 80
166 68 80
167 68 80
166 68 80
166 68 80
166 68 80
167 68 80
167 68 80
167 68 80
166 68 80
167 68 80
167 68 80
167 68 80
167 68 80
167 68 80
167 68 80
167 68 80
167 68 80
167 68 80
167 68 80
168 68 80
168 68 80
168 68 80
168 68 80
168 68 80
168 68 80
168 68 80
168 68 80
168 68 80
168 69 80
169 69 80
169 69 80
169 69 80
169 69 80
169 69 80
169 69 80
170 69 80
170 69 80
170 69 80
170 69 80
170 69 80
170 69 80
171 69 80
171 69 80
171 69 80
171 69 80
171 69 80
172 69 80
172 69 80
172 69 80
172 69 80
172 69 80
172 69 80
172 69 80
172 69 80
173 69 80
173 69 80
173 69 80
173 69 80
173 69 80
174 69 80
174 69 80
174 70 80
174 70 80
174 70 80
175 70 80
175 70 80
175 70 80
175 70 80
175 70 80
175 70 80
176 70 80
176 70 80
176 70 80
176 70 80
176 70 80
176 70 80
176 70 80
177 70 80
177 70 80
177 70 80
177 70 80
177 70 80
178 70 80
178 70 80
178 70 80
178 70 80
178 70 80
179 70 80
179 70 80
178 70 80
179 70 80
179 71 80
179 70 80
180 71 80
180 71 80
180 71 80
180 71 80
180 71 80
180 71 80
181 71 80
181 71 80
181 71 80
181 71 80
182 71 80
182 71 80
182 71 80
184 203 0
183 202 0
185 203 0
182 202 0
184 203 0
184 203 0
181 202 0
184 203 0
182 202 0
182 202 0
181 201 0
182 202 0
181 201 0
181 202 0
181 201 0
182 202 0
181 201 0
181 201 0
179 200 0
180 201 0
182 202 0
180 201 0
179 200 0
181 201 0
179 200 0
181 201 0
179 200 0
181 201 0
178 200 0
178 200 0
177 199 0
179 200 0
178 200 0
178 200 0
179 200 0
178 200 0
180 201 0
178 200 0
178 200 0
179 200 0
177 199 0
179 200 0
176 199 0
176 199 0
177 199 0
177 199 0
176 199 0
176 199 0
175 198 0
175 198 0
175 198 0
175 198 0
175 198 0
176 199 0
176 198 0
175 198 0
174 197 0
175 198 0
175 198 0
175 198 0
175 198 0
174 198 0
174 198 0
172 197 0
174 197 0
173 197 0
174 197 0
172 197 0
173 197 0
173 197 0
173 197 0
172 196 0
173 197 0
172 197 0
172 196 0
171 196 0
172 196 0
171 196 0
172 196 0
171 196 0
172 197 0
171 196 0
170 196 0
171 196 0
171 196 0
171 196 0
171 196 0
172 196 0
171 196 0
171 196 0
171 196 0
169 195 0
171 196 0
169 195 0
170 196 0
171 196 0
170 195 0
170 196 0
170 195 0
171 196 0
170 195 0
169 195 0
170 195 0
170 196 0
170 195 0
170 196 0
169 195 0
171 196 0
169 195 0
170 196 0
171 196 0
171 196 0
171 196 0
171 196 0
170 196 0
171 196 0
172 196 0
171 196 0
171 196 0
172 196 0
172 196 0
171 196 0
172 196 0
172 197 0
173 197 0
172 197 0
174 198 0
173 197 0
173 196 0
172 194 0
166 187 0
164 185 0
162 182 0
157 175 0
148 166 0
143 159 0
185 201 191
212 230 255
212 230 255
212 230 255
212 230 255
212 230 255
212 230 255
212 230 255
212 230 255
212 230 255
212 230 255
212 230 255
212 230 255
212 230 255
212 230 255
212 230 255
212 230 255
212 230 255
212 230 255
212 230 255
212 230 255
211 230 255
211 230 255
158 178 214
59 96 163
57 94 144
58 95 157
59 97 163
58 95 154
60 98 162
60 97 160
61 98 170
59 96 158
58 97 156
59 97 158
59 96 158
58 97 159
59 97 161
59 97 160
59 97 160
58 97 160
60 98 166
57 97 156
60 97 166
59 97 164
59 98 159
60 98 166
59 98 163
59 97 165
59 97 163
60 98 161
59 98 163
59 97 162
59 98 165
59 98 164
59 98 163
59 98 161
57 96 155
60 98 165
60 98 163
58 97 159
59 97 164
59 98 164
61 98 168
59 98 161
61 99 170
60 98 163
58 96 162
61 98 168
61 98 168
59 98 162
59 97 162
57 95 155
58 95 159
59 98 165
61 98 167
59 97 165
58 94 155
57 96 156
60 98 168
60 97 166
59 97 161
59 96 160
58 95 161
58 96 160
60 95 165
60 97 169
58 96 161
59 97 166
58 96 158
60 96 165
60 94 160
59 95 162
58 93 156
58 94 161
59 93 160
58 93 158
61 96 165
59 95 164
59 92 160
60 93 162
60 93 160
59 91 160
59 91 159
176 195 228
211 230 255
211 230 255
212 230 255
212 230 255
212 230 255
212 230 255
212 230 255
212 230 255
212 230 255
212 230 255
212 230 255
212 230 255
212 230 255
212 230 255
212 230 255
212 230 255
212 230 255
212 230 255
212 230 255
212 230 255
212 230 255
212 230 255
201 193 214
183 71 80
180 71 80
179 70 80
177 70 80
176 70 80
175 70 80
174 69 80
173 69 80
172 69 80
172 69 80
171 69 80
171 69 80
170 69 80
170 69 80
169 69 80
169 69 80
169 69 80
169 69 80
169 69 80
168 68 80
168 68 80
168 68 80
168 68 80
168 68 80
167 68 80
167 68 80
167 68 80
167 68 80
167 68 80
167 68 80
167 68 80
167 68 80
167 68 80
167 68 80
167 68 80
167 68 80
167 68 80
167 68 80
167 68 80
167 68 80
167 68 80
167 68 80
168 68 80
168 68 80
168 68 80
168 68 80
168 68 80
168 68 80
168 68 80
168 68 80
168 68 80
168 69 80
169 69 80
169 69 80
169 69 80
169 69 80
169 69 80
169 69 80
169 69 80
169 69 80
170 69 80
170 69 80
170 69 80
170 69 80
170 69 80
170 69 80
171 69 80
171 69 80
171 69 80
171 69 80
171 69 80
171 69 80
171 69 80
171 69 80
172 69 80
172 69 80
172 69 80
172 69 80
172 69 80
172 69 80
173 69 80
173 69 80
173 69 80
173 69 80
173 69 80
174 69 80
174 69 80
174 69 80
174 70 80
174 70 80
174 70 80
175 70 80
175 70 80
175 70 80
175 70 80
175 70 80
175 70 80
176 70 80
176 70 80
176 70 80
176 70 80
176 70 80
176 70 80
177 70 80
177 70 80
177 70 80
177 70 80
177 70 80
177 70 80
177 70 80
178 70 80
178 70 80
178 70 80
178 70 80
178 70 80
178 70 80
179 70 80
179 70 80
179 71 80
179 71 80
180 71 80
179 71 80
180 71 80
180 71 80
180 71 80
180 71 80
180 71 80
181 71 80
180 71 80
181 71 80
181 71 80
181 71 80
182 71 80
182 71 80
182 71 80
182 71 80
185 203 0
182 202 0
183 203 0
184 203 0
184 203 0
183 202 0
181 201 0
181 201 0
182 202 0
181 201 0
182 202 0
182 202 0
182 202 0
181 201 0
182 202 0
180 201 0
182 202 0
182 202 0
180 201 0
179 200 0
182 202 0
181 201 0
181 202 0
180 201 0
179 200 0
179 200 0
177 199 0
180 201 0
179 201 0
179 200 0
180 201 0
179 200 0
179 200 0
180 201 0
177 199 0
179 200 0
179 200 0
176 199 0
179 200 0
177 199 0
178 200 0
178 200 0
177 199 0
179 200 0
176 199 0
177 199 0
177 199 0
177 199 0
176 198 0
177 199 0
177 199 0
176 199 0
177 199 0
175 198 0
176 198 0
176 198 0
175 198 0
175 198 0
176 199 0
175 198 0
176 199 0
175 198 0
174 198 0
174 198 0
174 198 0
174 198 0
173 197 0
174 197 0
174 198 0
174 197 0
174 197 0
172 197 0
172 197 0
174 197 0
172 197 0
173 197 0
173 197 0
173 197 0
172 197 0
173 197 0
172 197 0
173 197 0
172 196 0
171 196 0
172 196 0
171 196 0
171 196 0
173 197 0
171 196 0
171 196 0
171 196 0
171 196 0
170 196 0
171 196 0
171 196 0
171 196 0
170 196 0
170 195 0
170 196 0
171 196 0
171 196 0
171 196 0
169 195 0
171 196 0
170 196 0
170 196 0
170 195 0
170 196 0
171 196 0
170 196 0
171 196 0
171 196 0
170 196 0
170 196 0
170 196 0
171 196 0
171 196 0
171 196 0
169 194 0
170 195 0
170 195 0
167 192 0
167 192 0
170 195 0
171 195 0
170 193 0
172 196 0
173 197 0
176 199 0
171 193 0
164 186 0
171 192 0
169 189 0
161 180 0
153 172 0
148 166 0
146 162 51
193 210 221
212 231 255
212 231 255
212 231 255
212 231 255
212 230 255
212 230 255
212 230 255
212 230 255
212 230 255
212 230 255
212 230 255
212 230 255
212 230 255
212 230 255
212 230 255
212 230 255
212 230 255
212 230 255
212 230 255
212 230 255
179 198 231
62 97 157
57 94 152
58 96 152
56 94 144
58 96 158
59 96 158
58 96 155
58 97 158
61 98 166
59 97 158
60 98 163
57 96 157
58 96 154
59 97 163
58 96 155
59 97 158
59 97 159
58 97 158
60 98 163
59 98 160
60 98 165
59 98 163
59 98 164
59 98 166
60 98 164
60 98 163
62 99 172
57 96 159
58 97 159
58 95 159
58 97 159
60 98 165
58 97 159
61 99 169
60 98 167
59 98 165
59 97 161
60 98 166
57 97 157
61 99 170
58 97 162
58 96 156
59 98 164
59 98 166
60 97 163
57 96 159
59 97 159
60 98 165
58 97 158
59 97 162
59 98 164
59 97 163
59 97 164
57 95 155
61 98 168
59 96 162
59 96 161
57 95 156
59 96 165
58 97 164
58 94 161
58 96 159
60 97 162
61 97 167
59 94 157
59 96 161
61 96 166
57 94 155
59 96 162
59 96 162
59 95 161
58 95 158
59 94 163
60 91 157
59 95 162
59 94 163
58 94 163
58 89 152
60 94 164
58 90 154
59 91 160
62 89 152
181 199 229
212 230 255
212 230 255
212 230 255
212 230 255
212 230 255
212 230 255
212 230 255
212 230 255
212 230 255
212 230 255
212 230 255
212 230 255
212 230 255
212 230 255
212 230 255
212 231 255
212 231 255
212 231 255
212 231 255
212 231 255
204 205 227
183 80 90
182 71 80
179 71 80
178 70 80
176 70 80
175 70 80
175 70 80
174 69 80
173 69 80
173 69 80
172 69 80
171 69 80
171 69 80
170 69 80
170 69 80
170 69 80
169 69 80
169 69 80
169 69 80
169 69 80
169 69 80
169 69 80
168 69 80
168 69 80
168 68 80
168 68 80
168 68 80
168 68 80
168 68 80
168 68 80
168 68 80
168 68 80
168 68 80
168 68 80
168 68 80
168 68 80
168 68 80
168 68 80
168 68 80
168 68 80
168 68 80
168 68 80
168 69 80
168 68 80
169 69 80
168 68 80
169 69 80
169 69 80
169 69 80
169 69 80
169 69 80
169 69 80
169 69 80
169 69 80
169 69 80
169 69 80
170 69 80
170 69 80
170 69 80
170 69 80
170 69 80
170 69 80
171 69 80
171 69 80
171 69 80
171 69 80
171 69 80
171 69 80
171 69 80
172 69 80
172 69 80
172 69 80
172 69 80
172 69 80
172 69 80
173 69 80
173 69 80
172 69 80
173 69 80
173 69 80
173 69 80
173 69 80
173 69 80
174 70 80
174 70 80
174 70 80
174 70 80
175 70 80
174 70 80
175 70 80
175 70 80
175 70 80
175 70 80
175 70 80
175 70 80
176 70 80
176 70 80
176 70 80
176 70 80
177 70 80
177 70 80
176 70 80
177 70 80
176 70 80
177 70 80
177 70 80
178 70 80
177 70 80
178 70 80
178 70 80
178 70 80
178 70 80
178 70 80
178 70 80
179 70 80
179 70 80
179 70 80
179 71 80
180 71 80
180 71 80
180 71 80
180 71 80
180 71 80
180 71 80
181 71 80
181 71 80
181 71 80
181 71 80
182 71 80
181 71 80
182 71 80
181 71 80
182 71 80
182 71 80
182 71 80
182 71 80
183 71 80
184 203 0
185 204 0
183 202 0
183 203 0
183 202 0
183 202 0
183 202 0
181 202 0
183 202 0
184 203 0
184 203 0
182 202 0
182 202 0
183 202 0
181 201 0
181 201 0
182 202 0
182 202 0
179 200 0
181 202 0
181 201 0
182 202 0
180 201 0
180 201 0
181 202 0
181 202 0
179 200 0
178 200 0
179 200 0
178 200 0
179 200 0
180 201 0
181 201 0
179 200 0
179 201 0
179 200 0
178 200 0
179 200 0
177 199 0
178 200 0
179 200 0
178 200 0
178 200 0
178 200 0
179 200 0
178 200 0
179 200 0
177 199 0
177 199 0
177 199 0
177 199 0
177 199 0
176 199 0
177 199 0
176 199 0
177 199 0
175 198 0
176 198 0
175 198 0
174 197 0
175 198 0
175 198 0
175 198 0
175 198 0
175 198 0
175 198 0
174 198 0
174 198 0
174 198 0
174 198 0
175 198 0
174 198 0
174 197 0
173 197 0
173 197 0
173 197 0
174 198 0
173 197 0
173 197 0
173 197 0
173 197 0
172 197 0
173 197 0
172 197 0
172 196 0
172 197 0
173 197 0
173 197 0
172 197 0
172 196 0
172 197 0
171 196 0
172 196 0
171 196 0
172 197 0
172 196 0
172 197 0
172 197 0
171 196 0
172 196 0
170 196 0
171 196 0
171 196 0
172 196 0
171 196 0
170 195 0
171 196 0
171 196 0
171 196 0
172 196 0
172 196 0
171 196 0
172 197 0
171 196 0
171 196 0
171 196 0
171 195 0
169 194 0
166 191 0
169 194 0
170 195 0
165 189 0
170 194 0
168 193 0
168 192 0
166 190 0
167 192 0
170 194 0
167 190 0
167 190 0
168 190 0
170 192 0
172 194 0
164 183 0
165 186 0
153 170 0
151 168 0
156 172 57
210 228 250
213 231 255
213 231 255
213 231 255
212 231 255
212 231 255
212 231 255
212 231 255
212 231 255
212 231 255
212 231 255
212 231 255
212 231 255
212 231 255
212 230 255
212 230 255
212 230 255
212 230 255
212 230 255
205 224 249
92 120 169
59 96 154
59 96 160
59 96 154
59 97 156
59 96 157
59 96 156
59 97 159
60 98 160
57 96 154
59 96 162
58 97 160
59 97 161
59 96 154
60 98 164
59 97 158
57 95 153
58 97 157
58 97 156
58 97 158
59 98 162
58 97 157
58 97 163
58 97 159
59 97 161
59 97 160
60 98 165
58 97 159
58 97 156
59 97 161
60 98 165
59 98 159
59 98 163
61 99 168
59 98 165
58 97 161
61 98 167
57 96 158
58 97 160
58 97 159
59 97 160
60 98 166
57 97 156
60 98 166
57 96 155
59 98 160
59 96 162
59 98 162
59 98 164
60 97 163
57 96 159
61 99 169
59 98 166
59 96 161
61 99 170
60 97 167
60 98 164
58 97 161
60 96 163
61 98 166
58 95 160
57 96 157
59 95 159
61 98 167
57 95 157
60 96 165
59 96 162
58 95 155
58 95 158
59 96 162
58 95 157
58 94 155
58 92 156
58 94 158
60 92 160
60 94 163
58 91 156
58 90 155
61 96 166
57 89 152
59 90 156
57 85 149
58 90 156
100 121 174
207 225 251
212 230 255
212 230 255
212 230 255
212 230 255
212 230 255
212 231 255
212 231 255
212 231 255
212 231 255
212 231 255
212 231 255
212 231 255
212 231 255
212 231 255
213 231 255
213 231 255
213 231 255
213 231 255
209 222 246
185 99 110
182 71 80
180 71 80
178 70 80
177 70 80
176 70 80
176 70 80
174 70 80
174 69 80
173 69 80
173 69 80
172 69 80
172 69 80
171 69 80
171 69 80
170 69 80
170 69 80
170 69 80
170 69 80
170 69 80
170 69 80
169 69 80
169 69 80
169 69 80
169 69 80
169 69 80
169 69 80
168 69 80
168 69 80
168 69 80
168 68 80
169 69 80
169 69 80
169 69 80
168 68 80
169 69 80
168 68 80
169 69 80
169 69 80
168 69 80
169 69 80
169 69 80
169 69 80
169 69 80
169 69 80
169 69 80
169 69 80
169 69 80
170 69 80
170 69 80
170 69 80
170 69 80
170 69 80
170 69 80
170 69 80
170 69 80
170 69 80
171 69 80
171 69 80
171 69 80
171 69 80
171 69 80
171 69 80
171 69 80
171 69 80
172 69 80
172 69 80
172 69 80
172 69 80
172 69 80
172 69 80
172 69 80
173 69 80
173 69 80
173 69 80
173 69 80
173 69 80
173 69 80
173 69 80
174 69 80
174 69 80
174 69 80
174 70 80
174 70 80
174 70 80
174 70 80
175 70 80
175 70 80
175 70 80
175 70 80
175 70 80
175 70 80
175 70 80
176 70 80
176 70 80
176 70 80
176 70 80
176 70 80
176 70 80
177 70 80
177 70 80
177 70 80
177 70 80
177 70 80
178 70 80
178 70 80
178 70 80
178 70 80
178 70 80
178 70 80
178 70 80
179 70 80
179 70 80
179 70 80
179 71 80
179 71 80
179 71 80
180 71 80
180 71 80
180 71 80
180 71 80
180 71 80
180 71 80
180 71 80
181 71 80
181 71 80
181 71 80
181 71 80
181 71 80
181 71 80
181 71 80
182 71 80
182 71 80
182 71 80
182 71 80
182 71 80
182 71 80
183 71 80
183 203 0
184 203 0
186 204 0
183 202 0
185 204 0
184 203 0
185 203 0
183 202 0
184 203 0
185 203 0
183 203 0
183 202 0
183 202 0
182 202 0
181 201 0
182 202 0
182 202 0
182 202 0
182 202 0
181 201 0
181 202 0
182 202 0
180 201 0
182 202 0
180 201 0
181 201 0
178 200 0
180 201 0
182 202 0
179 200 0
179 200 0
178 200 0
180 201 0
180 201 0
180 201 0
180 201 0
180 201 0
180 201 0
180 201 0
180 201 0
179 200 0
178 200 0
180 201 0
177 199 0
179 200 0
177 199 0
179 200 0
177 199 0
178 200 0
178 200 0
177 199 0
177 199 0
175 198 0
176 199 0
177 199 0
177 199 0
176 198 0
177 199 0
177 199 0
176 199 0
176 199 0
177 199 0
176 199 0
176 199 0
176 199 0
176 198 0
176 199 0
176 198 0
175 198 0
176 198 0
174 198 0
174 197 0
175 198 0
174 197 0
175 198 0
173 197 0
175 198 0
173 197 0
174 198 0
173 197 0
173 197 0
173 197 0
173 197 0
173 197 0
173 197 0
173 197 0
172 197 0
173 197 0
174 198 0
172 196 0
172 196 0
173 197 0
173 197 0
173 197 0
173 197 0
172 196 0
172 197 0
173 197 0
173 197 0
171 196 0
172 197 0
172 197 0
172 197 0
172 196 0
171 196 0
171 196 0
172 196 0
172 196 0
172 196 0
171 196 0
172 197 0
173 197 0
171 196 0
172 197 0
171 195 0
168 193 0
171 196 0
170 195 0
167 192 0
166 190 0
169 194 0
167 191 0
167 192 0
166 190 0
167 191 0
166 190 0
163 187 0
166 189 0
167 191 0
170 193 0
166 189 0
165 187 0
165 187 0
166 187 0
170 190 0
163 181 0
155 173 0
146 162 0
169 185 137
213 231 255
213 231 255
213 231 255
213 231 255
213 231 255
213 231 255
213 231 255
213 231 255
213 231 255
213 231 255
213 231 255
213 231 255
213 231 255
212 231 255
212 231 255
212 231 255
212 231 255
212 231 255
133 155 196
59 96 158
59 97 157
58 97 160
59 95 153
56 94 149
61 99 166
58 96 154
57 95 148
59 97 160
57 95 151
59 97 158
61 98 164
59 97 161
59 97 159
59 97 162
59 97 160
56 95 152
58 97 159
60 98 163
58 96 157
58 96 161
58 97 159
59 97 160
58 96 157
57 96 157
60 98 162
60 98 165
57 96 156
58 97 156
60 98 163
58 97 158
58 97 161
59 97 165
59 97 161
58 96 159
59 98 162
60 98 163
59 98 163
59 97 161
58 97 160
59 97 161
59 98 162
60 98 162
61 99 167
59 98 163
58 97 156
58 97 160
59 97 160
57 96 156
59 98 165
59 96 165
58 96 158
60 97 166
59 96 160
58 96 158
58 97 160
58 95 155
58 96 160
59 96 159
58 97 162
59 96 161
60 97 162
59 96 162
59 94 160
57 94 151
58 96 163
60 96 165
58 95 159
58 93 156
57 93 154
59 95 160
57 94 159
60 96 165
58 94 160
59 93 160
59 94 161
60 92 157
57 87 145
60 92 160
58 89 151
58 88 153
57 89 149
60 89 157
57 84 146
129 149 193
212 231 255
212 231 255
212 231 255
212 231 255
213 231 255
213 231 255
213 231 255
213 231 255
213 231 255
213 231 255
213 231 255
213 231 255
213 231 255
213 231 255
213 231 255
213 231 255
213 231 255
211 227 251
190 130 145
183 71 80
181 71 80
179 71 80
178 70 80
177 70 80
176 70 80
175 70 80
174 70 80
174 70 80
173 69 80
173 69 80
172 69 80
172 69 80
171 69 80
171 69 80
171 69 80
171 69 80
171 69 80
170 69 80
170 69 80
170 69 80
170 69 80
170 69 80
170 69 80
169 69 80
170 69 80
169 69 80
170 69 80
169 69 80
169 69 80
169 69 80
169 69 80
169 69 80
169 69 80
169 69 80
170 69 80
169 69 80
169 69 80
170 69 80
169 69 80
170 69 80
170 69 80
170 69 80
170 69 80
170 69 80
170 69 80
170 69 80
170 69 80
170 69 80
171 69 80
170 69 80
170 69 80
171 69 80
171 69 80
171 69 80
171 69 80
171 69 80
171 69 80
172 69 80
171 69 80
172 69 80
172 69 80
172 69 80
172 69 80
172 69 80
172 69 80
173 69 80
173 69 80
173 69 80
173 69 80
173 69 80
173 69 80
173 69 80
173 69 80
174 69 80
174 70 80
174 70 80
174 70 80
174 70 80
174 70 80
174 70 80
175 70 80
175 70 80
175 70 80
175 70 80
175 70 80
175 70 80
176 70 80
176 70 80
176 70 80
176 70 80
176 70 80
176 70 80
176 70 80
176 70 80
177 70 80
177 70 80
177 70 80
177 70 80
177 70 80
177 70 80
178 70 80
177 70 80
178 70 80
178 70 80
178 70 80
179 70 80
178 70 80
179 70 80
179 70 80
179 70 80
179 70 80
179 71 80
179 71 80
180 71 80
180 71 80
180 71 80
180 71 80
180 71 80
180 71 80
181 71 80
180 71 80
181 71 80
181 71 80
181 71 80
182 71 80
182 71 80
182 71 80
182 71 80
182 71 80
183 71 80
182 71 80
182 71 80
183 71 80
183 71 80
183 71 80
183 71 80
183 71 80
186 204 0
185 204 0
186 204 0
184 203 0
184 203 0
184 203 0
183 203 0
184 203 0
185 204 0
184 203 0
184 203 0
182 202 0
183 203 0
182 202 0
183 202 0
183 202 0
183 202 0
183 202 0
181 202 0
181 201 0
182 202 0
182 202 0
182 202 0
181 201 0
183 202 0
182 202 0
183 202 0
182 202 0
181 202 0
180 201 0
179 200 0
180 201 0
180 201 0
181 201 0
180 201 0
180 201 0
180 201 0
178 200 0
178 200 0
179 200 0
178 200 0
179 200 0
177 199 0
179 200 0
179 200 0
179 200 0
178 200 0
180 201 0
177 199 0
179 200 0
177 199 0
178 200 0
178 200 0
177 199 0
175 198 0
176 199 0
176 199 0
176 199 0
177 199 0
179 200 0
177 199 0
175 198 0
176 199 0
177 199 0
176 199 0
175 198 0
176 199 0
175 198 0
176 199 0
176 198 0
174 198 0
176 198 0
176 199 0
175 198 0
175 198 0
176 198 0
174 198 0
175 198 0
175 198 0
174 198 0
173 197 0
174 198 0
175 198 0
173 197 0
175 198 0
174 198 0
173 197 0
174 198 0
172 197 0
174 197 0
173 197 0
172 197 0
173 197 0
173 197 0
173 197 0
173 197 0
171 196 0
173 197 0
173 197 0
173 197 0
173 197 0
174 197 0
173 197 0
173 197 0
171 196 0
173 197 0
173 197 0
172 196 0
172 197 0
173 197 0
174 198 0
173 197 0
173 196 0
171 196 0
169 194 0
168 193 0
168 193 0
167 192 0
166 191 0
167 192 0
162 186 0
165 190 0
164 188 0
164 188 0
167 192 0
159 182 0
159 183 0
164 188 0
163 187 0
165 188 0
166 189 0
162 185 0
159 180 0
167 188 0
164 183 0
163 182 0
165 184 0
151 169 0
145 160 0
174 190 161
213 231 255
213 231 255
213 231 255
213 231 255
213 231 255
213 231 255
213 231 255
213 231 255
213 231 255
213 231 255
213 231 255
213 231 255
213 231 255
213 231 255
213 231 255
213 231 255
181 200 231
58 94 139
57 93 144
60 97 160
58 96 157
57 93 150
56 93 145
58 96 154
58 96 154
58 96 157
58 96 155
59 97 156
57 95 150
58 96 159
60 98 165
59 97 161
58 97 158
57 96 158
58 96 155
60 97 164
59 98 160
58 96 159
58 97 157
57 96 159
59 98 164
59 98 160
58 96 160
58 97 159
60 97 168
59 97 162
58 97 157
59 98 165
58 98 160
58 97 161
58 96 159
59 98 161
59 97 164
58 96 158
57 97 157
58 97 160
58 97 157
60 98 164
58 97 159
56 95 154
59 97 161
60 98 163
57 95 153
59 97 163
56 95 156
58 97 159
59 98 163
60 97 163
59 98 163
58 97 160
58 96 158
61 99 169
57 96 157
59 95 160
57 96 157
58 97 157
60 97 163
57 95 158
60 96 165
58 96 158
59 96 162
59 96 160
58 96 160
59 96 162
58 94 160
59 93 158
59 96 161
58 96 159
60 96 164
60 97 168
59 95 158
59 94 159
59 93 157
59 94 159
59 94 158
60 92 158
59 93 160
57 89 149
59 90 155
59 89 155
58 88 149
59 87 150
57 85 146
183 200 229
213 231 255
213 231 255
213 231 255
213 231 255
213 231 255
213 231 255
213 231 255
213 231 255
213 231 255
213 231 255
213 231 255
213 231 255
213 231 255
213 231 255
213 231 255
213 231 255
193 161 179
184 71 80
182 71 80
180 71 80
179 70 80
178 70 80
177 70 80
176 70 80
175 70 80
175 70 80
174 70 80
173 69 80
173 69 80
173 69 80
172 69 80
172 69 80
172 69 80
172 69 80
171 69 80
172 69 80
171 69 80
171 69 80
171 69 80
170 69 80
170 69 80
170 69 80
171 69 80
170 69 80
170 69 80
170 69 80
170 69 80
170 69 80
170 69 80
170 69 80
170 69 80
170 69 80
170 69 80
170 69 80
170 69 80
170 69 80
170 69 80
170 69 80
171 69 80
170 69 80
170 69 80
171 69 80
171 69 80
171 69 80
171 69 80
171 69 80
171 69 80
171 69 80
171 69 80
172 69 80
171 69 80
172 69 80
172 69 80
172 69 80
172 69 80
172 69 80
172 69 80
172 69 80
172 69 80
172 69 80
172 69 80
173 69 80
173 69 80
173 69 80
173 69 80
173 69 80
174 69 80
173 69 80
174 69 80
174 70 80
174 70 80
174 70 80
174 70 80
174 70 80
175 70 80
175 70 80
175 70 80
175 70 80
175 70 80
175 70 80
176 70 80
176 70 80
176 70 80
176 70 80
176 70 80
176 70 80
176 70 80
176 70 80
177 70 80
177 70 80
177 70 80
177 70 80
177 70 80
177 70 80
178 70 80
178 70 80
178 70 80
178 70 80
178 70 80
178 70 80
179 70 80
178 70 80
178 70 80
179 70 80
179 70 80
180 71 80
179 71 80
179 71 80
180 71 80
180 71 80
180 71 80
180 71 80
180 71 80
180 71 80
180 71 80
181 71 80
181 71 80
181 71 80
181 71 80
181 71 80
182 71 80
182 71 80
182 71 80
182 71 80
182 71 80
182 71 80
182 71 80
183 71 80
183 71 80
183 71 80
183 71 80
183 71 80
183 71 80
183 71 80
183 71 80
184 71 80
186 204 0
183 202 0
186 204 0
184 203 0
186 204 0
184 203 0
184 203 0
183 202 0
184 203 0
184 203 0
184 203 0
185 203 0
185 203 0
182 202 0
184 203 0
183 202 0
183 203 0
185 204 0
183 203 0
184 203 0
182 202 0
183 203 0
183 202 0
182 202 0
182 202 0
181 201 0
184 203 0
183 202 0
183 203 0
183 202 0
181 201 0
181 201 0
182 202 0
182 202 0
181 201 0
182 202 0
180 201 0
182 202 0
181 201 0
181 201 0
179 200 0
181 201 0
180 201 0
180 201 0
178 200 0
180 201 0
179 200 0
179 200 0
178 200 0
178 200 0
179 200 0
178 200 0
178 200 0
180 201 0
178 200 0
177 199 0
178 200 0
177 199 0
179 200 0
176 199 0
178 200 0
178 200 0
178 200 0
177 199 0
177 199 0
177 199 0
176 199 0
176 199 0
177 199 0
176 199 0
175 198 0
176 198 0
175 198 0
176 199 0
177 199 0
176 198 0
176 199 0
175 198 0
177 199 0
174 198 0
175 198 0
176 199 0
174 198 0
176 198 0
175 198 0
174 198 0
174 198 0
175 198 0
175 198 0
174 198 0
173 197 0
174 198 0
175 198 0
175 198 0
173 197 0
173 197 0
175 198 0
173 197 0
173 197 0
172 197 0
173 197 0
174 198 0
173 197 0
173 197 0
173 197 0
173 197 0
173 197 0
172 197 0
173 197 0
172 197 0
173 197 0
172 196 0
173 197 0
169 193 0
170 195 0
167 191 0
168 192 0
167 191 0
163 188 0
165 189 0
162 186 0
154 178 0
156 180 0
159 184 0
156 180 0
159 183 0
162 186 0
154 178 0
159 181 0
165 188 0
162 185 0
157 180 0
164 187 0
163 185 0
156 177 0
169 190 0
156 174 0
167 186 0
160 178 0
140 155 0
195 212 215
213 231 255
213 231 255
213 231 255
213 231 255
213 231 255
213 231 255
213 231 255
213 231 255
213 231 255
213 231 255
213 231 255
213 231 255
213 231 255
213 231 255
210 228 254
89 116 146
57 93 140
55 92 137
58 95 149
57 94 141
59 96 160
58 96 150
59 97 160
58 96 156
58 96 154
59 97 158
57 95 153
59 96 160
57 95 153
59 97 156
57 96 149
58 96 154
56 95 154
57 95 155
60 98 163
58 97 158
58 97 161
59 97 159
57 97 156
60 97 165
58 96 159
59 97 161
58 97 161
59 97 162
57 96 153
59 98 164
60 98 167
58 98 159
58 97 156
59 97 163
58 97 156
59 98 162
59 97 163
58 96 157
59 98 162
58 97 161
60 98 167
57 96 156
58 96 157
57 96 157
57 96 155
58 96 162
59 97 161
60 98 164
59 96 161
59 97 161
58 97 158
59 97 164
58 96 158
59 97 163
58 97 157
58 97 156
57 96 156
58 96 158
57 93 153
58 97 159
59 97 164
59 98 164
59 96 162
58 93 157
60 98 165
59 96 161
59 95 159
59 96 162
59 97 162
59 93 156
58 91 153
56 92 146
59 95 163
57 92 149
59 95 161
58 94 159
59 94 158
60 93 160
59 93 158
56 89 148
59 93 160
58 90 153
58 92 155
59 92 156
59 91 156
56 86 144
101 122 175
209 227 252
213 231 255
213 231 255
213 231 255
213 231 255
213 231 255
213 231 255
213 231 255
213 231 255
213 231 255
213 231 255
213 231 255
213 231 255
213 231 255
213 231 255
204 202 223
185 71 80
183 71 80
181 71 80
180 71 80
179 70 80
178 70 80
177 70 80
176 70 80
175 70 80
175 70 80
174 70 80
174 69 80
174 69 80
173 69 80
173 69 80
173 69 80
172 69 80
172 69 80
172 69 80
172 69 80
172 69 80
171 69 80
171 69 80
172 69 80
171 69 80
171 69 80
171 69 80
171 69 80
171 69 80
171 69 80
171 69 80
171 69 80
171 69 80
171 69 80
171 69 80
171 69 80
171 69 80
171 69 80
171 69 80
171 69 80
171 69 80
171 69 80
171 69 80
171 69 80
172 69 80
171 69 80
172 69 80
171 69 80
172 69 80
172 69 80
172 69 80
172 69 80
172 69 80
172 69 80
172 69 80
173 69 80
173 69 80
173 69 80
173 69 80
173 69 80
173 69 80
173 69 80
173 69 80
173 69 80
173 69 80
174 69 80
174 70 80
174 70 80
174 70 80
174 70 80
174 70 80
174 70 80
174 70 80
175 70 80
175 70 80
175 70 80
175 70 80
175 70 80
175 70 80
175 70 80
175 70 80
176 70 80
176 70 80
176 70 80
176 70 80
176 70 80
176 70 80
177 70 80
177 70 80
177 70 80
177 70 80
177 70 80
177 70 80
177 70 80
178 70 80
178 70 80
178 70 80
178 70 80
178 70 80
178 70 80
179 70 80
178 70 80
178 70 80
179 70 80
179 71 80
179 71 80
179 70 80
180 71 80
179 71 80
180 71 80
180 71 80
180 71 80
181 71 80
181 71 80
180 71 80
180 71 80
181 71 80
181 71 80
181 71 80
181 71 80
181 71 80
182 71 80
182 71 80
182 71 80
182 71 80
182 71 80
182 71 80
182 71 80
182 71 80
183 71 80
183 71 80
183 71 80
183 71 80
183 71 80
183 71 80
183 71 80
183 71 80
184 71 80
184 71 80
184 71 80
186 204 0
187 205 0
186 204 0
185 203 0
186 204 0
187 204 0
184 203 0
185 204 0
185 203 0
185 204 0
184 203 0
182 202 0
184 203 0
185 203 0
184 203 0
184 203 0
183 202 0
183 202 0
183 202 0
184 203 0
183 202 0
182 202 0
183 202 0
183 202 0
183 202 0
183 202 0
184 203 0
182 202 0
180 201 0
182 202 0
183 202 0
182 202 0
180 201 0
182 202 0
181 201 0
181 202 0
179 200 0
180 201 0
183 202 0
180 201 0
180 201 0
180 201 0
180 201 0
179 200 0
180 201 0
181 201 0
180 201 0
178 200 0
180 201 0
179 200 0
179 200 0
178 200 0
177 199 0
180 201 0
179 200 0
180 201 0
179 200 0
179 201 0
178 200 0
178 200 0
178 200 0
178 200 0
177 199 0
179 200 0
177 199 0
177 199 0
175 198 0
177 199 0
176 199 0
176 199 0
177 199 0
176 199 0
176 199 0
177 199 0
176 199 0
177 199 0
175 198 0
176 199 0
177 199 0
176 199 0
174 198 0
176 199 0
175 198 0
176 198 0
175 198 0
175 198 0
175 198 0
175 198 0
174 198 0
175 198 0
174 198 0
176 199 0
175 198 0
174 198 0
174 197 0
175 198 0
173 197 0
174 198 0
174 198 0
173 197 0
174 198 0
174 198 0
175 198 0
174 197 0
175 198 0
173 197 0
173 197 0
173 197 0
175 198 0
174 198 0
171 195 0
172 196 0
171 194 0
168 192 0
170 194 0
171 195 0
162 186 0
166 190 0
157 182 0
166 190 0
156 180 0
162 186 0
156 180 0
156 181 0
155 179 0
152 177 0
152 175 0
154 178 0
155 178 0
156 179 0
155 178 0
154 176 0
163 185 0
151 173 0
162 184 0
163 183 0
156 175 0
160 179 0
162 180 0
140 155 0
156 172 92
213 231 253
214 231 255
214 231 255
214 231 255
214 231 255
214 231 255
213 231 255
213 231 255
213 231 255
213 231 255
213 231 255
213 231 255
213 231 255
213 231 255
160 180 207
56 92 142
58 95 156
57 94 146
58 96 150
57 94 147
57 94 152
59 96 155
58 95 153
58 96 156
59 97 157
59 96 162
58 96 158
58 97 159
57 95 153
58 97 160
60 97 162
58 97 157
57 97 154
57 95 150
58 96 156
58 96 161
60 98 164
60 98 165
59 97 160
58 97 158
59 98 159
59 97 164
58 97 158
58 97 160
58 97 157
57 95 156
57 96 156
59 97 159
59 98 162
59 98 164
58 97 159
59 97 161
57 96 153
58 97 155
60 98 164
60 98 161
61 99 167
57 95 156
58 97 161
58 97 158
57 96 153
60 98 160
60 98 163
59 97 162
59 98 164
59 97 161
56 94 152
59 97 161
59 97 157
57 96 156
58 96 157
58 96 157
59 97 161
59 96 164
58 96 159
60 98 165
59 97 162
56 93 153
58 96 157
58 96 157
60 97 162
58 97 161
61 97 166
59 96 159
59 97 163
59 94 160
58 95 157
57 93 154
58 94 156
55 93 150
58 94 156
57 92 153
58 93 159
58 93 156
57 91 151
57 89 148
57 90 151
59 92 156
57 86 146
59 92 156
58 85 146
57 84 143
57 83 145
157 175 208
213 231 255
213 231 255
213 231 255
213 231 255
213 231 255
213 231 255
213 231 255
214 231 255
214 231 255
214 231 255
214 231 255
214 231 255
214 231 255
209 223 247
184 96 107
184 71 80
182 71 80
181 71 80
179 71 80
178 70 80
178 70 80
177 70 80
177 70 80
176 70 80
175 70 80
175 70 80
174 70 80
174 70 80
174 70 80
174 69 80
174 69 80
173 69 80
173 69 80
173 69 80
172 69 80
173 69 80
172 69 80
172 69 80
172 69 80
172 69 80
172 69 80
172 69 80
172 69 80
172 69 80
172 69 80
172 69 80
171 69 80
172 69 80
172 69 80
171 69 80
172 69 80
172 69 80
172 69 80
172 69 80
172 69 80
172 69 80
172 69 80
172 69 80
172 69 80
172 69 80
173 69 80
172 69 80
173 69 80
172 69 80
172 69 80
173 69 80
173 69 80
173 69 80
173 69 80
173 69 80
173 69 80
173 69 80
174 69 80
174 69 80
174 70 80
174 69 80
174 70 80
174 70 80
174 70 80
174 70 80
174 70 80
175 70 80
175 70 80
175 70 80
175 70 80
175 70 80
175 70 80
175 70 80
176 70 80
175 70 80
176 70 80
176 70 80
176 70 80
176 70 80
176 70 80
177 70 80
176 70 80
176 70 80
177 70 80
177 70 80
177 70 80
177 70 80
177 70 80
177 70 80
178 70 80
178 70 80
178 70 80
178 70 80
178 70 80
178 70 80
178 70 80
179 70 80
179 70 80
179 70 80
179 70 80
179 71 80
179 71 80
179 71 80
179 71 80
180 71 80
180 71 80
180 71 80
180 71 80
180 71 80
180 71 80
181 71 80
181 71 80
181 71 80
181 71 80
181 71 80
181 71 80
182 71 80
181 71 80
182 71 80
182 71 80
182 71 80
182 71 80
182 71 80
182 71 80
182 71 80
183 71 80
183 71 80
183 71 80
183 71 80
183 71 80
183 71 80
184 71 80
183 71 80
184 71 80
184 71 80
184 71 80
184 71 80
184 72 80
184 71 80
184 72 80
186 204 0
186 204 0
186 204 0
185 204 0
186 204 0
185 204 0
186 204 0
186 204 0
185 204 0
183 202 0
185 204 0
183 203 0
186 204 0
184 203 0
186 204 0
184 203 0
185 204 0
184 203 0
183 203 0
182 202 0
183 202 0
183 202 0
183 202 0
183 202 0
185 203 0
181 201 0
184 203 0
182 202 0
183 203 0
183 202 0
182 202 0
181 201 0
181 201 0
181 201 0
182 202 0
182 202 0
182 202 0
181 201 0
182 202 0
183 202 0
179 200 0
182 202 0
181 201 0
181 201 0
181 201 0
180 201 0
182 202 0
179 200 0
181 201 0
180 201 0
180 201 0
181 201 0
180 201 0
180 201 0
179 200 0
177 199 0
178 200 0
180 201 0
181 201 0
179 200 0
180 201 0
179 200 0
179 200 0
180 201 0
179 200 0
178 200 0
178 200 0
178 200 0
177 199 0
177 199 0
178 200 0
178 200 0
179 200 0
177 199 0
177 199 0
177 199 0
177 199 0
177 199 0
177 199 0
176 199 0
177 199 0
176 199 0
176 199 0
176 199 0
176 199 0
177 199 0
175 198 0
175 198 0
176 198 0
176 199 0
176 199 0
176 199 0
176 199 0
176 199 0
175 198 0
175 198 0
175 198 0
174 198 0
174 198 0
176 199 0
176 199 0
174 198 0
174 198 0
175 198 0
175 198 0
174 197 0
174 198 0
175 198 0
174 198 0
175 198 0
172 196 0
171 195 0
169 193 0
168 192 0
170 193 0
164 188 0
163 187 0
161 185 0
161 185 0
154 178 0
157 181 0
160 184 0
152 176 0
150 174 0
148 172 0
153 177 0
151 175 0
145 168 0
150 173 0
150 173 0
156 179 0
147 171 0
165 187 0
161 184 0
154 175 0
156 176 0
155 175 0
161 181 0
161 180 0
149 166 0
144 160 0
174 190 161
214 231 255
214 231 255
214 231 255
214 231 255
214 231 255
214 231 255
214 231 255
214 231 255
214 231 255
214 231 255
214 231 255
214 231 255
200 218 242
67 101 154
56 92 142
58 96 154
58 94 149
57 95 147
56 94 146
57 96 149
57 95 149
58 95 154
55 94 143
59 96 155
57 95 151
56 95 150
60 97 162
59 96 158
57 95 148
57 95 153
58 97 156
58 96 159
58 97 157
58 96 157
58 97 157
59 97 157
57 96 153
59 97 162
58 97 160
57 96 155
57 96 154
58 96 160
59 97 160
56 95 149
58 96 157
58 97 156
57 96 155
55 94 148
58 97 159
59 98 161
59 97 160
58 97 160
57 96 155
58 97 158
58 97 157
57 96 156
58 96 157
59 97 160
58 96 161
57 96 156
56 96 150
59 97 160
57 96 157
59 98 165
58 96 160
58 97 159
59 98 162
59 96 161
57 96 152
58 96 159
59 97 161
58 96 156
56 95 154
58 95 159
58 96 159
58 95 153
57 95 155
58 93 153
58 95 155
57 94 153
55 92 148
57 95 154
57 92 150
57 95 152
57 93 153
57 91 148
58 92 153
57 94 154
59 93 156
59 94 159
57 91 151
58 94 155
58 93 157
58 93 155
58 93 156
57 93 153
57 89 149
58 92 156
59 90 155
57 87 148
58 85 148
58 86 150
65 91 153
199 217 245
214 231 255
214 231 255
214 231 255
214 231 255
214 231 255
214 231 255
214 231 255
214 231 255
214 231 255
214 231 255
214 231 255
214 231 255
198 168 186
185 72 80
183 71 80
182 71 80
180 71 80
180 71 80
179 70 80
178 70 80
177 70 80
177 70 80
176 70 80
176 70 80
175 70 80
175 70 80
175 70 80
174 70 80
174 70 80
174 70 80
174 69 80
173 69 80
173 69 80
173 69 80
173 69 80
173 69 80
173 69 80
173 69 80
173 69 80
173 69 80
173 69 80
172 69 80
173 69 80
172 69 80
172 69 80
172 69 80
173 69 80
172 69 80
173 69 80
173 69 80
172 69 80
173 69 80
173 69 80
173 69 80
173 69 80
173 69 80
173 69 80
173 69 80
173 69 80
173 69 80
173 69 80
173 69 80
173 69 80
174 69 80
173 69 80
174 69 80
174 69 80
174 70 80
174 70 80
174 70 80
174 70 80
175 70 80
175 70 80
175 70 80
174 70 80
175 70 80
175 70 80
175 70 80
175 70 80
175 70 80
175 70 80
176 70 80
176 70 80
176 70 80
176 70 80
176 70 80
176 70 80
176 70 80
177 70 80
176 70 80
177 70 80
177 70 80
177 70 80
177 70 80
177 70 80
177 70 80
178 70 80
178 70 80
178 70 80
178 70 80
178 70 80
178 70 80
178 70 80
178 70 80
178 70 80
178 70 80
178 70 80
179 70 80
179 71 80
179 71 80
179 70 80
180 71 80
180 71 80
179 71 80
180 71 80
180 71 80
180 71 80
180 71 80
180 71 80
180 71 80
181 71 80
181 71 80
181 71 80
181 71 80
181 71 80
181 71 80
181 71 80
181 71 80
182 71 80
182 71 80
182 71 80
182 71 80
182 71 80
182 71 80
182 71 80
182 71 80
182 71 80
182 71 80
183 71 80
183 71 80
183 71 80
183 71 80
183 71 80
184 71 80
184 71 80
184 71 80
184 71 80
184 71 80
184 71 80
184 71 80
185 72 80
185 72 80
185 72 80
185 72 80
187 204 0
184 203 0
181 202 0
184 203 0
185 204 0
185 203 0
185 204 0
185 203 0
186 204 0
186 204 0
186 204 0
184 203 0
183 203 0
185 203 0
185 203 0
185 203 0
186 204 0
184 203 0
184 203 0
183 202 0
186 204 0
183 203 0
182 202 0
182 202 0
185 204 0
182 202 0
184 203 0
183 203 0
183 202 0
183 202 0
184 203 0
182 202 0
183 202 0
182 202 0
182 202 0
182 202 0
181 202 0
181 201 0
182 202 0
181 201 0
183 203 0
182 202 0
180 201 0
181 202 0
181 201 0
181 201 0
181 201 0
181 201 0
183 202 0
182 202 0
180 201 0
180 201 0
179 200 0
181 201 0
179 201 0
180 201 0
181 201 0
182 202 0
179 200 0
180 201 0
180 201 0
180 201 0
180 201 0
181 201 0
180 201 0
178 200 0
178 200 0
178 200 0
179 200 0
178 200 0
178 200 0
178 200 0
177 199 0
178 200 0
179 200 0
177 199 0
177 199 0
177 199 0
178 199 0
178 200 0
177 199 0
177 199 0
176 199 0
177 199 0
176 199 0
176 198 0
177 199 0
176 199 0
176 199 0
176 199 0
177 199 0
177 199 0
176 199 0
177 199 0
175 198 0
177 199 0
176 199 0
176 198 0
175 198 0
175 198 0
176 199 0
177 199 0
176 199 0
175 198 0
175 198 0
175 198 0
177 199 0
175 198 0
174 197 0
172 195 0
170 193 0
169 192 0
172 195 0
167 190 0
168 191 0
165 189 0
163 186 0
156 180 0
159 183 0
154 178 0
158 181 0
162 186 0
150 174 0
149 173 0
145 169 0
144 168 0
146 169 0
147 170 0
148 172 0
148 171 0
145 168 0
145 168 0
158 180 0
149 171 0
157 180 0
156 177 0
152 173 0
153 172 0
160 179 0
150 167 0
154 170 0
138 152 25
201 218 218
214 232 255
214 232 255
214 232 255
214 232 255
214 232 255
214 232 255
214 232 255
214 231 255
214 231 255
214 231 255
214 231 255
125 147 183
55 92 135
57 94 149
58 95 147
57 94 148
57 94 152
56 93 143
56 94 147
57 94 147
59 97 156
58 96 153
58 96 157
55 94 148
57 96 149
56 96 151
57 96 153
59 97 161
56 95 150
58 97 157
57 96 151
59 97 160
57 96 154
59 98 158
57 95 154
58 97 157
56 94 150
59 98 161
57 97 154
58 96 156
56 95 153
58 97 158
57 96 151
58 98 159
59 97 159
59 97 160
58 97 158
57 97 155
58 97 158
59 98 160
58 97 160
59 98 163
57 97 156
58 97 157
57 96 155
57 96 157
55 94 148
56 95 155
56 96 152
58 96 159
58 97 158
58 96 157
56 95 154
60 98 163
57 97 156
58 96 157
58 96 161
59 97 161
56 96 151
59 96 158
57 96 157
57 95 151
59 96 160
59 97 159
59 97 163
57 95 155
60 97 162
57 94 156
59 96 159
57 94 151
58 95 157
59 95 158
58 95 157
60 96 164
57 94 154
57 95 156
57 94 154
58 95 158
58 94 157
56 89 146
58 94 158
57 91 150
59 91 155
56 89 145
58 85 145
60 91 158
59 92 158
59 89 153
58 88 148
57 87 150
56 82 139
57 83 142
131 148 186
214 231 255
214 231 255
214 231 255
214 231 255
214 232 255
214 232 255
214 232 255
214 232 255
214 232 255
214 232 255
214 232 255
203 202 223
185 75 83
184 71 80
182 71 80
182 71 80
180 71 80
180 71 80
178 70 80
178 70 80
178 70 80
177 70 80
177 70 80
176 70 80
176 70 80
176 70 80
175 70 80
175 70 80
175 70 80
175 70 80
174 70 80
174 70 80
174 70 80
174 70 80
174 70 80
174 70 80
174 69 80
174 69 80
174 69 80
174 69 80
173 69 80
174 69 80
173 69 80
174 70 80
173 69 80
173 69 80
173 69 80
174 69 80
173 69 80
173 69 80
173 69 80
174 69 80
174 69 80
174 70 80
174 69 80
174 69 80
174 70 80
174 69 80
174 70 80
174 70 80
174 70 80
174 70 80
174 70 80
174 70 80
174 70 80
175 70 80
175 70 80
175 70 80
175 70 80
175 70 80
175 70 80
175 70 80
175 70 80
176 70 80
176 70 80
176 70 80
176 70 80
176 70 80
176 70 80
176 70 80
176 70 80
177 70 80
177 70 80
177 70 80
177 70 80
176 70 80
177 70 80
177 70 80
177 70 80
177 70 80
178 70 80
178 70 80
178 70 80
178 70 80
178 70 80
178 70 80
178 70 80
178 70 80
178 70 80
179 70 80
179 70 80
179 70 80
179 71 80
179 70 80
179 71 80
179 71 80
179 71 80
180 71 80
180 71 80
180 71 80
180 71 80
180 71 80
180 71 80
181 71 80
180 71 80
180 71 80
181 71 80
181 71 80
181 71 80
181 71 80
181 71 80
181 71 80
181 71 80
181 71 80
182 71 80
182 71 80
182 71 80
182 71 80
182 71 80
182 71 80
182 71 80
183 71 80
183 71 80
183 71 80
183 71 80
183 71 80
183 71 80
184 71 80
184 71 80
184 71 80
184 71 80
184 71 80
184 71 80
184 72 80
184 72 80
185 72 80
185 72 80
185 72 80
185 72 80
185 72 80
185 72 80
185 72 80
185 72 80
185 72 80
178 201 0
184 203 0
183 203 0
185 204 0
186 204 0
187 204 0
185 204 0
184 203 0
186 204 0
185 203 0
186 204 0
185 203 0
184 203 0
186 204 0
187 205 0
184 203 0
184 203 0
185 204 0
184 203 0
186 204 0
185 203 0
184 203 0
184 203 0
186 204 0
185 203 0
183 202 0
183 203 0
185 203 0
184 203 0
184 203 0
184 203 0
183 202 0
184 203 0
183 202 0
183 202 0
183 202 0
183 202 0
182 202 0
182 202 0
183 202 0
183 202 0
182 202 0
184 203 0
184 203 0
181 201 0
182 202 0
183 202 0
180 201 0
181 202 0
181 201 0
180 201 0
180 201 0
181 201 0
180 201 0
182 202 0
181 201 0
180 201 0
180 201 0
180 201 0
180 201 0
179 200 0
180 201 0
181 201 0
181 201 0
180 201 0
180 201 0
180 201 0
180 201 0
180 201 0
180 201 0
179 200 0
179 200 0
178 200 0
179 200 0
179 200 0
178 200 0
178 200 0
177 199 0
179 200 0
177 199 0
178 200 0
178 200 0
177 199 0
180 201 0
178 200 0
178 200 0
177 199 0
179 200 0
177 199 0
178 200 0
178 200 0
177 199 0
177 199 0
176 198 0
177 199 0
177 199 0
177 199 0
178 199 0
176 199 0
177 199 0
177 199 0
176 199 0
176 198 0
177 199 0
177 199 0
175 198 0
176 198 0
177 199 0
174 196 0
171 194 0
169 193 0
165 188 0
170 193 0
161 184 0
163 186 0
160 184 0
162 185 0
159 182 0
160 184 0
152 176 0
153 177 0
146 170 0
149 173 0
154 178 0
158 181 0
145 170 0
143 167 0
143 167 0
145 169 0
140 164 0
140 164 0
146 170 0
145 168 0
138 160 0
150 172 0
148 169 0
156 176 0
151 171 0
150 169 0
160 179 0
166 184 0
148 164 0
156 172 125
214 232 254
214 232 255
214 232 255
214 232 255
214 232 255
214 232 255
214 232 255
214 232 255
214 232 255
214 232 255
200 218 245
60 95 139
56 94 141
56 93 149
58 96 153
55 92 135
55 93 143
57 95 153
58 95 149
58 95 155
57 95 152
59 97 158
58 96 155
58 97 156
57 95 150
58 96 154
59 97 158
59 97 162
56 95 147
59 98 162
57 96 155
57 96 153
58 96 157
57 96 155
56 96 151
57 96 152
58 96 161
58 96 161
57 95 155
58 97 158
59 97 161
57 96 152
58 97 154
57 96 153
58 97 160
55 95 146
58 97 159
59 97 161
58 97 155
60 98 165
56 96 151
58 97 156
57 96 154
58 97 159
58 97 161
57 96 154
59 98 164
58 97 160
59 98 163
59 97 159
60 98 166
57 95 156
57 97 154
59 98 159
57 96 158
59 95 160
60 98 164
58 96 158
56 94 152
58 98 160
57 95 155
57 96 154
59 94 157
57 96 158
56 94 152
59 96 159
57 95 154
59 97 160
57 93 149
57 93 152
58 95 155
56 94 151
58 96 160
56 92 152
56 93 148
55 91 142
59 93 156
57 93 153
56 93 150
59 96 162
57 92 150
57 93 152
57 91 146
59 92 155
57 88 143
60 94 162
57 88 149
60 91 156
57 91 156
55 83 138
58 86 146
57 82 144
58 81 136
204 221 245
214 232 255
214 232 255
214 232 255
214 232 255
214 232 255
214 232 255
214 232 255
214 232 255
214 232 255
214 232 255
189 119 132
186 72 80
184 71 80
183 71 80
182 71 80
180 71 80
180 71 80
179 70 80
178 70 80
178 70 80
177 70 80
176 70 80
175 69 80
171 68 79
173 69 79
173 69 79
176 70 80
176 70 80
175 70 80
175 70 80
175 70 80
175 70 80
175 70 80
175 70 80
175 70 80
174 70 80
175 70 80
174 70 80
174 70 80
175 70 80
174 70 80
175 70 80
175 70 80
174 70 80
174 70 80
174 70 80
175 70 80
175 70 80
175 70 80
174 70 80
174 70 80
175 70 80
175 70 80
175 70 80
175 70 80
175 70 80
175 70 80
175 70 80
175 70 80
175 70 80
176 70 80
175 70 80
175 70 80
175 70 80
175 70 80
176 70 80
176 70 80
176 70 80
176 70 80
176 70 80
176 70 80
176 70 80
176 70 80
176 70 80
177 70 80
177 70 80
177 70 80
177 70 80
177 70 80
177 70 80
177 70 80
177 70 80
177 70 80
178 70 80
178 70 80
178 70 80
178 70 80
178 70 80
178 70 80
178 70 80
178 70 80
179 70 80
178 70 80
179 70 80
179 70 80
179 70 80
179 70 80
179 70 80
179 71 80
179 70 80
179 70 80
180 71 80
180 71 80
180 71 80
180 71 80
181 71 80
180 71 80
181 71 80
181 71 80
181 71 80
181 71 80
181 71 80
181 71 80
181 71 80
181 71 80
181 71 80
182 71 80
182 71 80
182 71 80
182 71 80
182 71 80
182 71 80
182 71 80
182 71 80
183 71 80
183 71 80
182 71 80
183 71 80
183 71 80
183 71 80
183 71 80
183 71 80
183 71 80
183 71 80
184 71 80
184 71 80
184 71 80
184 71 80
184 71 80
185 72 80
184 71 80
184 72 80
185 72 80
185 72 80
185 72 80
185 72 80
185 72 80
185 72 80
185 72 80
185 72 80
186 72 80
186 72 80
186 72 80
182 202 0
183 203 0
182 202 0
185 204 0
184 203 0
185 204 0
185 204 0
185 204 0
185 204 0
183 203 0
187 205 0
184 203 0
185 203 0
187 205 0
186 204 0
187 205 0
185 204 0
184 203 0
187 204 0
184 203 0
185 203 0
185 204 0
185 203 0
185 203 0
184 203 0
185 203 0
184 203 0
184 203 0
185 203 0
182 202 0
183 203 0
185 204 0
184 203 0
182 202 0
182 202 0
184 203 0
183 202 0
183 202 0
184 203 0
183 202 0
184 203 0
183 202 0
183 202 0
182 202 0
185 203 0
182 202 0
184 203 0
182 202 0
181 202 0
181 201 0
184 203 0
181 201 0
182 202 0
181 201 0
183 202 0
182 202 0
183 202 0
181 201 0
180 201 0
182 202 0
181 201 0
181 201 0
180 201 0
181 201 0
180 201 0
180 201 0
180 201 0
180 201 0
179 200 0
179 200 0
180 201 0
180 201 0
179 200 0
179 200 0
178 200 0
180 201 0
179 200 0
181 201 0
178 200 0
179 200 0
178 200 0
178 200 0
180 201 0
179 201 0
178 199 0
178 200 0
178 200 0
180 201 0
179 200 0
178 199 0
179 200 0
180 201 0
178 200 0
177 199 0
177 199 0
176 199 0
178 200 0
177 199 0
178 200 0
177 199 0
177 199 0
177 199 0
177 199 0
178 200 0
178 200 0
177 199 0
178 200 0
177 199 0
174 196 0
173 195 0
169 191 0
169 192 0
168 191 0
165 187 0
157 181 0
158 182 0
158 180 0
161 184 0
160 183 0
151 174 0
156 180 0
151 175 0
146 170 0
129 154 0
149 173 0
135 159 0
142 166 0
137 160 0
143 167 0
132 156 0
137 160 0
138 160 0
140 163 0
145 168 0
143 165 0
148 170 0
146 167 0
139 159 0
145 165 0
160 180 0
159 177 0
145 163 0
144 158 0
194 211 215
215 232 255
215 232 255
215 232 255
215 232 255
215 232 255
215 232 255
215 232 255
215 232 255
215 232 255
139 160 193
54 89 130
54 90 130
58 94 144
58 94 146
57 94 146
54 92 140
55 93 145
57 95 145
55 94 138
57 95 151
59 96 152
55 93 150
57 96 150
57 96 150
58 97 152
57 95 157
57 95 154
55 94 150
58 97 157
59 98 161
59 98 162
58 97 157
59 97 160
57 96 154
58 96 155
58 97 157
59 98 161
57 96 151
57 97 152
60 98 162
54 94 145
57 95 156
57 96 152
58 97 160
60 98 159
57 96 157
58 96 160
57 96 157
56 96 153
57 95 153
58 97 160
58 96 157
57 96 157
56 96 153
57 96 156
58 97 160
56 95 150
60 98 161
58 96 155
56 95 149
57 97 154
57 95 155
58 95 157
59 97 162
57 95 158
57 96 153
56 94 152
59 98 163
58 96 160
59 97 159
58 96 155
57 96 154
59 97 160
59 96 159
59 97 158
58 95 156
57 95 153
57 95 154
56 94 151
57 93 154
58 96 156
59 96 161
57 96 156
57 94 152
58 92 154
59 95 158
56 92 147
57 94 153
58 92 152
55 88 148
57 95 154
59 94 158
58 92 154
58 91 153
57 90 149
57 88 147
57 84 144
56 86 145
59 93 157
56 87 147
55 84 142
56 82 144
147 164 197
215 232 255
215 232 255
215 232 255
215 232 255
215 232 255
215 232 255
215 232 255
215 232 255
215 232 255
202 191 211
187 72 80
185 72 80
183 71 80
183 71 80
182 71 80
181 71 80
181 71 80
178 70 80
172 68 78
159 64 76
161 64 75
157 63 75
162 65 77
159 64 76
156 63 75
158 63 76
166 66 78
175 69 80
175 69 80
176 70 80
176 70 80
176 70 80
176 70 80
175 70 80
176 70 80
175 70 80
176 70 80
175 70 80
175 70 80
176 70 80
175 70 80
175 70 80
175 70 80
175 70 80
176 70 80
175 70 80
175 70 80
175 70 80
175 70 80
175 70 80
175 70 80
175 70 80
175 70 80
176 70 80
175 70 80
176 70 80
176 70 80
176 70 80
176 70 80
176 70 80
176 70 80
176 70 80
176 70 80
176 70 80
176 70 80
176 70 80
177 70 80
177 70 80
177 70 80
177 70 80
177 70 80
177 70 80
177 70 80
178 70 80
177 70 80
177 70 80
178 70 80
178 70 80
178 70 80
178 70 80
178 70 80
178 70 80
178 70 80
178 70 80
178 70 80
179 70 80
179 70 80
179 70 80
179 70 80
179 71 80
179 71 80
179 71 80
179 71 80
179 71 80
180 71 80
180 71 80
180 71 80
180 71 80
180 71 80
180 71 80
180 71 80
180 71 80
181 71 80
180 71 80
181 71 80
181 71 80
181 71 80
182 71 80
181 71 80
182 71 80
182 71 80
181 71 80
181 71 80
182 71 80
182 71 80
182 71 80
182 71 80
182 71 80
183 71 80
182 71 80
182 71 80
183 71 80
183 71 80
183 71 80
183 71 80
183 71 80
183 71 80
183 71 80
184 71 80
184 71 80
184 71 80
184 71 80
184 71 80
184 71 80
184 71 80
184 72 80
185 72 80
184 71 80
184 72 80
185 72 80
185 72 80
185 72 80
185 72 80
185 72 80
185 72 80
185 72 80
186 72 80
186 72 80
186 72 80
186 72 80
186 72 80
187 72 80
187 72 80
179 201 0
183 203 0
181 202 0
181 202 0
184 203 0
183 203 0
185 204 0
182 202 0
183 203 0
184 203 0
183 203 0
183 203 0
188 205 0
184 203 0
186 204 0
185 204 0
186 204 0
185 203 0
185 203 0
187 204 0
187 205 0
183 203 0
185 204 0
186 204 0
184 203 0
186 204 0
185 204 0
185 204 0
185 204 0
185 203 0
185 203 0
184 203 0
184 203 0
184 203 0
186 204 0
184 203 0
184 203 0
183 202 0
184 203 0
184 203 0
183 203 0
183 203 0
183 202 0
182 202 0
184 203 0
184 203 0
184 203 0
181 202 0
182 202 0
183 203 0
181 201 0
181 201 0
184 203 0
183 202 0
180 201 0
183 202 0
180 201 0
183 203 0
183 202 0
181 201 0
181 202 0
182 202 0
183 202 0
183 203 0
181 202 0
182 202 0
180 201 0
180 201 0
181 201 0
181 202 0
180 201 0
181 201 0
181 201 0
181 202 0
181 202 0
182 202 0
180 201 0
180 201 0
179 200 0
180 201 0
181 201 0
179 200 0
179 200 0
179 200 0
180 201 0
178 200 0
178 200 0
181 201 0
179 200 0
180 201 0
178 200 0
179 200 0
180 201 0
178 200 0
178 200 0
178 200 0
178 200 0
178 200 0
178 200 0
180 201 0
179 200 0
178 200 0
179 200 0
178 200 0
178 200 0
179 200 0
178 200 0
177 198 0
172 194 0
173 194 0
169 191 0
165 187 0
165 187 0
161 184 0
166 188 0
154 177 0
160 181 0
156 179 0
156 179 0
156 179 0
141 164 0
150 173 0
144 168 0
145 168 0
146 170 0
136 159 0
131 155 0
135 158 0
139 163 0
142 166 0
125 149 0
126 149 0
131 155 0
137 160 0
140 163 0
132 154 0
131 152 0
145 166 0
141 161 0
146 166 0
151 169 0
157 175 0
156 173 0
156 171 92
214 231 254
215 232 255
215 232 255
215 232 255
215 232 255
215 232 255
215 232 255
215 232 255
206 223 246
57 92 133
56 93 138
55 91 136
54 92 132
57 94 147
57 94 146
58 95 149
58 96 151
58 96 150
57 95 149
56 94 150
57 95 150
58 96 155
57 96 149
58 97 158
57 96 149
56 94 148
57 96 153
55 95 143
55 94 143
58 96 154
55 95 143
56 95 152
56 95 150
57 96 157
58 97 159
58 97 155
58 96 156
57 96 150
58 97 158
59 96 163
59 97 158
58 97 156
57 96 154
57 97 155
58 97 156
58 97 158
58 96 155
59 97 158
57 96 154
57 96 153
56 95 151
57 95 154
54 94 144
58 97 157
56 95 153
58 96 159
56 95 151
56 94 151
59 98 164
56 95 151
59 97 158
57 96 155
57 95 152
58 97 158
58 97 160
56 94 150
57 96 157
57 96 155
58 97 160
56 94 145
58 94 160
55 92 148
59 97 163
58 97 160
58 95 155
56 94 150
58 95 155
59 94 155
57 93 153
58 97 159
57 93 148
58 94 156
55 93 147
58 94 155
56 92 151
57 93 150
57 93 150
57 95 156
57 92 147
56 90 148
58 90 150
58 90 153
56 92 148
57 89 147
57 89 148
59 93 155
58 91 152
57 89 149
55 87 143
55 84 138
57 84 139
56 81 141
72 94 146
204 220 244
215 232 255
215 232 255
215 232 255
215 232 255
215 232 255
215 232 255
215 232 255
213 228 251
191 98 108
186 72 80
185 72 80
184 71 80
183 71 80
181 71 80
179 70 80
166 65 76
153 61 73
138 56 68
140 57 70
135 55 69
129 53 67
130 54 69
139 56 70
144 58 70
135 55 69
145 58 71
159 63 75
162 65 77
168 67 78
176 70 80
177 70 80
176 70 80
177 70 80
176 70 80
176 70 80
176 70 80
176 70 80
176 70 80
177 70 80
176 70 80
176 70 80
176 70 80
176 70 80
176 70 80
176 70 80
176 70 80
176 70 80
176 70 80
176 70 80
176 70 80
177 70 80
176 70 80
177 70 80
176 70 80
177 70 80
177 70 80
177 70 80
177 70 80
177 70 80
177 70 80
177 70 80
177 70 80
177 70 80
177 70 80
177 70 80
177 70 80
177 70 80
178 70 80
178 70 80
178 70 80
178 70 80
178 70 80
178 70 80
178 70 80
178 70 80
178 70 80
179 70 80
179 70 80
179 71 80
179 70 80
179 70 80
179 70 80
179 70 80
179 71 80
180 71 80
179 71 80
180 71 80
180 71 80
180 71 80
180 71 80
180 71 80
180 71 80
180 71 80
180 71 80
180 71 80
180 71 80
181 71 80
181 71 80
181 71 80
181 71 80
181 71 80
181 71 80
181 71 80
181 71 80
181 71 80
182 71 80
182 71 80
182 71 80
182 71 80
182 71 80
183 71 80
182 71 80
182 71 80
182 71 80
183 71 80
183 71 80
183 71 80
183 71 80
183 71 80
183 71 80
184 71 80
184 71 80
184 71 80
184 71 80
184 71 80
184 71 80
184 71 80
184 71 80
184 71 80
184 72 80
185 72 80
184 72 80
185 72 80
185 72 80
185 72 80
185 72 80
185 72 80
185 72 80
185 72 80
186 72 80
186 72 80
186 72 80
186 72 80
186 72 80
186 72 80
186 72 80
187 72 80
187 72 80
187 72 80
187 72 80
187 72 80
187 72 80
182 203 0
179 201 0
182 203 0
183 203 0
179 201 0
183 203 0
182 202 0
183 203 0
185 204 0
183 203 0
184 203 0
183 203 0
182 203 0
186 204 0
183 203 0
186 204 0
181 202 0
184 203 0
187 205 0
183 203 0
184 203 0
186 204 0
182 202 0
185 203 0
183 202 0
186 204 0
184 203 0
184 203 0
185 204 0
185 204 0
185 203 0
186 204 0
185 203 0
186 204 0
185 204 0
185 204 0
184 203 0
185 203 0
185 204 0
185 204 0
184 203 0
183 202 0
184 203 0
182 202 0
185 203 0
184 203 0
184 203 0
183 202 0
184 203 0
185 203 0
183 202 0
183 202 0
183 203 0
184 203 0
183 203 0
183 202 0
184 203 0
183 203 0
182 202 0
182 202 0
183 202 0
183 202 0
182 202 0
181 201 0
181 201 0
182 202 0
182 202 0
181 201 0
182 202 0
181 201 0
180 201 0
181 201 0
181 202 0
180 201 0
180 201 0
180 201 0
179 200 0
181 201 0
180 201 0
181 201 0
181 201 0
180 201 0
180 201 0
181 201 0
181 201 0
180 201 0
181 201 0
179 200 0
180 201 0
179 200 0
179 200 0
179 200 0
180 201 0
180 201 0
180 201 0
179 200 0
179 200 0
179 200 0
179 200 0
179 200 0
179 200 0
179 200 0
179 200 0
178 200 0
179 200 0
178 199 0
177 198 0
176 196 0
173 193 0
175 197 0
169 192 0
168 189 0
164 185 0
168 190 0
159 181 0
157 180 0
163 185 0
152 175 0
140 163 0
152 176 0
151 174 0
149 173 0
141 164 0
140 164 0
137 161 0
129 153 0
135 158 0
128 151 0
125 149 0
127 151 0
125 148 0
132 156 0
132 156 0
128 150 0
132 155 0
133 154 0
129 151 0
138 160 0
135 155 0
137 156 0
144 163 0
145 162 0
146 165 0
148 166 0
189 205 193
215 232 255
215 232 255
215 232 255
215 232 255
215 232 255
215 232 255
215 232 255
157 176 202
58 94 140
55 93 134
54 91 141
57 94 148
55 93 136
58 95 151
57 94 151
58 95 149
57 95 152
57 95 147
57 95 148
57 96 150
60 97 159
57 95 149
56 95 151
58 97 154
56 95 152
58 96 158
58 96 158
58 95 156
59 97 158
57 95 151
56 94 151
56 95 150
57 96 154
56 95 150
56 96 151
55 96 149
57 96 149
59 98 163
58 97 158
58 96 158
57 96 153
57 96 152
58 96 155
57 97 157
57 96 152
57 95 153
58 97 155
55 95 146
57 96 154
58 97 160
56 96 153
58 97 158
57 95 155
59 98 163
60 98 167
57 97 155
57 96 156
58 96 160
56 96 151
58 96 158
59 96 157
58 97 157
57 97 155
57 96 155
59 96 162
59 98 163
57 96 155
57 96 155
58 97 159
57 95 155
57 97 152
60 97 162
56 94 149
56 94 154
57 94 156
58 95 156
57 95 151
56 93 151
57 96 156
57 95 153
58 95 158
56 96 154
56 92 146
59 95 159
57 94 153
58 92 152
58 93 154
56 92 149
58 93 158
59 95 159
57 89 144
55 90 144
56 91 147
58 89 148
57 91 151
56 88 147
58 89 150
55 87 144
59 88 150
58 87 148
58 82 142
55 78 136
162 178 206
215 232 255
215 232 255
215 232 255
215 232 255
215 232 255
215 232 255
215 232 255
203 180 198
188 72 80
186 72 80
185 72 80
183 71 80
183 71 80
175 69 78
163 64 75
142 57 69
126 51 65
104 43 58
110 46 62
98 41 57
102 43 59
109 46 62
116 49 65
110 46 60
129 53 67
128 53 68
149 60 73
140 57 70
156 62 75
172 68 79
175 69 80
177 70 80
177 70 80
177 70 80
177 70 80
177 70 80
177 70 80
177 70 80
177 70 80
177 70 80
177 70 80
177 70 80
177 70 80
177 70 80
177 70 80
177 70 80
177 70 80
177 70 80
177 70 80
177 70 80
177 70 80
177 70 80
177 70 80
177 70 80
177 70 80
178 70 80
178 70 80
178 70 80
178 70 80
178 70 80
178 70 80
178 70 80
178 70 80
178 70 80
178 70 80
178 70 80
178 70 80
179 70 80
179 70 80
179 70 80
179 70 80
179 70 80
179 70 80
179 70 80
179 71 80
179 71 80
180 71 80
179 71 80
180 71 80
180 71 80
180 71 80
180 71 80
180 71 80
180 71 80
180 71 80
180 71 80
180 71 80
180 71 80
181 71 80
181 71 80
181 71 80
181 71 80
181 71 80
181 71 80
181 71 80
181 71 80
181 71 80
182 71 80
182 71 80
182 71 80
182 71 80
182 71 80
182 71 80
182 71 80
182 71 80
183 71 80
183 71 80
183 71 80
183 71 80
183 71 80
183 71 80
183 71 80
183 71 80
184 71 80
183 71 80
183 71 80
183 71 80
184 71 80
184 71 80
184 71 80
184 71 80
184 71 80
184 71 80
184 72 80
184 71 80
184 72 80
184 71 80
185 72 80
185 72 80
185 72 80
185 72 80
185 72 80
185 72 80
185 72 80
185 72 80
186 72 80
186 72 80
186 72 80
186 72 80
186 72 80
186 72 80
186 72 80
187 72 80
186 72 80
187 72 80
187 72 80
187 72 80
187 72 80
187 72 80
187 72 80
188 72 80
188 72 80
182 202 0
180 202 0
181 202 0
183 203 0
181 202 0
183 203 0
183 203 0
185 204 0
183 203 0
184 204 0
182 203 0
183 203 0
185 204 0
184 203 0
180 202 0
183 203 0
185 204 0
179 201 0
182 203 0
185 204 0
183 203 0
181 202 0
185 204 0
184 203 0
185 204 0
179 201 0
184 203 0
183 203 0
183 203 0
186 204 0
186 204 0
184 203 0
184 203 0
185 204 0
187 204 0
186 204 0
186 204 0
185 204 0
186 204 0
186 204 0
184 203 0
185 203 0
185 204 0
185 203 0
184 203 0
186 204 0
185 204 0
183 203 0
183 203 0
184 203 0
183 203 0
185 203 0
184 203 0
184 203 0
186 204 0
184 203 0
183 203 0
181 201 0
184 203 0
184 203 0
182 202 0
182 202 0
184 203 0
181 202 0
182 202 0
183 202 0
183 202 0
182 202 0
183 202 0
183 202 0
182 202 0
183 202 0
182 202 0
181 202 0
182 202 0
183 202 0
181 202 0
183 203 0
183 202 0
181 201 0
181 201 0
182 202 0
182 202 0
180 201 0
183 202 0
183 202 0
180 201 0
180 201 0
181 201 0
181 201 0
181 201 0
180 201 0
180 201 0
181 201 0
180 201 0
181 201 0
180 201 0
180 201 0
181 201 0
180 201 0
179 200 0
178 200 0
180 201 0
180 201 0
177 199 0
179 200 0
177 198 0
173 194 0
169 188 0
172 192 0
177 198 0
166 187 0
165 185 0
162 184 0
159 180 0
157 178 0
156 178 0
153 174 0
144 168 0
146 169 0
146 168 0
142 165 0
136 160 0
142 165 0
131 155 0
132 155 0
120 144 0
123 146 0
120 144 0
123 147 0
121 145 0
124 147 0
118 142 0
110 133 0
118 140 0
139 161 0
124 145 0
138 158 0
138 159 0
128 147 0
132 151 0
140 160 0
147 164 0
154 171 0
154 170 105
213 230 252
216 232 255
216 232 255
216 232 255
215 232 255
215 232 255
213 230 253
77 106 149
54 91 131
54 91 136
56 92 145
54 92 135
55 94 141
55 92 134
55 93 142
54 91 134
57 94 152
58 96 159
58 96 154
56 93 143
57 96 153
56 94 138
56 95 148
57 95 148
57 96 149
58 96 152
57 97 154
56 95 146
57 96 153
56 95 145
57 95 153
56 96 150
57 96 154
58 97 159
57 96 153
56 96 150
60 98 164
59 97 160
58 97 159
57 96 153
55 94 146
57 96 151
56 96 150
57 97 154
58 96 154
55 95 145
57 97 158
57 97 155
57 97 154
58 97 160
58 97 157
58 97 157
58 97 160
58 96 155
59 98 160
59 96 159
57 94 152
58 97 156
58 95 156
58 98 157
57 96 154
55 94 150
58 95 154
59 97 160
60 98 163
58 96 157
58 96 158
57 95 154
57 96 156
54 92 143
57 95 156
58 95 160
58 95 156
57 94 151
55 93 144
56 95 148
59 95 158
58 94 155
57 96 154
57 94 155
59 96 158
56 93 151
55 93 147
56 93 147
56 93 146
56 92 148
57 92 150
57 92 149
56 91 146
54 88 138
58 93 158
58 90 149
57 95 154
57 89 149
59 93 156
59 90 154
55 87 142
56 87 145
55 87 143
56 87 142
55 84 138
56 79 133
83 103 153
212 229 252
215 232 255
216 232 255
216 232 255
216 232 255
216 232 255
215 231 254
190 105 115
187 72 80
186 72 80
185 72 80
184 71 80
168 66 76
147 58 69
132 53 65
101 42 56
86 37 53
76 33 51
73 33 52
64 30 51
69 31 50
71 33 54
81 37 56
87 39 58
103 44 59
101 43 60
126 52 67
133 54 69
150 61 73
153 61 74
168 67 78
175 69 79
178 70 80
178 70 80
178 70 80
178 70 80
178 70 80
178 70 80
178 70 80
178 70 80
178 70 80
178 70 80
178 70 80
178 70 80
178 70 80
178 70 80
178 70 80
178 70 80
178 70 80
178 70 80
179 70 80
179 70 80
178 70 80
179 70 80
179 70 80
179 70 80
179 70 80
179 70 80
179 70 80
179 70 80
179 70 80
179 71 80
179 71 80
179 71 80
179 71 80
179 71 80
179 71 80
180 71 80
179 71 80
180 71 80
180 71 80
180 71 80
180 71 80
180 71 80
180 71 80
180 71 80
180 71 80
180 71 80
181 71 80
181 71 80
180 71 80
181 71 80
181 71 80
181 71 80
181 71 80
181 71 80
181 71 80
181 71 80
182 71 80
181 71 80
182 71 80
182 71 80
182 71 80
182 71 80
182 71 80
182 71 80
182 71 80
182 71 80
182 71 80
182 71 80
182 71 80
183 71 80
183 71 80
183 71 80
183 71 80
183 71 80
183 71 80
183 71 80
184 71 80
183 71 80
184 71 80
184 71 80
184 71 80
184 71 80
184 71 80
184 71 80
184 72 80
184 71 80
185 72 80
185 72 80
185 72 80
185 72 80
185 72 80
185 72 80
185 72 80
185 72 80
185 72 80
185 72 80
185 72 80
186 72 80
186 72 80
186 72 80
186 72 80
186 72 80
186 72 80
186 72 80
186 72 80
186 72 80
186 72 80
187 72 80
187 72 80
187 72 80
187 72 80
187 72 80
187 72 80
187 72 80
188 72 80
188 72 80
187 72 80
188 72 80
188 72 80
188 72 80
184 204 0
181 202 0
182 202 0
181 202 0
180 202 0
181 202 0
181 202 0
183 203 0
180 202 0
183 203 0
182 202 0
179 201 0
183 203 0
182 202 0
184 203 0
181 202 0
180 202 0
184 203 0
182 202 0
183 203 0
184 203 0
184 203 0
186 204 0
181 202 0
183 203 0
182 202 0
184 203 0
187 205 0
183 203 0
184 203 0
185 204 0
184 203 0
184 203 0
185 204 0
184 203 0
183 203 0
185 204 0
184 203 0
186 204 0
185 204 0
185 204 0
185 204 0
185 204 0
185 204 0
184 203 0
184 203 0
187 204 0
185 204 0
186 204 0
185 203 0
185 203 0
186 204 0
184 203 0
186 204 0
184 203 0
186 204 0
184 203 0
183 202 0
185 203 0
183 202 0
185 204 0
183 203 0
184 203 0
182 202 0
184 203 0
183 202 0
183 203 0
185 203 0
183 203 0
185 204 0
183 202 0
184 203 0
182 202 0
184 203 0
182 202 0
183 202 0
183 202 0
182 202 0
184 203 0
182 202 0
181 202 0
181 201 0
183 203 0
183 202 0
181 202 0
182 202 0
181 201 0
183 202 0
182 202 0
181 201 0
181 201 0
183 202 0
182 202 0
182 202 0
182 202 0
182 202 0
182 202 0
182 202 0
182 202 0
180 201 0
181 201 0
180 201 0
180 201 0
180 201 0
180 199 0
179 199 0
176 195 0
175 192 0
174 193 0
170 191 0
168 189 0
168 189 0
165 185 0
158 177 0
160 181 0
154 175 0
147 169 0
146 168 0
147 170 0
143 166 0
140 163 0
143 165 0
132 155 0
133 156 0
132 155 0
131 154 0
126 149 0
120 144 0
124 148 0
123 147 0
115 139 0
117 141 0
115 139 0
125 148 0
125 148 0
118 141 0
124 146 0
134 155 0
125 146 0
136 155 0
134 153 0
150 169 0
139 157 0
140 159 0
150 168 0
191 209 207
216 233 255
216 233 255
216 233 255
216 232 255
216 232 255
174 192 220
54 89 131
56 92 140
54 91 132
57 93 144
57 94 148
56 94 142
56 93 137
55 94 140
56 94 147
57 95 148
58 96 155
55 95 144
56 94 145
56 94 153
56 94 146
58 95 155
58 96 155
59 97 159
56 94 147
58 96 154
58 96 152
59 98 160
59 97 159
58 96 157
55 95 148
57 96 150
57 96 150
57 96 152
55 95 146
55 95 147
56 96 151
58 97 157
54 93 148
56 95 148
58 97 159
54 94 148
57 96 154
57 96 155
57 96 153
55 95 146
58 97 158
55 94 147
59 97 162
55 95 148
57 96 154
58 97 158
54 93 146
57 96 154
56 96 152
57 96 153
57 96 156
56 95 151
57 95 154
56 96 150
56 95 150
58 97 158
57 96 158
56 94 153
58 96 159
55 94 147
58 96 156
59 97 163
57 93 153
57 95 154
58 96 157
58 95 157
57 95 154
59 97 159
56 95 152
57 95 151
58 94 155
57 94 155
57 94 153
56 90 147
56 92 149
57 95 152
58 94 155
56 91 147
56 90 147
59 96 158
57 92 152
60 95 161
56 90 149
56 88 144
55 90 143
56 90 146
59 94 158
57 89 147
56 90 148
56 87 144
56 87 150
57 88 145
55 85 143
55 81 138
57 80 138
52 74 126
178 193 219
216 232 255
216 233 255
216 233 255
216 233 255
216 233 255
207 201 220
189 72 80
187 72 80
186 72 80
185 72 80
169 66 76
133 53 65
122 48 60
80 34 51
54 25 45
51 26 47
51 25 46
51 25 45
52 26 47
52 27 47
52 26 46
52 27 48
56 29 51
71 33 52
79 36 56
97 42 58
108 46 62
128 53 67
133 54 68
151 61 73
162 64 75
175 69 79
179 70 80
179 70 80
179 70 80
179 70 80
179 70 80
179 71 80
179 71 80
179 70 80
179 71 80
179 71 80
179 70 80
179 71 80
179 71 80
179 70 80
179 70 80
180 71 80
179 71 80
179 71 80
180 71 80
180 71 80
180 71 80
180 71 80
180 71 80
180 71 80
180 71 80
180 71 80
180 71 80
180 71 80
180 71 80
180 71 80
180 71 80
180 71 80
180 71 80
180 71 80
181 71 80
181 71 80
181 71 80
181 71 80
181 71 80
181 71 80
181 71 80
181 71 80
181 71 80
181 71 80
181 71 80
181 71 80
182 71 80
181 71 80
182 71 80
182 71 80
182 71 80
182 71 80
182 71 80
182 71 80
182 71 80
182 71 80
182 71 80
183 71 80
183 71 80
183 71 80
183 71 80
183 71 80
183 71 80
183 71 80
183 71 80
183 71 80
183 71 80
183 71 80
183 71 80
183 71 80
184 71 80
184 71 80
184 71 80
184 71 80
184 71 80
184 71 80
185 72 80
184 71 80
185 72 80
185 72 80
185 72 80
184 72 80
185 72 80
185 72 80
185 72 80
185 72 80
185 72 80
185 72 80
186 72 80
185 72 80
185 72 80
186 72 80
186 72 80
186 72 80
186 72 80
186 72 80
186 72 80
186 72 80
186 72 80
187 72 80
186 72 80
186 72 80
187 72 80
187 72 80
187 72 80
187 72 80
187 72 80
187 72 80
187 72 80
187 72 80
187 72 80
188 72 80
188 72 80
188 72 80
188 72 80
188 72 80
188 72 80
188 72 80
189 72 80
184 203 0
179 201 0
176 200 0
181 202 0
184 203 0
182 203 0
183 203 0
177 200 0
180 202 0
180 202 0
182 203 0
183 203 0
180 202 0
181 202 0
183 203 0
181 202 0
183 203 0
185 204 0
186 204 0
184 203 0
179 201 0
186 204 0
183 203 0
181 202 0
182 202 0
184 203 0
185 203 0
182 202 0
181 202 0
185 204 0
180 202 0
182 202 0
184 203 0
186 204 0
183 203 0
183 203 0
183 203 0
183 203 0
184 203 0
183 203 0
187 205 0
185 204 0
185 204 0
185 203 0
183 203 0
185 204 0
185 204 0
184 203 0
186 204 0
184 203 0
184 203 0
185 204 0
186 204 0
185 203 0
185 204 0
186 204 0
187 205 0
186 204 0
185 204 0
184 203 0
184 203 0
184 203 0
183 202 0
185 204 0
184 203 0
182 202 0
183 202 0
186 204 0
184 203 0
183 202 0
184 203 0
183 202 0
183 202 0
185 203 0
185 203 0
183 203 0
184 203 0
182 202 0
184 203 0
184 203 0
183 203 0
182 202 0
184 203 0
184 203 0
183 202 0
183 202 0
183 203 0
183 202 0
181 201 0
182 202 0
181 201 0
183 202 0
182 202 0
182 202 0
183 202 0
183 202 0
182 202 0
181 201 0
181 201 0
184 203 0
182 202 0
183 202 0
182 202 0
182 201 0
180 200 0
177 196 0
175 194 0
172 192 0
173 188 0
172 192 0
170 188 0
166 186 0
166 185 0
163 181 0
155 176 0
151 171 0
152 173 0
151 171 0
138 160 0
145 168 0
139 162 0
139 162 0
137 160 0
135 158 0
134 157 0
121 144 0
123 147 0
120 144 0
114 138 0
108 131 0
113 137 0
116 139 0
110 134 0
100 124 0
112 134 0
112 134 0
121 143 0
115 136 0
118 139 0
110 130 0
117 137 0
134 153 0
130 149 0
142 162 0
145 161 0
162 180 130
216 233 255
216 233 255
216 233 255
216 233 255
216 233 255
130 151 181
51 86 112
58 95 144
56 93 142
54 90 143
57 93 143
54 92 137
56 95 149
57 96 151
57 94 142
56 95 150
58 97 153
56 94 146
55 94 146
59 97 158
57 95 150
57 96 150
57 96 153
57 96 150
57 95 154
56 95 148
56 95 147
56 95 149
57 96 153
55 95 142
54 94 141
57 97 151
57 96 155
58 97 154
56 95 151
58 96 158
55 95 146
54 94 146
58 96 157
58 97 155
60 99 163
57 96 154
55 95 148
57 96 156
57 96 154
58 97 156
57 95 150
57 96 151
56 95 153
56 94 152
58 97 157
57 96 153
57 96 154
57 95 150
57 96 153
58 97 158
57 96 158
60 98 162
57 96 155
58 96 153
57 96 152
58 96 158
58 96 155
57 95 153
58 97 157
57 96 155
57 94 154
58 95 157
58 95 156
56 95 150
57 96 158
57 94 154
57 94 152
57 94 154
57 95 153
56 94 149
57 93 151
58 96 158
56 94 149
56 95 149
56 93 150
56 91 149
56 94 148
57 91 149
58 93 153
56 91 149
57 93 152
58 92 156
58 94 154
58 92 154
55 90 143
54 89 141
57 89 147
56 88 144
54 87 143
56 89 149
57 86 145
55 84 139
54 79 130
55 81 136
56 80 137
54 77 132
125 141 179
216 233 255
216 233 255
216 233 255
216 233 255
216 233 255
192 124 136
188 72 80
187 72 80
185 72 80
167 65 75
136 54 65
93 39 54
58 26 45
50 23 42
49 23 42
50 24 43
50 24 43
51 26 47
52 26 47
49 26 45
51 25 46
52 27 47
51 27 47
53 28 50
52 27 48
69 33 53
81 37 55
103 44 61
136 56 69
147 59 72
162 64 76
172 68 78
180 71 80
180 71 80
180 71 80
180 71 80
180 71 80
180 71 80
180 71 80
180 71 80
180 71 80
180 71 80
180 71 80
180 71 80
180 71 80
180 71 80
180 71 80
180 71 80
180 71 80
181 71 80
181 71 80
180 71 80
181 71 80
181 71 80
180 71 80
181 71 80
181 71 80
181 71 80
181 71 80
181 71 80
181 71 80
181 71 80
181 71 80
181 71 80
181 71 80
181 71 80
181 71 80
182 71 80
181 71 80
182 71 80
182 71 80
182 71 80
182 71 80
182 71 80
182 71 80
182 71 80
182 71 80
183 71 80
182 71 80
182 71 80
182 71 80
183 71 80
182 71 80
183 71 80
183 71 80
183 71 80
183 71 80
183 71 80
183 71 80
183 71 80
183 71 80
183 71 80
184 71 80
184 71 80
184 72 80
184 71 80
184 71 80
184 71 80
184 71 80
184 71 80
184 71 80
184 72 80
185 72 80
185 72 80
185 72 80
185 72 80
185 72 80
185 72 80
185 72 80
185 72 80
185 72 80
185 72 80
185 72 80
186 72 80
186 72 80
186 72 80
186 72 80
186 72 80
186 72 80
186 72 80
186 72 80
186 72 80
187 72 80
186 72 80
186 72 80
187 72 80
187 72 80
187 72 80
187 72 80
187 72 80
187 72 80
187 72 80
187 72 80
187 72 80
187 72 80
188 72 80
188 72 80
187 72 80
188 72 80
187 72 80
188 72 80
188 72 80
188 72 80
188 72 80
188 72 80
188 72 80
189 72 80
189 72 80
189 72 80
189 72 80
189 72 80
178 201 0
180 202 0
181 202 0
182 203 0
180 202 0
183 203 0
179 201 0
179 201 0
182 203 0
178 201 0
184 204 0
182 203 0
179 201 0
178 201 0
178 201 0
180 202 0
180 201 0
180 202 0
184 204 0
178 201 0
181 202 0
183 203 0
183 203 0
181 202 0
185 204 0
185 204 0
183 203 0
181 202 0
186 204 0
181 202 0
181 202 0
183 203 0
182 203 0
184 203 0
182 202 0
184 203 0
184 203 0
182 202 0
183 203 0
184 203 0
185 204 0
183 202 0
184 203 0
182 202 0
184 203 0
183 203 0
184 203 0
183 203 0
184 204 0
185 204 0
184 203 0
186 204 0
185 204 0
184 203 0
185 203 0
186 204 0
186 204 0
185 204 0
186 204 0
187 204 0
184 203 0
185 203 0
185 203 0
186 204 0
185 203 0
186 204 0
183 202 0
186 204 0
185 204 0
184 203 0
184 203 0
184 203 0
184 203 0
185 204 0
187 204 0
186 204 0
184 203 0
185 204 0
185 203 0
182 202 0
183 203 0
184 203 0
182 202 0
184 203 0
185 204 0
184 203 0
183 202 0
184 203 0
183 203 0
184 203 0
183 202 0
182 202 0
182 202 0
182 202 0
183 203 0
184 203 0
184 203 0
182 202 0
182 202 0
184 203 0
183 202 0
182 202 0
182 199 0
182 202 0
180 197 0
176 192 0
177 194 0
173 192 0
165 182 0
173 192 0
166 187 0
162 182 0
165 184 0
162 181 0
154 175 0
156 174 0
146 164 0
145 166 0
141 161 0
146 167 0
140 162 0
135 156 0
129 152 0
133 156 0
119 142 0
131 155 0
113 137 0
109 133 0
100 125 0
97 122 0
110 133 0
113 137 0
106 130 0
100 123 0
101 125 0
106 128 0
98 121 0
113 135 0
107 128 0
127 147 0
104 124 0
114 132 0
125 145 0
125 143 0
146 166 0
141 159 0
206 223 236
216 233 255
216 233 255
216 233 255
214 231 254
57 91 128
55 91 135
56 93 137
55 92 131
56 92 140
56 94 143
56 94 143
59 95 155
54 92 140
55 93 140
54 93 138
55 94 147
57 95 148
56 95 146
57 95 153
56 94 146
56 94 150
56 95 148
54 94 142
56 95 145
58 97 154
55 95 145
57 96 154
57 96 154
56 95 145
57 96 149
57 96 150
55 95 150
54 94 143
57 96 156
54 93 143
59 96 157
57 95 153
55 95 147
57 96 154
57 96 154
53 94 140
56 95 150
57 96 156
58 97 155
55 96 150
57 96 154
57 95 155
57 96 155
58 96 156
59 98 159
56 96 153
54 94 144
56 94 151
57 96 155
57 96 157
58 96 155
56 94 148
57 95 152
57 96 153
57 96 157
59 97 162
56 94 152
57 96 158
58 96 156
58 96 156
57 95 153
56 95 151
59 97 161
59 96 157
58 96 155
57 95 157
57 95 154
57 95 154
57 93 152
56 93 148
55 94 146
55 94 144
57 92 148
58 96 158
57 92 149
56 95 155
57 93 150
58 94 155
53 89 136
57 94 153
58 93 153
59 94 158
56 94 154
54 90 143
58 93 153
56 90 146
53 82 128
57 89 150
56 91 151
56 88 141
57 89 147
56 84 140
53 82 132
56 84 142
56 78 136
52 72 120
73 91 135
209 225 248
216 233 255
216 233 255
216 233 255
209 210 231
188 72 80
189 72 80
187 72 80
168 65 75
129 51 63
94 38 51
53 26 45
47 22 40
48 23 42
49 23 41
49 23 42
51 25 44
50 25 45
50 25 44
48 24 43
51 26 46
51 27 48
51 27 48
51 26 46
52 27 48
52 26 47
58 31 52
80 36 55
112 47 62
132 54 68
151 61 72
162 64 75
167 66 77
181 71 80
181 71 80
181 71 80
181 71 80
181 71 80
181 71 80
181 71 80
181 71 80
181 71 80
181 71 80
181 71 80
181 71 80
181 71 80
181 71 80
182 71 80
182 71 80
181 71 80
182 71 80
181 71 80
182 71 80
181 71 80
182 71 80
182 71 80
181 71 80
182 71 80
182 71 80
182 71 80
182 71 80
182 71 80
182 71 80
182 71 80
182 71 80
182 71 80
182 71 80
183 71 80
183 71 80
183 71 80
183 71 80
183 71 80
183 71 80
183 71 80
183 71 80
183 71 80
183 71 80
183 71 80
183 71 80
183 71 80
183 71 80
184 71 80
184 71 80
183 71 80
184 71 80
184 71 80
184 71 80
184 71 80
184 71 80
184 71 80
184 71 80
184 71 80
185 72 80
185 72 80
185 72 80
185 72 80
185 72 80
185 72 80
185 72 80
185 72 80
185 72 80
185 72 80
185 72 80
185 72 80
185 72 80
185 72 80
186 72 80
186 72 80
186 72 80
186 72 80
186 72 80
186 72 80
186 72 80
186 72 80
187 72 80
186 72 80
187 72 80
187 72 80
186 72 80
187 72 80
186 72 80
187 72 80
187 72 80
187 72 80
187 72 80
187 72 80
187 72 80
188 72 80
187 72 80
188 72 80
188 72 80
188 72 80
188 72 80
188 72 80
188 72 80
188 72 80
188 72 80
188 72 80
188 72 80
188 72 80
188 72 80
188 72 80
189 72 80
189 72 80
189 72 80
189 72 80
189 72 80
189 72 80
189 72 80
190 73 80
189 72 80
178 201 0
181 202 0
181 202 0
182 203 0
181 202 0
179 201 0
182 202 0
179 201 0
179 201 0
176 200 0
177 200 0
178 201 0
183 203 0
182 203 0
180 202 0
178 201 0
174 199 0
179 201 0
183 203 0
176 200 0
181 202 0
182 203 0
180 201 0
179 201 0
182 203 0
182 202 0
184 203 0
184 203 0
184 204 0
177 200 0
181 202 0
177 200 0
181 202 0
181 202 0
182 202 0
182 202 0
180 201 0
182 202 0
186 204 0
185 204 0
183 203 0
184 203 0
182 202 0
180 201 0
185 204 0
181 202 0
184 203 0
184 203 0
184 203 0
180 202 0
180 202 0
182 202 0
185 204 0
183 203 0
181 202 0
183 203 0
183 203 0
182 202 0
183 203 0
181 202 0
184 203 0
187 205 0
184 203 0
185 204 0
185 203 0
184 203 0
183 203 0
186 204 0
185 204 0
185 204 0
185 204 0
183 203 0
186 204 0
187 204 0
185 203 0
185 203 0
185 204 0
184 203 0
183 203 0
186 204 0
185 203 0
186 204 0
185 203 0
187 204 0
184 203 0
184 203 0
184 203 0
184 203 0
184 203 0
184 203 0
185 203 0
186 204 0
183 202 0
185 203 0
184 203 0
185 203 0
183 202 0
183 202 0
183 203 0
182 202 0
184 203 0
182 200 0
183 202 0
181 200 0
180 199 0
177 195 0
175 192 0
175 189 0
170 188 0
169 187 0
169 185 0
160 176 0
157 177 0
158 178 0
156 175 0
156 176 0
150 169 0
151 171 0
142 162 0
137 159 0
133 156 0
138 158 0
133 155 0
119 142 0
127 150 0
115 138 0
99 124 0
105 129 0
105 129 0
110 134 0
107 131 0
106 130 0
98 120 0
94 117 0
105 127 0
89 113 0
92 115 0
96 119 0
103 125 0
112 132 0
117 137 0
105 124 0
122 141 0
120 140 0
138 156 0
149 166 0
175 193 173
217 233 255
217 233 255
217 233 255
181 198 221
53 88 125
51 87 118
52 90 119
54 91 128
55 92 137
53 90 129
54 92 137
55 94 140
57 94 142
54 92 140
55 94 145
56 95 147
57 95 149
56 95 150
56 94 147
55 94 144
57 96 152
54 94 142
55 93 147
57 96 149
55 94 147
56 94 149
55 95 148
55 95 143
58 96 158
59 96 160
58 96 154
57 95 152
55 96 147
57 96 153
55 95 145
59 97 159
56 95 150
55 94 150
56 95 149
53 94 141
56 96 152
58 97 156
56 94 149
56 95 149
55 95 149
54 94 142
57 96 151
56 94 149
56 95 150
58 96 157
55 94 148
57 95 153
57 95 155
56 95 149
55 95 148
55 95 149
57 95 152
55 94 147
57 95 154
59 97 161
57 96 154
55 94 148
57 95 154
56 94 147
58 96 156
57 96 152
57 94 151
57 95 153
56 94 150
57 94 151
58 96 155
58 96 155
59 95 156
57 95 154
59 96 160
54 93 141
57 95 152
55 93 146
57 94 153
58 95 157
56 93 150
56 94 150
58 93 151
57 92 149
54 89 140
56 91 142
55 89 142
55 90 147
56 91 145
57 90 150
56 89 141
56 87 143
55 89 141
57 89 153
56 87 145
55 84 136
55 88 147
54 79 127
54 87 145
52 75 125
55 78 132
51 70 120
174 188 211
217 233 255
217 233 255
217 233 255
198 169 185
190 73 80
189 72 80
187 72 80
148 58 68
97 39 51
53 23 39
48 22 40
47 22 40
49 24 43
48 23 41
48 23 42
48 23 41
50 23 42
50 25 43
50 25 44
52 26 45
50 26 43
52 27 46
52 27 48
51 27 46
51 28 47
54 28 51
55 30 50
89 40 55
116 48 62
130 53 67
151 60 72
166 66 76
172 67 78
182 71 80
182 71 80
182 71 80
182 71 80
182 71 80
182 71 80
182 71 80
182 71 80
182 71 80
182 71 80
182 71 80
182 71 80
182 71 80
182 71 80
182 71 80
182 71 80
182 71 80
183 71 80
182 71 80
182 71 80
183 71 80
182 71 80
182 71 80
183 71 80
183 71 80
183 71 80
183 71 80
183 71 80
183 71 80
183 71 80
183 71 80
183 71 80
184 71 80
183 71 80
184 71 80
183 71 80
183 71 80
184 71 80
184 71 80
184 71 80
184 71 80
184 71 80
184 71 80
184 71 80
184 71 80
184 71 80
185 72 80
184 71 80
185 72 80
185 72 80
184 72 80
185 72 80
185 72 80
185 72 80
185 72 80
185 72 80
185 72 80
185 72 80
185 72 80
185 72 80
185 72 80
186 72 80
186 72 80
186 72 80
186 72 80
186 72 80
186 72 80
186 72 80
186 72 80
186 72 80
186 72 80
186 72 80
187 72 80
186 72 80
186 72 80
187 72 80
187 72 80
186 72 80
187 72 80
187 72 80
187 72 80
187 72 80
187 72 80
187 72 80
187 72 80
187 72 80
188 72 80
188 72 80
188 72 80
188 72 80
188 72 80
188 72 80
188 72 80
188 72 80
188 72 80
188 72 80
188 72 80
189 72 80
188 72 80
188 72 80
188 72 80
189 72 80
189 72 80
189 72 80
189 72 80
189 72 80
189 72 80
189 72 80
189 72 80
189 72 80
189 72 80
190 73 80
190 73 80
190 73 80
189 72 80
190 73 80
190 73 80
173 199 0
181 202 0
177 201 0
179 201 0
180 202 0
181 202 0
180 201 0
177 200 0
178 201 0
183 203 0
176 200 0
179 201 0
176 200 0
181 202 0
184 204 0
177 201 0
183 203 0
183 203 0
180 201 0
182 203 0
184 203 0
176 200 0
178 201 0
175 199 0
182 202 0
182 203 0
179 201 0
182 202 0
177 200 0
186 204 0
180 202 0
180 202 0
179 201 0
184 204 0
182 203 0
183 203 0
182 203 0
181 202 0
178 201 0
181 202 0
183 203 0
182 202 0
184 204 0
182 203 0
182 202 0
181 202 0
181 202 0
182 202 0
183 203 0
182 203 0
179 201 0
183 203 0
182 202 0
183 203 0
186 204 0
184 204 0
180 202 0
182 202 0
184 203 0
181 202 0
183 203 0
185 203 0
181 202 0
182 202 0
182 202 0
182 202 0
183 203 0
184 203 0
183 203 0
184 203 0
184 203 0
185 204 0
184 203 0
184 203 0
183 203 0
184 203 0
182 202 0
185 203 0
183 203 0
186 204 0
183 203 0
184 203 0
185 204 0
185 203 0
186 204 0
187 205 0
185 203 0
185 204 0
185 204 0
186 204 0
185 204 0
185 203 0
184 203 0
184 203 0
184 203 0
186 204 0
184 203 0
185 203 0
184 203 0
185 203 0
184 202 0
185 202 0
183 201 0
183 199 0
175 190 0
180 195 0
175 191 0
176 194 0
172 190 0
166 183 0
162 176 0
161 180 0
161 178 0
157 175 0
162 180 0
146 164 0
154 174 0
142 161 0
140 162 0
140 162 0
148 168 0
134 156 0
128 150 0
116 138 0
128 150 0
119 142 0
115 139 0
114 138 0
104 128 0
92 116 0
91 116 0
91 116 0
95 119 0
87 111 0
87 111 0
92 115 0
90 114 0
83 104 0
106 127 0
107 129 0
113 133 0
99 118 0
122 140 0
113 132 0
127 146 0
132 152 0
148 168 95
217 233 255
217 233 255
217 233 255
152 170 195
50 86 123
56 91 133
54 90 135
54 91 132
56 94 139
55 93 139
53 92 133
55 93 139
54 92 138
56 95 151
56 95 147
56 95 147
54 94 143
57 94 149
57 96 151
53 92 137
54 93 140
55 95 141
59 97 159
57 96 152
58 97 159
57 96 151
58 97 153
56 94 147
56 95 145
57 97 152
56 95 150
56 95 149
57 96 153
55 95 145
57 96 152
56 95 148
54 94 143
55 93 144
56 95 148
56 96 147
55 95 150
57 96 154
56 95 152
55 95 147
55 95 147
56 95 152
56 95 154
57 97 155
57 96 155
56 96 151
58 97 155
54 93 144
59 96 161
58 97 153
57 96 152
55 95 150
57 96 149
57 96 153
57 95 153
58 96 158
58 96 155
54 93 143
58 97 158
57 96 152
57 96 155
56 94 148
56 94 149
56 94 150
57 94 151
55 93 147
55 94 147
58 97 159
55 94 145
58 95 153
57 95 154
54 93 144
55 92 144
57 95 153
56 94 149
57 93 150
55 91 146
55 94 145
56 94 149
54 91 140
57 93 153
57 93 151
56 92 144
56 89 146
57 91 150
57 89 146
55 89 142
58 91 150
54 84 132
57 91 148
57 92 154
53 83 135
58 89 152
56 86 142
54 80 132
55 80 136
52 75 124
52 74 124
139 155 184
217 233 255
217 233 255
217 233 255
191 109 120
190 73 80
189 72 80
150 58 69
95 38 50
47 22 40
45 20 37
47 20 36
45 19 36
46 21 38
46 21 37
49 23 42
47 20 36
48 23 40
49 23 41
47 23 39
49 24 42
50 24 41
49 25 42
50 25 44
52 27 47
52 27 48
51 27 47
52 28 48
63 31 51
91 40 56
114 48 62
136 55 66
159 63 74
170 67 76
182 71 80
183 71 80
183 71 80
183 71 80
183 71 80
183 71 80
183 71 80
183 71 80
183 71 80
183 71 80
183 71 80
183 71 80
183 71 80
183 71 80
183 71 80
183 71 80
184 71 80
184 71 80
183 71 80
183 71 80
184 71 80
183 71 80
184 71 80
184 71 80
184 71 80
184 71 80
184 71 80
184 71 80
184 71 80
185 72 80
184 72 80
185 72 80
184 72 80
184 71 80
185 72 80
184 72 80
185 72 80
184 71 80
185 72 80
185 72 80
185 72 80
185 72 80
185 72 80
185 72 80
185 72 80
185 72 80
185 72 80
186 72 80
185 72 80
185 72 80
186 72 80
186 72 80
186 72 80
186 72 80
186 72 80
186 72 80
186 72 80
186 72 80
186 72 80
186 72 80
187 72 80
187 72 80
186 72 80
186 72 80
186 72 80
186 72 80
187 72 80
187 72 80
187 72 80
187 72 80
187 72 80
187 72 80
187 72 80
187 72 80
187 72 80
187 72 80
187 72 80
188 72 80
187 72 80
187 72 80
187 72 80
188 72 80
188 72 80
188 72 80
188 72 80
188 72 80
188 72 80
188 72 80
188 72 80
188 72 80
189 72 80
189 72 80
188 72 80
189 72 80
189 72 80
189 72 80
189 72 80
189 72 80
189 72 80
189 72 80
189 72 80
189 72 80
189 72 80
190 73 80
189 72 80
189 72 80
190 73 80
190 73 80
190 73 80
190 73 80
190 73 80
190 73 80
190 73 80
190 73 80
190 73 80
191 73 80
191 73 80
174 199 0
183 203 0
179 201 0
177 201 0
182 203 0
181 202 0
180 202 0
180 201 0
176 200 0
179 201 0
180 202 0
181 202 0
173 199 0
178 201 0
176 200 0
178 201 0
179 202 0
183 203 0
180 201 0
178 201 0
178 201 0
179 201 0
172 199 0
181 202 0
180 202 0
183 203 0
181 202 0
187 205 0
182 202 0
179 201 0
181 201 0
180 202 0
183 203 0
179 201 0
178 201 0
180 202 0
177 200 0
182 202 0
181 202 0
181 202 0
182 203 0
180 201 0
181 202 0
176 200 0
180 201 0
179 201 0
181 202 0
181 202 0
179 201 0
183 203 0
180 202 0
178 201 0
182 203 0
181 202 0
183 203 0
186 204 0
180 202 0
182 203 0
181 202 0
177 200 0
178 201 0
182 202 0
182 202 0
182 203 0
184 203 0
178 201 0
179 201 0
185 204 0
184 203 0
179 201 0
184 203 0
187 204 0
186 204 0
180 202 0
183 203 0
186 204 0
183 203 0
184 203 0
182 203 0
184 203 0
183 203 0
183 203 0
183 203 0
186 204 0
185 204 0
184 203 0
185 204 0
184 203 0
185 203 0
185 204 0
185 203 0
182 203 0
184 203 0
185 204 0
185 204 0
184 203 0
185 204 0
185 204 0
184 203 0
183 202 0
185 203 0
182 200 0
183 197 0
181 197 0
180 199 0
177 193 0
172 190 0
171 189 0
164 180 0
167 185 0
170 187 0
164 180 0
166 184 0
157 173 0
162 181 0
151 169 0
150 169 0
146 167 0
142 163 0
122 144 0
133 155 0
129 151 0
136 157 0
120 143 0
108 132 0
112 135 0
100 124 0
94 118 0
106 130 0
95 119 0
79 105 0
68 95 0
74 99 0
77 102 0
79 104 0
82 105 0
73 97 0
89 111 0
88 110 0
109 129 0
107 128 0
98 116 0
122 141 0
118 135 0
116 136 0
127 149 0
126 147 0
202 219 217
217 233 255
217 233 255
76 103 125
56 92 132
53 88 127
53 90 126
54 90 132
54 93 137
55 92 134
55 92 137
54 93 126
52 91 134
54 93 139
57 94 148
57 95 151
57 95 148
56 95 148
55 94 141
55 94 142
58 96 149
54 92 139
56 95 146
58 96 152
55 94 147
57 95 151
57 95 153
57 96 155
57 96 152
55 95 146
57 96 153
56 96 151
56 96 151
54 95 146
57 97 152
58 97 156
56 96 151
57 96 150
55 95 145
58 96 156
57 96 154
58 96 155
58 97 155
56 95 150
57 96 154
58 97 160
58 97 156
58 96 155
56 95 151
58 97 157
57 95 154
57 96 151
57 96 155
54 93 144
59 97 161
57 96 155
56 94 151
54 94 145
56 95 151
55 95 145
54 94 145
54 93 147
56 95 150
56 94 150
57 95 155
56 95 150
57 96 155
57 94 153
57 96 150
57 94 153
57 95 153
57 95 154
57 95 153
58 94 155
58 95 153
54 92 143
57 93 152
57 94 153
58 95 155
55 93 145
54 89 141
57 95 150
56 92 148
56 93 149
56 91 143
55 90 142
55 90 142
56 90 148
56 92 147
57 90 148
56 91 147
55 90 143
55 90 141
56 90 145
56 89 149
56 87 143
56 89 148
55 83 135
53 82 131
55 87 145
52 76 128
53 82 133
90 104 135
217 233 255
217 233 255
212 213 234
192 73 80
190 73 80
174 67 76
108 42 53
49 21 36
43 19 34
42 17 32
44 19 36
46 20 36
46 21 39
47 21 37
47 22 38
46 20 36
47 23 40
50 24 42
49 24 41
47 23 41
52 27 47
51 25 44
50 26 45
50 27 45
50 27 45
49 26 43
51 28 47
52 29 49
69 33 54
109 46 60
119 49 63
150 60 71
151 60 72
173 68 78
184 71 80
184 71 80
184 71 80
184 71 80
184 71 80
185 72 80
184 71 80
184 71 80
184 71 80
184 72 80
184 72 80
184 71 80
184 72 80
184 71 80
184 71 80
184 72 80
184 72 80
184 72 80
184 72 80
185 72 80
185 72 80
185 72 80
185 72 80
185 72 80
185 72 80
185 72 80
185 72 80
185 72 80
185 72 80
185 72 80
185 72 80
185 72 80
185 72 80
186 72 80
186 72 80
186 72 80
186 72 80
186 72 80
186 72 80
186 72 80
186 72 80
186 72 80
185 72 80
186 72 80
186 72 80
186 72 80
186 72 80
186 72 80
186 72 80
186 72 80
186 72 80
187 72 80
187 72 80
186 72 80
187 72 80
187 72 80
187 72 80
187 72 80
187 72 80
187 72 80
187 72 80
187 72 80
187 72 80
187 72 80
187 72 80
187 72 80
188 72 80
187 72 80
188 72 80
187 72 80
188 72 80
188 72 80
188 72 80
188 72 80
188 72 80
188 72 80
188 72 80
188 72 80
188 72 80
188 72 80
189 72 80
189 72 80
188 72 80
189 72 80
189 72 80
189 72 80
189 72 80
189 72 80
189 72 80
189 72 80
189 72 80
190 73 80
189 72 80
189 72 80
189 72 80
190 73 80
190 73 80
190 73 80
189 72 80
190 73 80
189 72 80
190 73 80
190 73 80
190 73 80
190 73 80
190 73 80
190 73 80
190 73 80
190 73 80
191 73 80
191 73 80
191 73 80
191 73 80
191 73 80
191 73 80
191 73 80
176 200 0
180 202 0
178 201 0
180 202 0
179 201 0
175 200 0
173 199 0
179 201 0
178 201 0
180 202 0
179 201 0
173 199 0
175 200 0
181 202 0
176 199 0
175 199 0
181 202 0
175 199 0
179 201 0
176 200 0
175 200 0
179 201 0
177 201 0
177 200 0
178 201 0
179 201 0
178 201 0
177 200 0
183 203 0
181 202 0
174 199 0
179 201 0
179 201 0
181 202 0
181 202 0
180 202 0
179 201 0
178 201 0
174 199 0
182 202 0
180 202 0
181 202 0
183 203 0
176 200 0
179 201 0
174 199 0
178 201 0
181 202 0
178 201 0
182 203 0
180 202 0
180 202 0
182 202 0
182 202 0
180 201 0
180 202 0
178 201 0
180 201 0
177 200 0
182 203 0
182 202 0
179 201 0
180 202 0
183 203 0
178 201 0
180 202 0
180 202 0
179 201 0
183 203 0
181 202 0
183 203 0
179 201 0
183 203 0
183 203 0
183 203 0
185 203 0
184 203 0
184 203 0
185 204 0
184 203 0
183 203 0
181 202 0
181 202 0
184 203 0
184 203 0
184 203 0
181 202 0
185 204 0
181 202 0
183 203 0
181 202 0
183 203 0
183 203 0
184 203 0
185 204 0
182 202 0
184 203 0
184 203 0
183 202 0
181 200 0
182 198 0
176 198 0
181 199 0
180 198 0
178 197 0
170 188 0
176 194 0
168 186 0
168 186 0
164 182 0
165 186 0
158 178 0
160 178 0
156 174 0
158 177 0
150 166 0
149 167 0
147 168 0
138 159 0
141 162 0
134 154 0
121 142 0
124 146 0
114 136 0
119 142 0
107 129 0
103 127 0
100 124 0
103 126 0
86 113 0
87 112 0
79 104 0
70 97 0
81 105 0
62 89 0
67 94 0
73 96 0
70 92 0
74 96 0
97 117 0
96 115 0
97 116 0
94 112 0
114 132 0
88 109 0
126 147 0
131 152 0
184 199 199
218 233 255
199 216 239
50 84 109
52 88 121
54 91 128
50 86 116
55 93 135
57 94 141
55 93 134
55 94 143
57 95 147
56 95 145
56 93 141
54 93 141
54 92 139
57 95 153
55 93 147
56 95 150
57 95 146
53 92 138
56 95 148
56 95 147
58 96 155
53 93 138
59 98 161
58 97 159
56 95 151
54 94 146
57 96 151
55 94 148
56 95 147
57 95 152
55 93 145
57 95 152
57 96 150
56 95 151
58 97 155
56 96 149
56 96 150
57 95 151
56 95 150
57 96 153
57 96 153
58 98 156
58 96 155
56 96 154
56 96 153
57 96 154
55 95 146
57 96 152
57 96 151
56 95 148
58 96 159
58 96 158
55 94 146
56 96 152
56 95 151
53 92 140
53 93 138
60 98 163
56 94 150
55 95 146
54 92 142
57 96 157
57 95 152
57 96 155
56 94 149
55 93 145
55 94 149
56 96 152
54 92 141
58 96 156
55 95 147
56 94 150
57 93 149
57 93 153
56 94 148
58 95 156
55 93 150
56 93 150
55 92 149
56 92 147
53 90 138
57 94 152
58 94 155
56 91 151
53 90 136
56 92 149
56 93 149
56 88 141
55 87 139
57 89 145
54 85 133
57 86 143
55 86 142
57 87 141
55 81 134
55 85 137
54 77 123
53 76 125
53 77 130
49 73 117
203 217 239
218 233 255
202 180 197
191 73 80
184 70 78
137 53 61
56 23 35
45 19 35
43 17 30
45 20 37
42 18 33
45 21 39
44 19 33
43 20 35
46 21 36
44 20 36
50 25 44
48 23 41
49 25 44
49 24 42
50 25 43
52 27 46
51 26 44
49 26 43
51 26 44
51 27 47
51 27 46
52 28 49
62 31 50
79 37 56
107 45 60
140 56 68
155 61 72
178 69 79
184 71 80
185 72 80
185 72 80
185 72 80
185 72 80
185 72 80
185 72 80
185 72 80
185 72 80
185 72 80
185 72 80
186 72 80
186 72 80
185 72 80
186 72 80
186 72 80
186 72 80
186 72 80
185 72 80
185 72 80
186 72 80
185 72 80
186 72 80
186 72 80
186 72 80
186 72 80
186 72 80
186 72 80
186 72 80
186 72 80
186 72 80
186 72 80
186 72 80
186 72 80
186 72 80
187 72 80
187 72 80
187 72 80
187 72 80
186 72 80
187 72 80
187 72 80
187 72 80
187 72 80
187 72 80
187 72 80
187 72 80
187 72 80
187 72 80
187 72 80
187 72 80
187 72 80
187 72 80
187 72 80
188 72 80
188 72 80
187 72 80
188 72 80
188 72 80
188 72 80
188 72 80
188 72 80
188 72 80
188 72 80
188 72 80
188 72 80
188 72 80
188 72 80
189 72 80
189 72 80
188 72 80
189 72 80
189 72 80
189 72 80
189 72 80
189 72 80
189 72 80
189 72 80
189 72 80
189 72 80
189 72 80
189 72 80
189 72 80
189 72 80
190 73 80
189 72 80
190 73 80
190 73 80
190 73 80
190 73 80
190 73 80
190 73 80
190 73 80
190 73 80
190 73 80
190 73 80
190 73 80
190 73 80
190 73 80
190 73 80
190 73 80
190 73 80
190 73 80
191 73 80
191 73 80
191 73 80
191 73 80
191 73 80
191 73 80
191 73 80
191 73 80
191 73 80
191 73 80
192 73 80
191 73 80
191 73 80
174 200 0
175 200 0
180 202 0
177 201 0
178 201 0
176 200 0
177 201 0
172 199 0
179 202 0
175 200 0
181 202 0
177 200 0
181 202 0
180 202 0
176 201 0
176 200 0
176 200 0
177 200 0
175 199 0
175 200 0
178 201 0
183 203 0
175 200 0
179 201 0
171 198 0
184 203 0
178 201 0
179 202 0
177 201 0
176 201 0
184 203 0
178 201 0
178 201 0
176 200 0
183 203 0
180 202 0
180 202 0
176 200 0
177 200 0
178 201 0
176 200 0
180 201 0
180 202 0
178 201 0
177 200 0
179 201 0
178 201 0
175 200 0
175 200 0
181 202 0
178 201 0
175 199 0
177 201 0
179 201 0
179 201 0
184 203 0
177 201 0
177 201 0
182 203 0
181 202 0
174 199 0
180 202 0
184 203 0
177 200 0
178 201 0
177 201 0
182 202 0
179 201 0
180 202 0
181 202 0
180 202 0
180 202 0
180 202 0
182 202 0
182 203 0
183 203 0
183 203 0
182 202 0
183 203 0
178 201 0
177 200 0
183 203 0
179 200 0
181 202 0
179 201 0
183 203 0
183 203 0
182 203 0
182 202 0
181 202 0
181 201 0
182 202 0
179 201 0
182 202 0
182 202 0
182 203 0
179 201 0
179 201 0
183 203 0
179 200 0
183 201 0
183 196 0
179 196 0
176 191 0
174 192 0
173 192 0
166 186 0
179 197 0
164 185 0
161 181 0
158 177 0
158 176 0
162 181 0
156 174 0
136 157 0
157 175 0
150 169 0
146 164 0
143 161 0
136 157 0
123 143 0
125 146 0
121 143 0
125 145 0
103 126 0
109 132 0
99 123 0
92 116 0
88 114 0
80 106 0
64 91 0
58 86 0
48 79 0
67 94 0
65 92 0
54 82 0
65 89 0
55 78 0
73 96 0
70 92 0
84 103 0
94 114 0
100 118 0
83 101 0
97 114 0
121 141 0
134 154 0
147 166 76
218 234 255
180 196 218
49 84 107
51 87 121
54 91 131
53 90 126
56 93 137
55 93 138
52 91 130
53 92 137
56 93 137
54 93 134
56 94 143
56 94 148
54 94 134
54 92 141
53 93 140
54 93 140
55 95 147
55 93 140
55 94 145
55 95 146
53 92 139
56 95 145
56 95 150
55 93 144
56 96 150
57 96 154
57 96 151
55 94 144
56 95 147
56 95 149
56 95 151
56 94 147
55 94 146
58 97 156
53 93 139
59 98 159
55 95 147
57 96 154
56 95 151
55 94 146
55 94 145
58 97 159
56 95 149
57 96 155
58 97 156
54 93 145
55 94 145
55 94 148
56 96 151
54 94 144
57 96 153
57 96 152
53 91 143
55 95 146
55 95 148
57 96 153
57 97 156
58 96 155
56 95 148
57 96 155
57 94 152
57 96 155
56 95 146
58 96 157
56 95 150
55 93 144
55 95 150
55 94 148
55 93 145
58 94 155
57 94 154
56 94 151
54 93 143
57 94 152
57 95 151
56 91 151
57 94 150
57 95 152
54 88 140
55 90 144
56 92 148
55 88 139
56 95 151
54 90 142
54 90 140
56 91 147
56 92 152
53 86 134
58 91 148
56 92 149
55 85 137
54 85 139
57 88 147
56 86 143
55 88 142
54 80 131
56 78 130
54 81 132
53 77 126
49 64 106
179 194 218
218 234 255
192 131 144
192 73 80
174 67 74
105 41 50
42 17 31
39 15 27
38 14 26
40 16 29
41 16 29
46 18 33
44 18 32
43 19 32
47 21 37
46 22 38
47 21 37
47 21 36
48 25 43
49 23 40
49 25 42
50 25 43
47 25 42
50 27 45
50 27 45
50 28 47
49 26 43
51 27 45
53 28 48
67 33 50
112 47 61
129 52 64
142 57 69
167 65 75
181 70 79
186 72 80
187 72 80
186 72 80
186 72 80
186 72 80
187 72 80
186 72 80
186 72 80
186 72 80
186 72 80
186 72 80
186 72 80
186 72 80
186 72 80
186 72 80
187 72 80
186 72 80
187 72 80
187 72 80
187 72 80
187 72 80
187 72 80
187 72 80
187 72 80
187 72 80
187 72 80
187 72 80
187 72 80
187 72 80
187 72 80
187 72 80
187 72 80
187 72 80
187 72 80
187 72 80
188 72 80
188 72 80
187 72 80
188 72 80
187 72 80
188 72 80
188 72 80
188 72 80
188 72 80
188 72 80
188 72 80
188 72 80
188 72 80
188 72 80
188 72 80
188 72 80
188 72 80
188 72 80
188 72 80
189 72 80
189 72 80
189 72 80
189 72 80
189 72 80
189 72 80
189 72 80
189 72 80
189 72 80
189 72 80
189 72 80
189 72 80
189 72 80
189 72 80
189 72 80
190 73 80
189 72 80
189 72 80
189 72 80
190 73 80
189 72 80
189 72 80
190 73 80
190 73 80
190 73 80
190 73 80
190 73 80
190 73 80
190 73 80
191 73 80
190 73 80
190 73 80
190 73 80
190 73 80
190 73 80
191 73 80
191 73 80
191 73 80
190 73 80
190 73 80
191 73 80
191 73 80
191 73 80
191 73 80
191 73 80
191 73 80
191 73 80
191 73 80
191 73 80
192 73 80
191 73 80
192 73 80
191 73 80
191 73 80
191 73 80
192 73 80
192 73 80
191 73 80
192 73 80
192 73 80
192 73 80
178 201 0
177 201 0
175 200 0
184 204 0
171 198 0
178 201 0
176 200 0
179 202 0
175 200 0
172 198 0
174 199 0
177 201 0
172 198 0
175 200 0
175 200 0
176 200 0
173 199 0
174 200 0
179 201 0
178 201 0
175 200 0
172 198 0
173 199 0
177 201 0
174 199 0
179 201 0
178 201 0
175 200 0
176 200 0
174 199 0
173 197 0
177 200 0
176 200 0
173 199 0
175 200 0
175 200 0
177 201 0
178 201 0
177 201 0
171 198 0
179 201 0
178 201 0
181 202 0
180 202 0
182 203 0
182 202 0
181 202 0
180 202 0
180 202 0
178 201 0
178 201 0
182 203 0
179 201 0
180 202 0
175 199 0
178 201 0
178 201 0
180 202 0
180 202 0
177 200 0
181 202 0
175 200 0
180 201 0
179 201 0
178 201 0
180 202 0
175 199 0
175 200 0
178 201 0
180 202 0
179 202 0
178 201 0
176 199 0
181 202 0
179 201 0
179 201 0
179 201 0
180 202 0
179 201 0
184 203 0
176 200 0
182 202 0
178 201 0
180 201 0
183 203 0
180 201 0
180 202 0
178 201 0
184 203 0
177 200 0
178 201 0
180 202 0
179 202 0
180 202 0
179 201 0
181 202 0
180 201 0
178 201 0
177 197 0
177 193 0
180 199 0
179 197 0
178 199 0
177 195 0
172 192 0
167 188 0
174 192 0
169 188 0
160 180 0
159 182 0
158 178 0
154 176 0
152 171 0
149 171 0
154 172 0
157 177 0
147 167 0
137 154 0
141 161 0
132 151 0
121 142 0
120 141 0
129 148 0
118 139 0
105 128 0
100 124 0
89 113 0
93 118 0
76 102 0
65 93 0
69 96 0
62 91 0
54 82 0
46 77 0
44 74 0
44 73 0
43 73 0
52 78 0
63 86 0
84 104 0
72 92 0
87 106 0
73 93 0
90 108 0
104 120 0
92 114 0
107 128 0
142 160 25
216 231 252
145 163 182
53 87 124
52 87 122
55 91 133
55 92 138
55 92 135
51 90 128
54 92 136
54 91 136
57 94 144
56 94 141
56 95 147
56 95 144
54 93 140
55 93 141
56 94 145
56 94 151
54 92 139
55 95 145
55 95 145
56 94 147
55 94 142
57 95 152
55 94 142
56 95 152
57 96 147
58 96 157
56 95 148
55 95 146
55 94 146
56 95 148
56 95 149
54 93 148
55 94 145
57 96 153
56 95 148
56 96 152
54 94 141
55 95 148
53 93 141
58 96 155
57 96 155
58 96 156
56 96 151
55 94 150
56 96 151
58 97 157
56 96 149
56 95 148
58 97 159
57 95 149
55 95 146
57 96 155
57 96 152
55 94 148
55 92 145
54 94 142
57 96 152
56 93 149
56 95 148
55 95 147
56 95 149
56 94 149
55 94 145
56 94 147
56 96 150
58 96 156
57 95 154
57 95 152
56 94 150
56 95 149
56 94 149
54 93 139
55 94 147
57 95 150
55 92 141
56 93 150
56 91 146
54 91 142
55 91 146
57 94 153
56 93 151
56 91 146
54 88 134
56 91 146
55 89 141
58 89 147
55 88 141
55 88 139
53 86 133
55 91 143
54 84 136
55 89 143
55 87 139
55 83 137
55 85 138
54 81 132
52 82 131
55 81 134
52 78 124
52 70 117
137 150 178
214 227 248
191 75 83
190 72 80
153 59 67
50 20 31
38 15 27
36 15 28
41 18 32
41 18 32
41 16 30
43 18 32
44 19 33
44 20 35
43 19 34
45 22 37
46 22 38
47 23 40
48 24 42
48 23 39
49 25 44
49 24 41
48 25 42
51 27 46
49 26 42
51 27 46
53 27 47
50 28 46
51 28 47
51 28 47
90 39 55
126 51 63
146 58 69
163 64 74
180 70 78
187 72 80
187 72 80
188 72 80
187 72 80
187 72 80
187 72 80
187 72 80
187 72 80
187 72 80
187 72 80
187 72 80
187 72 80
187 72 80
187 72 80
187 72 80
187 72 80
188 72 80
188 72 80
188 72 80
188 72 80
188 72 80
188 72 80
188 72 80
188 72 80
188 72 80
188 72 80
188 72 80
188 72 80
188 72 80
188 72 80
188 72 80
188 72 80
188 72 80
188 72 80
188 72 80
188 72 80
188 72 80
189 72 80
189 72 80
189 72 80
188 72 80
189 72 80
189 72 80
189 72 80
189 72 80
189 72 80
189 72 80
189 72 80
189 72 80
189 72 80
189 72 80
190 73 80
189 72 80
189 72 80
189 72 80
189 72 80
190 73 80
189 72 80
189 72 80
189 72 80
190 73 80
190 73 80
190 73 80
190 73 80
190 73 80
190 73 80
190 73 80
190 73 80
190 73 80
190 73 80
190 73 80
190 73 80
191 73 80
190 73 80
190 73 80
191 73 80
190 73 80
191 73 80
190 73 80
191 73 80
191 73 80
191 73 80
191 73 80
191 73 80
191 73 80
191 73 80
191 73 80
191 73 80
191 73 80
191 73 80
191 73 80
191 73 80
191 73 80
192 73 80
191 73 80
191 73 80
192 73 80
191 73 80
192 73 80
192 73 80
192 73 80
192 73 80
192 73 80
192 73 80
192 73 80
192 73 80
192 73 80
192 73 80
192 73 80
192 73 80
192 73 80
192 73 80
192 73 80
192 73 80
193 73 80
174 199 0
172 199 0
178 201 0
173 199 0
175 200 0
171 198 0
174 200 0
176 200 0
177 201 0
170 198 0
175 200 0
175 199 0
176 200 0
175 200 0
175 200 0
175 200 0
174 200 0
171 198 0
173 200 0
172 199 0
178 201 0
174 200 0
176 200 0
166 195 0
176 200 0
175 199 0
173 199 0
180 202 0
172 199 0
178 201 0
171 198 0
174 199 0
178 201 0
178 201 0
177 200 0
171 198 0
175 200 0
178 201 0
177 201 0
177 201 0
178 201 0
176 200 0
171 198 0
176 200 0
178 201 0
181 202 0
177 200 0
179 201 0
179 202 0
174 199 0
177 201 0
173 199 0
178 201 0
177 201 0
174 199 0
177 201 0
178 201 0
175 199 0
176 200 0
176 200 0
175 200 0
176 200 0
178 201 0
178 201 0
180 202 0
180 202 0
178 201 0
175 200 0
182 203 0
178 201 0
176 200 0
171 198 0
177 201 0
182 203 0
175 199 0
179 201 0
179 202 0
178 200 0
182 203 0
184 203 0
177 201 0
179 201 0
183 203 0
180 202 0
178 201 0
179 201 0
174 199 0
179 202 0
176 200 0
177 200 0
175 199 0
183 203 0
180 202 0
180 202 0
180 202 0
175 199 0
175 198 0
181 200 0
179 200 0
176 197 0
177 196 0
179 198 0
177 194 0
174 189 0
174 194 0
171 188 0
170 190 0
165 183 0
156 177 0
162 183 0
157 175 0
151 170 0
154 174 0
149 168 0
152 170 0
139 162 0
145 164 0
145 165 0
139 162 0
120 141 0
123 143 0
116 137 0
106 127 0
108 130 0
102 124 0
90 113 0
92 115 0
86 110 0
75 101 0
67 94 0
55 85 0
49 79 0
48 79 0
47 78 0
44 73 0
42 71 0
43 72 0
41 69 0
51 79 0
55 77 0
68 87 0
70 90 0
78 98 0
80 98 0
93 110 0
95 114 0
111 127 0
136 155 0
200 216 221
113 132 151
50 86 103
51 87 121
52 90 123
51 89 119
53 91 130
55 92 137
54 92 135
55 92 137
56 93 136
54 92 136
55 94 145
51 91 121
56 93 144
52 91 133
55 94 142
55 94 141
54 93 140
55 94 143
54 93 139
54 93 139
52 92 135
55 94 145
54 94 141
54 94 140
57 96 152
57 95 151
54 93 138
56 95 145
55 95 147
54 94 140
57 96 152
55 95 147
57 96 153
56 96 152
56 95 149
57 96 153
57 96 155
56 95 150
57 95 152
56 95 151
55 95 145
57 96 155
56 95 150
56 96 148
57 96 152
57 96 155
57 95 153
56 96 150
56 96 151
55 96 149
59 97 158
55 94 148
55 95 146
55 94 144
58 96 154
57 96 153
57 95 152
55 94 149
55 95 148
56 94 151
55 95 145
54 94 145
55 94 149
55 94 146
55 93 148
54 94 144
55 94 148
56 92 149
56 95 146
54 93 140
54 94 143
57 95 154
56 93 147
58 95 156
57 95 149
55 93 148
53 90 135
57 94 148
55 91 142
55 91 145
55 92 149
56 93 147
52 90 139
56 91 147
56 91 147
56 90 143
56 91 145
55 90 141
56 89 145
55 89 144
55 87 140
56 89 145
55 88 140
56 88 144
57 88 146
54 80 130
53 79 132
55 83 136
50 71 109
52 78 128
109 121 148
210 212 232
193 73 80
178 68 76
96 36 44
37 15 27
38 16 29
35 15 27
39 17 30
38 17 29
40 17 29
41 18 31
40 18 30
44 19 33
45 21 36
43 21 34
46 22 39
45 21 36
46 21 35
46 23 38
48 25 42
49 26 44
46 24 39
48 26 43
49 26 45
48 26 43
49 26 44
51 28 47
51 28 48
52 28 48
71 34 51
99 42 57
140 56 67
150 59 70
173 67 75
187 72 80
188 72 80
188 72 80
188 72 80
188 72 80
188 72 80
189 72 80
189 72 80
189 72 80
188 72 80
188 72 80
188 72 80
189 72 80
189 72 80
189 72 80
189 72 80
189 72 80
189 72 80
188 72 80
188 72 80
189 72 80
189 72 80
189 72 80
189 72 80
189 72 80
189 72 80
189 72 80
189 72 80
189 72 80
189 72 80
189 72 80
189 72 80
189 72 80
189 72 80
189 72 80
190 73 80
189 72 80
190 73 80
189 72 80
190 73 80
190 73 80
189 72 80
189 72 80
190 73 80
190 73 80
190 73 80
190 73 80
190 73 80
190 73 80
190 73 80
190 73 80
190 73 80
190 73 80
190 73 80
190 73 80
190 73 80
190 73 80
190 73 80
191 73 80
190 73 80
190 73 80
190 73 80
190 73 80
191 73 80
190 73 80
191 73 80
191 73 80
191 73 80
191 73 80
191 73 80
191 73 80
191 73 80
191 73 80
191 73 80
191 73 80
191 73 80
191 73 80
192 73 80
191 73 80
191 73 80
191 73 80
191 73 80
192 73 80
192 73 80
191 73 80
192 73 80
191 73 80
192 73 80
192 73 80
192 73 80
192 73 80
192 73 80
192 73 80
193 73 80
192 73 80
192 73 80
192 73 80
192 73 80
192 73 80
192 73 80
192 73 80
193 73 80
193 73 80
192 73 80
192 73 80
192 73 80
193 73 80
193 73 80
193 73 80
193 73 80
193 73 80
193 73 80
193 73 80
193 73 80
193 73 80
175 200 0
173 199 0
171 198 0
171 198 0
168 197 0
174 199 0
174 199 0
171 198 0
171 198 0
178 201 0
173 199 0
178 201 0
172 199 0
174 199 0
179 201 0
176 200 0
175 200 0
179 201 0
175 200 0
179 202 0
175 200 0
171 198 0
175 199 0
171 198 0
177 201 0
179 201 0
176 200 0
170 197 0
177 201 0
168 197 0
174 199 0
174 200 0
172 198 0
171 198 0
176 200 0
174 200 0
178 201 0
174 199 0
177 200 0
175 199 0
177 201 0
176 200 0
175 200 0
175 200 0
173 199 0
174 199 0
175 200 0
176 200 0
173 199 0
178 201 0
179 201 0
179 201 0
173 198 0
180 202 0
177 200 0
174 200 0
177 200 0
177 200 0
174 199 0
175 199 0
174 199 0
180 201 0
177 201 0
175 200 0
179 201 0
177 200 0
174 199 0
175 199 0
180 202 0
172 199 0
177 200 0
173 199 0
181 202 0
173 198 0
177 200 0
176 200 0
177 201 0
171 197 0
179 201 0
177 200 0
180 202 0
177 200 0
178 201 0
177 200 0
175 200 0
178 200 0
179 202 0
175 199 0
176 200 0
176 200 0
176 199 0
179 202 0
172 198 0
178 201 0
177 201 0
181 202 0
174 198 0
177 199 0
177 195 0
182 197 0
178 197 0
181 197 0
170 192 0
171 191 0
168 190 0
170 189 0
169 190 0
162 186 0
159 184 0
154 171 0
152 170 0
160 178 0
150 171 0
164 185 0
151 172 0
148 168 0
132 154 0
129 153 0
130 152 0
136 158 0
129 151 0
117 137 0
116 137 0
98 121 0
109 131 0
101 124 0
74 100 0
75 100 0
64 93 0
61 89 0
48 78 0
47 79 0
42 71 0
45 75 0
44 73 0
44 74 0
44 73 0
41 69 0
41 69 0
39 66 0
47 71 0
61 82 0
67 84 0
78 96 0
81 99 0
86 103 0
109 127 0
113 133 0
187 204 191
62 89 104
51 85 117
51 87 119
50 87 115
52 90 126
53 91 130
53 90 131
54 92 133
54 92 137
56 94 142
55 93 137
55 95 139
56 94 145
53 93 137
54 93 138
55 93 143
56 94 145
55 94 143
56 95 147
55 94 144
53 93 135
52 92 131
54 93 140
57 96 153
55 95 141
54 92 142
55 94 145
55 95 146
54 95 142
56 95 147
55 94 146
56 96 147
57 96 154
55 94 145
56 95 147
55 95 147
57 96 153
56 94 152
56 95 149
57 97 154
55 95 146
56 96 148
57 95 152
55 94 146
56 94 148
55 94 147
56 96 151
57 97 155
54 93 140
57 96 151
57 97 153
55 94 144
56 95 148
54 94 145
55 95 148
58 96 156
56 96 154
57 95 151
56 95 149
56 95 149
56 94 148
56 95 153
56 95 151
57 95 152
54 93 146
54 94 139
54 92 143
53 90 137
55 92 143
55 94 147
54 91 142
55 94 146
55 92 146
54 93 142
54 93 144
55 92 146
55 91 145
58 95 155
56 92 144
56 92 145
53 87 140
54 90 145
54 90 142
57 92 146
56 91 144
54 90 142
54 88 137
53 90 139
55 92 144
51 84 128
53 90 141
54 86 139
55 86 141
54 80 131
53 82 130
53 78 127
54 83 135
53 83 133
50 77 122
49 71 115
47 67 109
68 82 121
207 187 204
194 73 80
160 61 68
57 21 29
35 13 22
34 15 26
39 16 28
39 17 30
38 16 28
41 17 29
42 19 33
43 19 34
43 19 33
46 22 39
46 22 40
44 21 37
46 21 37
49 25 43
49 24 42
42 21 34
47 24 41
46 26 41
49 26 44
49 25 43
51 27 47
50 26 42
49 27 43
52 28 47
52 29 49
50 28 45
89 39 55
126 51 64
154 61 70
159 62 70
180 69 75
188 72 79
189 72 80
189 72 80
189 72 80
190 73 80
190 73 80
189 72 80
189 72 80
190 73 80
190 73 80
190 73 80
189 72 80
189 72 80
189 72 80
190 73 80
190 73 80
190 73 80
190 73 80
189 72 80
190 73 80
190 73 80
190 73 80
190 73 80
190 73 80
190 73 80
190 73 80
190 73 80
190 73 80
190 73 80
190 73 80
190 73 80
190 73 80
190 73 80
190 73 80
190 73 80
191 73 80
190 73 80
190 73 80
191 73 80
191 73 80
191 73 80
190 73 80
191 73 80
191 73 80
191 73 80
190 73 80
191 73 80
191 73 80
190 73 80
191 73 80
191 73 80
191 73 80
192 73 80
191 73 80
191 73 80
191 73 80
191 73 80
192 73 80
191 73 80
191 73 80
191 73 80
192 73 80
192 73 80
192 73 80
191 73 80
192 73 80
191 73 80
192 73 80
192 73 80
192 73 80
191 73 80
192 73 80
192 73 80
192 73 80
192 73 80
192 73 80
191 73 80
192 73 80
192 73 80
192 73 80
192 73 80
192 73 80
192 73 80
193 73 80
193 73 80
192 73 80
192 73 80
192 73 80
193 73 80
193 73 80
192 73 80
193 73 80
193 73 80
193 73 80
193 73 80
193 73 80
193 73 80
193 73 80
193 73 80
193 73 80
193 73 80
193 73 80
193 73 80
193 73 80
193 73 80
193 73 80
193 73 80
194 73 80
193 73 80
194 73 80
194 73 80
193 73 80
194 73 80
194 73 80
176 200 0
175 200 0
177 201 0
179 202 0
169 197 0
176 201 0
175 200 0
177 201 0
172 198 0
169 197 0
175 200 0
174 199 0
172 198 0
174 199 0
172 198 0
173 199 0
174 200 0
172 199 0
172 199 0
168 197 0
172 198 0
170 198 0
176 201 0
171 198 0
169 198 0
177 200 0
175 200 0
173 199 0
171 198 0
177 201 0
175 200 0
172 199 0
165 196 0
174 199 0
173 199 0
173 199 0
172 199 0
171 197 0
171 198 0
177 201 0
170 198 0
176 200 0
172 198 0
180 201 0
174 199 0
167 197 0
177 201 0
174 199 0
177 200 0
170 197 0
171 197 0
168 196 0
173 199 0
175 200 0
174 199 0
173 199 0
173 199 0
178 201 0
172 198 0
172 199 0
176 200 0
175 200 0
178 200 0
175 200 0
168 197 0
174 200 0
177 201 0
175 200 0
177 201 0
174 199 0
175 200 0
175 200 0
172 199 0
177 200 0
176 200 0
178 200 0
174 199 0
179 201 0
175 200 0
174 199 0
176 200 0
172 199 0
177 200 0
175 200 0
169 195 0
176 200 0
173 199 0
176 200 0
175 200 0
180 202 0
175 200 0
179 201 0
178 200 0
178 201 0
176 200 0
178 200 0
176 199 0
177 197 0
168 191 0
176 199 0
177 197 0
166 188 0
171 190 0
166 188 0
165 189 0
164 187 0
167 189 0
157 178 0
160 182 0
158 178 0
147 172 0
147 171 0
151 173 0
150 169 0
151 171 0
148 171 0
142 160 0
137 159 0
120 143 0
122 142 0
118 140 0
126 147 0
115 135 0
97 120 0
100 122 0
81 107 0
76 103 0
66 94 0
53 84 0
47 80 0
44 75 0
46 77 0
43 73 0
45 75 0
43 73 0
43 72 0
41 72 0
39 66 0
39 67 0
38 65 0
37 64 0
58 78 0
70 87 0
71 88 0
74 89 0
86 103 0
89 105 0
105 125 0
147 164 116
45 78 93
50 85 112
50 86 113
51 89 123
53 90 133
52 90 124
52 91 123
54 92 140
56 94 142
54 93 136
53 92 132
54 92 135
55 94 142
55 92 141
55 94 142
53 93 131
55 94 143
55 95 141
54 93 138
54 93 143
56 95 145
54 93 144
55 95 145
54 92 142
53 92 144
55 95 147
56 95 145
54 93 145
55 93 146
57 95 151
52 92 139
55 95 143
54 92 144
56 96 147
56 94 146
58 97 152
57 96 151
56 95 149
58 96 154
57 96 150
56 95 148
54 93 144
55 94 145
57 96 152
55 93 146
58 97 154
55 96 147
56 95 150
56 95 152
60 98 163
53 93 140
55 94 146
54 95 142
55 95 147
57 95 150
55 94 148
52 92 136
56 95 146
53 94 140
57 96 154
55 94 148
53 94 142
55 95 148
55 93 144
56 95 151
56 96 151
58 96 155
53 91 138
57 94 152
57 96 152
54 93 142
54 92 141
56 94 150
55 92 145
53 92 140
52 92 136
54 93 144
56 93 146
56 92 148
52 90 136
55 90 140
55 91 145
55 90 144
53 90 139
53 90 138
56 88 144
55 91 142
56 90 145
56 89 144
57 93 151
52 84 128
56 89 142
53 85 131
54 85 134
54 80 131
55 84 142
51 79 123
51 82 125
53 75 123
52 75 121
52 73 120
48 64 109
190 150 166
193 73 80
128 49 57
32 12 23
35 14 26
32 12 21
34 14 25
33 13 22
36 15 26
39 16 28
38 15 26
39 17 29
43 19 33
43 20 34
45 23 38
46 21 36
44 21 34
47 23 38
47 23 39
45 22 36
46 23 38
49 24 41
46 23 36
51 26 44
48 27 43
49 26 43
49 27 44
50 28 46
49 28 45
50 29 47
92 40 54
105 44 55
139 56 65
155 61 69
177 68 74
184 70 75
190 73 80
190 73 80
191 73 80
190 73 80
190 73 80
190 73 80
190 73 80
191 73 80
191 73 80
190 73 80
191 73 80
190 73 80
190 73 80
191 73 80
190 73 80
191 73 80
191 73 80
191 73 80
191 73 80
191 73 80
191 73 80
191 73 80
191 73 80
191 73 80
191 73 80
191 73 80
191 73 80
191 73 80
191 73 80
191 73 80
192 73 80
191 73 80
191 73 80
191 73 80
191 73 80
191 73 80
191 73 80
192 73 80
191 73 80
191 73 80
191 73 80
192 73 80
191 73 80
192 73 80
192 73 80
192 73 80
192 73 80
191 73 80
192 73 80
192 73 80
192 73 80
192 73 80
192 73 80
191 73 80
192 73 80
192 73 80
192 73 80
192 73 80
192 73 80
192 73 80
192 73 80
192 73 80
192 73 80
192 73 80
192 73 80
192 73 80
192 73 80
192 73 80
192 73 80
192 73 80
193 73 80
192 73 80
193 73 80
193 73 80
193 73 80
193 73 80
193 73 80
193 73 80
193 73 80
193 73 80
193 73 80
193 73 80
193 73 80
193 73 80
193 73 80
193 73 80
193 73 80
193 73 80
194 73 80
193 73 80
193 73 80
193 73 80
193 73 80
194 73 80
193 73 80
193 73 80
194 73 80
193 73 80
193 73 80
193 73 80
194 73 80
193 73 80
194 73 80
194 73 80
194 73 80
193 73 80
194 73 80
194 73 80
194 73 80
194 73 80
194 73 80
194 73 80
194 73 80
169 197 0
171 198 0
172 199 0
169 197 0
175 200 0
173 199 0
169 198 0
170 198 0
173 199 0
171 198 0
171 198 0
170 198 0
170 197 0
164 196 0
172 199 0
175 199 0
171 198 0
166 196 0
171 198 0
172 199 0
172 199 0
173 199 0
172 199 0
171 198 0
170 198 0
168 196 0
165 196 0
172 198 0
167 197 0
173 199 0
168 197 0
176 200 0
170 198 0
169 197 0
171 198 0
173 199 0
173 199 0
171 198 0
173 199 0
171 197 0
172 199 0
174 200 0
168 197 0
174 199 0
173 199 0
168 196 0
171 198 0
175 200 0
173 199 0
176 200 0
172 198 0
169 197 0
171 198 0
174 199 0
173 198 0
167 196 0
175 199 0
172 199 0
174 199 0
175 200 0
173 199 0
171 198 0
174 198 0
171 199 0
171 198 0
173 199 0
176 200 0
171 198 0
179 201 0
165 195 0
169 197 0
176 200 0
175 200 0
173 199 0
174 199 0
177 200 0
174 197 0
176 200 0
176 200 0
176 200 0
171 198 0
170 197 0
169 197 0
176 199 0
177 200 0
170 197 0
175 200 0
172 199 0
175 200 0
172 197 0
176 200 0
168 197 0
175 199 0
178 201 0
176 200 0
170 197 0
168 195 0
178 198 0
174 194 0
176 195 0
169 187 0
174 190 0
165 187 0
170 191 0
167 193 0
167 189 0
162 180 0
154 178 0
147 171 0
161 180 0
159 182 0
156 177 0
147 169 0
144 168 0
141 165 0
136 159 0
126 150 0
120 145 0
138 158 0
128 148 0
126 146 0
111 135 0
108 130 0
107 128 0
84 109 0
87 112 0
65 94 0
66 92 0
46 79 0
48 79 0
45 77 0
45 76 0
43 72 0
45 76 0
43 74 0
41 71 0
40 69 0
39 66 0
38 65 0
39 66 0
36 62 0
50 70 0
57 76 0
57 74 0
72 86 0
77 98 0
80 93 0
97 116 0
114 131 61
50 83 114
51 87 116
51 89 118
52 89 126
54 92 129
52 90 122
52 91 126
54 91 136
53 92 136
54 92 137
55 92 138
54 92 136
55 93 142
54 93 137
53 92 136
53 93 136
57 95 149
52 92 130
55 94 146
54 94 142
53 92 139
57 95 151
56 95 147
56 93 145
54 93 143
53 93 137
55 94 143
54 94 140
54 94 143
56 95 149
55 94 147
52 93 135
53 93 138
54 93 143
57 96 150
55 93 149
55 94 145
53 94 140
54 94 141
56 94 149
56 94 148
55 94 147
54 95 143
53 94 142
55 94 143
54 95 142
55 95 146
55 95 145
53 94 140
58 97 153
56 94 146
58 97 153
55 95 145
58 96 157
52 91 138
56 95 149
54 95 144
55 92 143
55 94 148
57 95 154
57 95 153
54 93 143
55 94 146
56 94 149
55 95 146
56 96 149
56 93 146
56 94 147
56 95 147
54 93 141
55 92 144
54 93 142
56 94 153
56 94 148
56 93 148
55 92 145
55 91 146
56 93 149
58 95 154
55 93 145
57 91 146
53 91 138
56 90 143
55 91 144
55 91 146
52 87 134
57 93 153
54 88 138
56 90 148
53 88 137
56 89 144
53 85 130
53 85 133
55 88 143
55 85 138
53 83 132
51 80 125
55 84 135
54 79 127
52 76 123
51 74 124
49 70 116
174 79 92
188 71 78
101 38 45
29 11 20
35 14 26
34 15 26
35 12 20
34 15 26
38 15 25
38 16 27
36 15 26
39 18 30
39 17 29
44 21 37
43 21 35
44 20 32
45 22 36
44 21 35
46 24 39
49 25 43
46 22 37
48 25 43
49 26 44
50 26 44
47 24 39
51 27 46
48 27 43
49 27 44
51 28 46
49 27 45
68 33 47
115 47 55
140 55 62
147 58 63
170 66 71
185 71 74
188 72 78
191 73 80
191 73 80
192 73 80
192 73 80
191 73 80
192 73 80
191 73 80
191 73 80
192 73 80
192 73 80
192 73 80
191 73 80
192 73 80
191 73 80
192 73 80
192 73 80
191 73 80
192 73 80
192 73 80
192 73 80
192 73 80
192 73 80
191 73 80
192 73 80
192 73 80
192 73 80
192 73 80
192 73 80
192 73 80
192 73 80
192 73 80
192 73 80
192 73 80
192 73 80
193 73 80
193 73 80
192 73 80
192 73 80
193 73 80
192 73 80
193 73 80
192 73 80
192 73 80
192 73 80
193 73 80
193 73 80
193 73 80
192 73 80
193 73 80
193 73 80
193 73 80
193 73 80
193 73 80
193 73 80
193 73 80
193 73 80
193 73 80
193 73 80
193 73 80
193 73 80
193 73 80
193 73 80
193 73 80
193 73 80
193 73 80
193 73 80
193 73 80
193 73 80
194 73 80
193 73 80
193 73 80
193 73 80
193 73 80
193 73 80
193 73 80
194 73 80
193 73 80
193 73 80
194 73 80
194 73 80
194 73 80
194 73 80
193 73 80
194 73 80
194 73 80
194 73 80
194 73 80
194 73 80
194 73 80
194 73 80
194 73 80
194 73 80
194 73 80
194 73 80
194 73 80
194 73 80
194 73 80
194 73 80
194 73 80
194 73 80
194 73 80
194 73 80
194 73 80
195 73 80
194 73 80
194 73 80
195 74 80
194 73 80
194 73 80
194 73 80
194 73 80
195 74 80
168 197 0
170 198 0
171 198 0
165 195 0
174 199 0
168 197 0
172 199 0
166 196 0
173 199 0
175 200 0
168 197 0
177 200 0
170 197 0
167 197 0
168 197 0
169 196 0
172 198 0
173 199 0
176 200 0
169 197 0
178 201 0
166 196 0
172 198 0
172 198 0
166 196 0
170 197 0
171 198 0
172 199 0
168 197 0
170 198 0
173 199 0
174 199 0
170 198 0
172 199 0
171 198 0
166 196 0
168 197 0
174 200 0
171 198 0
173 199 0
174 199 0
168 196 0
166 196 0
170 198 0
173 199 0
173 198 0
174 199 0
169 197 0
176 200 0
173 198 0
174 200 0
178 201 0
176 200 0
175 200 0
176 199 0
168 197 0
174 199 0
170 198 0
174 199 0
173 198 0
166 196 0
175 200 0
169 197 0
177 201 0
173 199 0
175 199 0
172 198 0
173 199 0
175 200 0
169 198 0
177 200 0
167 196 0
173 199 0
175 200 0
171 198 0
179 202 0
174 199 0
173 199 0
173 199 0
173 198 0
175 200 0
169 197 0
175 198 0
172 198 0
175 199 0
169 197 0
170 196 0
177 200 0
173 198 0
170 198 0
176 200 0
170 198 0
175 199 0
170 197 0
173 199 0
174 199 0
174 194 0
171 194 0
170 192 0
172 192 0
172 194 0
174 196 0
175 194 0
172 194 0
164 190 0
159 182 0
162 187 0
161 185 0
156 180 0
152 175 0
150 174 0
149 172 0
150 171 0
140 164 0
134 159 0
144 164 0
133 154 0
115 142 0
121 144 0
131 152 0
116 136 0
114 137 0
107 130 0
95 119 0
89 113 0
84 108 0
74 100 0
51 83 0
47 80 0
46 78 0
45 76 0
45 76 0
44 73 0
42 72 0
42 71 0
43 72 0
42 71 0
39 66 0
37 64 0
36 62 0
36 61 0
44 66 0
52 73 0
49 68 0
54 70 0
74 91 0
81 98 0
96 116 0
112 135 53
47 80 106
50 87 110
50 86 109
53 90 127
52 89 125
52 91 127
51 89 121
48 85 111
52 91 135
53 92 131
54 92 134
54 94 142
55 93 146
53 92 130
54 93 141
54 93 141
54 93 139
55 94 143
55 93 145
56 95 148
53 92 139
55 95 144
54 94 140
54 94 138
55 94 145
54 94 142
55 95 146
56 95 148
54 94 139
54 95 141
56 94 148
57 96 152
56 95 146
55 95 146
56 95 147
56 96 149
56 96 147
54 94 142
55 95 148
56 94 150
54 94 145
58 96 152
56 95 150
54 93 142
57 96 155
55 93 143
57 96 150
53 93 143
55 94 145
56 95 150
54 94 143
55 94 145
55 95 147
57 96 152
56 96 150
55 96 146
55 94 146
53 92 139
54 92 141
57 96 153
56 95 146
56 95 151
54 92 140
55 94 147
54 93 141
55 92 142
56 94 148
55 95 146
53 91 138
58 95 152
53 93 142
55 93 143
57 94 152
55 91 143
57 95 153
56 93 150
56 94 148
54 91 141
55 91 142
54 91 141
58 93 153
55 90 144
54 90 142
54 88 140
53 89 138
54 90 139
52 85 133
56 89 142
55 89 143
53 86 133
54 88 139
52 86 133
57 87 142
56 87 140
54 84 131
53 82 131
50 74 114
52 80 131
53 79 128
50 74 119
52 73 124
46 60 99
158 67 86
186 71 78
72 27 33
29 11 20
29 12 22
29 10 18
30 12 21
33 13 24
36 14 25
35 16 28
36 16 27
41 17 30
41 19 30
43 21 35
44 20 34
44 22 35
44 22 37
46 22 37
45 23 37
46 22 37
44 23 37
48 25 41
46 23 35
47 24 40
47 25 41
48 27 43
49 26 44
50 28 46
50 28 46
50 28 47
57 30 47
104 44 55
137 54 60
152 60 61
171 66 66
177 68 68
190 72 77
193 73 80
193 73 80
193 73 80
193 73 80
192 73 80
193 73 80
193 73 80
193 73 80
193 73 80
193 73 80
193 73 80
193 73 80
192 73 80
193 73 80
193 73 80
193 73 80
192 73 80
193 73 80
193 73 80
193 73 80
193 73 80
193 73 80
192 73 80
193 73 80
193 73 80
193 73 80
193 73 80
193 73 80
193 73 80
193 73 80
193 73 80
193 73 80
193 73 80
193 73 80
193 73 80
193 73 80
193 73 80
193 73 80
193 73 80
193 73 80
193 73 80
193 73 80
193 73 80
193 73 80
193 73 80
193 73 80
194 73 80
194 73 80
194 73 80
194 73 80
193 73 80
193 73 80
193 73 80
194 73 80
194 73 80
194 73 80
194 73 80
194 73 80
194 73 80
194 73 80
194 73 80
194 73 80
194 73 80
194 73 80
194 73 80
194 73 80
194 73 80
194 73 80
194 73 80
194 73 80
194 73 80
194 73 80
194 73 80
194 73 80
194 73 80
194 73 80
194 73 80
194 73 80
194 73 80
194 73 80
194 73 80
194 73 80
194 73 80
194 73 80
194 73 80
195 74 80
195 74 80
194 73 80
194 73 80
195 74 80
195 73 80
195 74 80
194 73 80
195 74 80
195 74 80
195 74 80
194 73 80
195 74 80
195 74 80
195 74 80
194 73 80
195 74 80
195 74 80
195 74 80
195 74 80
195 74 80
195 74 80
195 74 80
195 74 80
195 74 80
195 74 80
195 74 80
171 198 0
167 197 0
168 197 0
169 198 0
171 198 0
167 196 0
168 197 0
171 198 0
166 196 0
172 199 0
167 197 0
168 197 0
168 197 0
169 198 0
163 194 0
173 198 0
170 198 0
170 198 0
169 197 0
169 196 0
169 196 0
169 198 0
167 197 0
169 197 0
168 197 0
168 197 0
170 198 0
170 198 0
172 199 0
172 199 0
172 199 0
166 196 0
170 198 0
168 197 0
172 198 0
173 199 0
167 196 0
168 197 0
168 197 0
167 196 0
167 196 0
168 196 0
169 198 0
168 196 0
169 197 0
171 198 0
171 198 0
173 199 0
167 197 0
168 197 0
170 198 0
168 197 0
167 196 0
169 198 0
172 198 0
170 198 0
164 194 0
174 199 0
170 198 0
170 198 0
168 196 0
168 197 0
171 198 0
176 200 0
171 198 0
164 196 0
175 200 0
172 199 0
169 198 0
176 200 0
170 196 0
170 198 0
171 198 0
175 200 0
171 197 0
172 199 0
172 198 0
166 195 0
169 197 0
165 195 0
172 199 0
168 197 0
165 194 0
172 198 0
170 197 0
172 198 0
171 197 0
170 197 0
174 199 0
171 198 0
170 198 0
172 198 0
172 198 0
174 199 0
168 196 0
173 198 0
167 194 0
166 193 0
169 196 0
168 190 0
168 189 0
167 187 0
161 182 0
156 182 0
170 190 0
164 184 0
158 181 0
161 181 0
160 184 0
147 171 0
155 176 0
136 162 0
140 164 0
141 165 0
143 166 0
121 146 0
132 152 0
117 141 0
128 153 0
117 141 0
115 136 0
106 130 0
101 128 0
97 118 0
85 110 0
78 104 0
68 95 0
57 86 0
46 78 0
43 75 0
46 78 0
43 73 0
43 73 0
42 73 0
43 73 0
41 70 0
38 66 0
42 69 0
35 61 0
38 64 0
34 58 0
29 51 0
35 57 0
36 56 0
59 77 0
68 88 0
75 90 0
83 105 0
89 110 52
47 82 96
46 80 101
51 87 128
50 87 124
50 86 123
54 91 134
53 90 130
53 91 136
56 95 142
55 92 140
53 92 140
54 92 135
54 93 138
54 94 134
57 95 146
54 94 139
53 92 135
54 94 139
54 93 139
56 95 145
56 94 145
52 92 132
56 95 145
55 94 145
53 93 138
54 94 141
53 93 138
57 96 149
57 96 150
56 94 149
56 94 149
55 94 143
53 94 140
56 95 149
57 97 151
55 95 144
53 92 140
56 95 148
56 95 152
55 95 147
56 95 151
55 95 142
53 91 140
55 95 146
56 95 150
57 96 152
55 94 146
55 94 146
56 94 151
55 94 146
57 95 151
56 96 149
53 93 141
57 96 151
55 93 143
56 94 151
55 94 145
56 95 149
54 93 142
58 97 154
53 93 139
53 92 143
55 94 144
57 96 153
57 95 153
56 95 150
54 94 145
57 93 152
55 93 147
56 94 149
54 93 141
57 95 153
56 91 146
54 92 138
57 96 152
54 92 139
56 92 145
54 93 144
53 91 137
56 92 149
51 90 129
54 88 136
52 89 133
54 91 139
54 89 141
55 88 141
54 88 136
54 89 139
52 88 134
57 90 143
55 87 137
53 83 130
53 88 136
51 80 125
54 81 129
53 83 134
54 85 140
52 77 125
50 75 113
52 77 128
48 73 109
49 66 106
147 65 77
167 63 70
48 19 26
25 12 21
30 13 23
31 13 20
34 13 22
32 12 21
35 15 27
39 17 29
34 14 22
39 17 28
40 19 32
41 20 34
41 21 34
43 21 35
42 21 31
43 22 34
45 24 39
46 23 39
48 24 39
45 24 39
47 24 39
48 25 42
48 26 42
49 26 44
50 28 45
49 27 44
49 27 43
49 28 45
52 29 42
77 36 47
119 49 54
142 56 57
165 64 66
178 68 66
188 72 75
192 73 79
194 73 80
194 73 80
194 73 80
193 73 80
194 73 80
194 73 80
193 73 80
194 73 80
194 73 80
194 73 80
194 73 80
193 73 80
194 73 80
194 73 80
193 73 80
194 73 80
194 73 80
194 73 80
194 73 80
194 73 80
194 73 80
194 73 80
194 73 80
194 73 80
194 73 80
194 73 80
194 73 80
194 73 80
194 73 80
194 73 80
194 73 80
194 73 80
194 73 80
194 73 80
194 73 80
194 73 80
194 73 80
194 73 80
194 73 80
194 73 80
194 73 80
194 73 80
194 73 80
195 73 80
194 73 80
195 74 80
194 73 80
194 73 80
194 73 80
194 73 80
194 73 80
194 73 80
195 74 80
194 73 80
194 73 80
194 73 80
195 74 80
194 73 80
195 73 80
194 73 80
195 74 80
195 73 80
195 74 80
195 74 80
194 73 80
195 73 80
195 74 80
194 73 80
194 73 80
195 74 80
195 74 80
195 74 80
195 74 80
195 74 80
195 74 80
195 74 80
195 74 80
195 74 80
195 74 80
195 74 80
195 74 80
195 74 80
195 74 80
195 74 80
195 74 80
195 74 80
195 74 80
195 74 80
195 74 80
195 74 80
196 74 80
195 74 80
195 74 80
195 74 80
196 74 80
195 74 80
196 74 80
196 74 80
195 74 80
196 74 80
195 74 80
196 74 80
195 74 80
195 74 80
196 74 80
196 74 80
196 74 80
196 74 80
195 74 80
196 74 80
195 74 80
168 197 0
170 198 0
168 197 0
163 195 0
172 199 0
170 197 0
166 195 0
166 196 0
167 196 0
163 195 0
163 195 0
171 197 0
171 198 0
158 193 0
165 196 0
167 196 0
166 196 0
165 196 0
167 197 0
172 199 0
171 198 0
170 198 0
173 198 0
167 196 0
171 198 0
165 195 0
169 197 0
170 198 0
165 195 0
171 198 0
169 197 0
165 196 0
163 195 0
168 197 0
170 198 0
170 198 0
165 196 0
165 195 0
164 194 0
168 197 0
167 197 0
167 196 0
169 198 0
168 197 0
170 198 0
169 197 0
162 195 0
164 196 0
162 194 0
170 198 0
164 195 0
171 198 0
173 199 0
175 200 0
166 196 0
173 199 0
168 197 0
164 196 0
167 197 0
168 197 0
174 199 0
169 197 0
170 197 0
165 195 0
170 198 0
168 197 0
170 198 0
173 198 0
172 199 0
171 197 0
168 197 0
168 197 0
171 198 0
168 197 0
167 195 0
168 197 0
167 196 0
167 197 0
174 199 0
169 198 0
171 198 0
175 200 0
166 196 0
162 194 0
172 198 0
171 198 0
164 195 0
170 198 0
174 199 0
174 200 0
173 199 0
165 195 0
163 194 0
165 195 0
164 194 0
166 193 0
176 198 0
172 196 0
162 194 0
167 187 0
164 187 0
156 175 0
165 186 0
157 179 0
159 180 0
150 173 0
151 174 0
158 182 0
149 174 0
150 174 0
145 170 0
147 172 0
149 171 0
147 169 0
134 161 0
136 156 0
129 158 0
126 151 0
124 146 0
121 145 0
110 133 0
103 127 0
97 122 0
90 114 0
92 115 0
84 108 0
57 87 0
54 85 0
47 79 0
46 79 0
45 77 0
41 71 0
44 75 0
39 69 0
42 72 0
38 67 0
37 67 0
37 67 0
37 64 0
37 63 0
32 55 0
30 53 0
30 52 0
32 51 0
49 68 0
68 86 0
64 80 0
87 105 0
69 95 58
51 87 115
49 84 103
49 87 111
53 91 126
51 89 119
52 88 126
54 91 139
53 90 126
50 90 115
55 92 133
55 94 138
52 92 131
54 94 139
53 92 131
54 92 136
53 91 135
55 94 140
57 95 150
55 95 142
56 94 148
55 94 142
55 92 143
52 93 136
55 94 147
56 95 149
53 93 138
56 96 153
55 94 145
55 94 145
54 94 140
55 95 144
55 94 145
55 94 145
56 96 147
52 92 136
52 93 137
54 93 138
53 92 142
56 96 150
55 95 146
57 96 154
57 97 153
57 97 149
54 94 145
56 94 149
56 95 148
56 94 152
57 95 153
55 94 150
56 95 149
53 93 140
54 93 145
56 95 146
55 93 148
55 95 147
54 94 144
55 94 146
56 95 148
56 95 148
56 93 146
56 95 149
53 92 137
56 96 151
57 95 152
57 94 151
54 93 143
52 91 136
55 94 145
53 94 141
55 94 145
56 94 148
55 93 146
52 89 135
53 92 139
55 92 140
55 93 144
54 93 142
54 93 142
55 90 140
53 88 132
54 87 138
54 90 139
54 91 143
55 91 142
55 92 144
55 90 142
53 88 137
55 92 146
53 85 130
53 89 137
52 85 130
53 86 132
54 85 136
54 84 132
52 83 130
53 84 133
51 81 124
53 80 125
57 85 141
48 72 112
51 73 117
48 66 100
143 64 86
155 58 65
31 12 21
23 8 15
24 8 13
28 11 19
30 14 22
33 11 19
33 14 22
36 15 26
36 15 25
38 17 28
39 18 29
44 20 33
42 19 31
44 21 35
42 21 34
45 23 38
44 21 34
44 23 37
45 22 35
46 23 37
45 23 38
46 23 38
47 25 41
48 25 41
46 26 41
48 27 43
49 27 43
48 27 42
55 30 43
80 36 40
105 44 47
146 58 59
149 59 56
173 66 62
186 71 73
192 73 78
195 74 80
195 74 80
195 74 80
195 74 80
195 74 80
195 74 80
195 74 80
195 74 80
195 73 80
195 73 80
194 73 80
195 74 80
195 74 80
194 73 80
195 74 80
195 74 80
195 74 80
195 74 80
195 74 80
195 74 80
195 74 80
195 74 80
195 74 80
195 74 80
195 74 80
195 74 80
195 74 80
195 74 80
195 74 80
195 74 80
195 74 80
195 74 80
195 74 80
195 74 80
195 74 80
195 74 80
195 74 80
195 74 80
195 74 80
195 74 80
195 74 80
195 74 80
196 74 80
195 74 80
195 74 80
195 74 80
195 74 80
195 74 80
196 74 80
195 74 80
195 74 80
195 74 80
195 74 80
196 74 80
195 74 80
195 74 80
196 74 80
196 74 80
195 74 80
195 74 80
195 74 80
196 74 80
196 74 80
195 74 80
195 74 80
196 74 80
195 74 80
195 74 80
196 74 80
195 74 80
196 74 80
195 74 80
196 74 80
196 74 80
196 74 80
196 74 80
196 74 80
196 74 80
196 74 80
196 74 80
196 74 80
196 74 80
196 74 80
196 74 80
196 74 80
196 74 80
196 74 80
196 74 80
196 74 80
196 74 80
196 74 80
196 74 80
196 74 80
196 74 80
196 74 80
196 74 80
196 74 80
196 74 80
196 74 80
196 74 80
196 74 80
196 74 80
196 74 80
196 74 80
196 74 80
197 74 80
196 74 80
196 74 80
196 74 80
196 74 80
196 74 80
167 197 0
169 197 0
165 195 0
165 195 0
173 199 0
161 195 0
170 198 0
175 200 0
170 198 0
169 198 0
163 194 0
168 197 0
165 195 0
166 195 0
165 196 0
170 198 0
163 195 0
163 195 0
164 196 0
167 196 0
170 197 0
165 195 0
167 197 0
168 197 0
170 198 0
168 197 0
168 197 0
168 197 0
170 198 0
162 195 0
169 198 0
166 196 0
163 195 0
168 197 0
166 196 0
169 197 0
168 197 0
167 196 0
165 196 0
169 198 0
168 197 0
161 194 0
168 197 0
166 196 0
162 194 0
170 198 0
163 195 0
171 198 0
168 197 0
172 199 0
166 196 0
174 200 0
172 199 0
159 193 0
165 196 0
165 196 0
169 197 0
170 198 0
164 195 0
163 194 0
167 196 0
165 195 0
168 197 0
162 194 0
167 195 0
174 199 0
166 196 0
167 196 0
161 193 0
167 196 0
164 194 0
166 194 0
171 198 0
168 196 0
169 197 0
168 196 0
164 195 0
170 197 0
170 198 0
166 194 0
170 197 0
168 196 0
170 197 0
168 196 0
164 195 0
164 194 0
165 194 0
165 195 0
164 194 0
170 196 0
168 196 0
169 196 0
169 197 0
160 193 0
167 196 0
168 196 0
170 196 0
170 193 0
167 192 0
161 189 0
169 190 0
164 186 0
159 184 0
162 183 0
158 181 0
157 182 0
152 176 0
149 177 0
145 171 0
127 153 0
147 167 0
153 176 0
152 173 0
141 163 0
135 155 0
125 151 0
131 156 0
100 127 0
122 145 0
121 146 0
110 132 0
109 136 0
100 128 0
84 112 0
84 109 0
73 100 0
62 91 0
50 82 0
44 77 0
44 77 0
43 74 0
42 72 0
45 77 0
44 76 0
41 72 0
40 68 0
40 70 0
39 67 0
38 65 0
36 63 0
35 60 0
33 57 0
29 52 0
25 43 0
51 68 0
38 55 0
51 69 0
91 109 0
83 107 64
45 79 92
48 83 103
49 86 102
52 89 124
53 92 129
52 91 122
50 87 123
51 89 125
51 88 130
50 89 121
53 92 133
53 91 130
52 91 132
53 92 132
55 94 140
54 93 138
55 94 140
54 94 143
53 93 135
57 95 150
55 94 145
54 93 144
55 94 140
55 94 143
55 94 143
57 95 149
52 91 133
54 95 141
54 94 140
52 92 137
54 93 141
53 93 139
54 94 140
55 94 147
54 93 143
54 94 143
57 96 152
55 94 146
57 96 149
56 95 147
54 93 145
55 95 145
58 96 154
55 95 142
55 94 144
55 95 146
54 93 145
56 94 150
55 94 148
55 94 144
54 94 141
55 96 144
54 93 147
53 90 137
54 93 144
57 96 153
54 93 141
54 93 146
58 97 154
54 95 142
55 93 145
54 92 140
52 91 134
57 96 151
56 93 150
54 92 142
55 94 147
57 95 154
54 92 146
52 89 133
57 95 152
55 93 144
55 93 145
54 91 140
55 88 141
53 91 137
51 87 130
56 93 148
52 89 131
55 92 145
54 91 139
54 92 141
52 91 137
53 87 135
54 92 141
53 88 132
55 89 139
51 87 125
53 87 137
52 89 140
54 90 142
53 88 132
53 83 132
53 88 138
53 83 132
54 85 136
50 77 120
51 76 121
49 76 113
50 76 115
45 63 97
47 67 104
128 62 76
135 51 57
25 10 16
24 8 14
28 11 19
26 9 15
33 14 23
35 14 24
34 14 24
37 15 24
40 16 28
38 16 28
38 18 28
39 16 27
39 18 28
41 19 30
41 20 33
42 19 32
45 21 34
43 22 35
44 22 36
44 23 37
45 23 35
45 23 38
47 25 40
46 26 40
46 25 39
50 27 44
48 27 42
49 28 45
52 29 45
67 33 40
101 44 48
131 53 49
153 60 56
180 69 64
189 72 72
193 73 78
195 74 80
196 74 80
196 74 80
196 74 80
196 74 80
196 74 80
196 74 80
196 74 80
196 74 80
196 74 80
195 74 80
196 74 80
195 74 80
196 74 80
196 74 80
196 74 80
196 74 80
196 74 80
196 74 80
196 74 80
196 74 80
196 74 80
196 74 80
196 74 80
195 74 80
196 74 80
196 74 80
196 74 80
196 74 80
196 74 80
196 74 80
196 74 80
196 74 80
196 74 80
196 74 80
196 74 80
196 74 80
196 74 80
196 74 80
196 74 80
196 74 80
196 74 80
196 74 80
196 74 80
196 74 80
196 74 80
196 74 80
196 74 80
196 74 80
196 74 80
196 74 80
196 74 80
196 74 80
196 74 80
196 74 80
196 74 80
196 74 80
196 74 80
196 74 80
196 74 80
196 74 80
196 74 80
197 74 80
196 74 80
196 74 80
197 74 80
197 74 80
196 74 80
196 74 80
196 74 80
196 74 80
197 74 80
196 74 80
196 74 80
196 74 80
196 74 80
197 74 80
197 74 80
196 74 80
196 74 80
196 74 80
197 74 80
197 74 80
196 74 80
196 74 80
196 74 80
196 74 80
197 74 80
196 74 80
197 74 80
197 74 80
197 74 80
197 74 80
197 74 80
197 74 80
197 74 80
197 74 80
197 74 80
196 74 80
197 74 80
197 74 80
197 74 80
197 74 80
197 74 80
196 74 80
197 74 80
197 74 80
197 74 80
197 74 80
197 74 80
197 74 80
167 197 0
166 195 0
158 192 0
162 195 0
165 196 0
164 196 0
164 195 0
162 195 0
171 198 0
161 194 0
166 196 0
163 195 0
165 196 0
168 197 0
170 198 0
169 197 0
169 197 0
166 196 0
167 195 0
160 194 0
169 198 0
166 196 0
163 194 0
163 195 0
169 197 0
160 194 0
162 194 0
172 199 0
171 198 0
163 194 0
164 195 0
167 196 0
164 196 0
165 195 0
172 199 0
166 196 0
163 194 0
162 194 0
165 196 0
166 195 0
166 195 0
156 191 0
167 197 0
167 196 0
169 197 0
162 195 0
160 193 0
169 197 0
170 198 0
167 196 0
173 198 0
168 197 0
168 197 0
162 193 0
166 196 0
173 199 0
161 194 0
167 196 0
164 195 0
165 195 0
169 197 0
162 194 0
168 196 0
166 196 0
167 196 0
172 199 0
167 197 0
163 195 0
169 197 0
163 195 0
166 196 0
168 197 0
172 198 0
160 194 0
167 196 0
167 196 0
161 194 0
163 194 0
167 196 0
165 194 0
162 193 0
166 196 0
172 199 0
161 193 0
164 194 0
165 195 0
162 194 0
163 192 0
167 196 0
170 196 0
166 195 0
170 198 0
164 194 0
168 195 0
162 192 0
162 193 0
166 194 0
167 192 0
163 189 0
166 187 0
163 190 0
159 184 0
156 186 0
151 180 0
155 182 0
157 184 0
147 171 0
154 173 0
139 166 0
149 172 0
141 164 0
137 163 0
138 165 0
134 159 0
123 146 0
124 148 0
133 160 0
122 147 0
106 135 0
121 140 0
119 140 0
106 130 0
97 126 0
92 119 0
93 119 0
72 100 0
58 87 0
44 79 0
43 76 0
44 76 0
41 72 0
41 70 0
40 70 0
40 72 0
36 65 0
41 69 0
35 60 0
37 63 0
37 65 0
33 60 0
32 56 0
30 53 0
29 52 0
29 51 0
39 54 0
49 67 0
64 87 0
86 102 0
62 89 70
47 82 104
49 84 108
51 88 115
52 88 123
48 85 113
50 88 115
52 91 128
55 92 133
52 89 128
52 91 129
53 92 133
53 91 135
54 94 140
53 92 135
51 91 130
52 93 130
55 95 141
53 92 136
53 91 133
53 92 136
55 94 144
54 93 144
54 94 142
55 94 145
53 94 137
53 91 139
52 92 134
52 91 136
55 94 144
54 94 141
54 93 142
51 92 130
56 96 147
56 95 148
54 93 144
56 95 149
55 94 143
54 94 142
56 95 148
57 95 154
55 95 144
54 93 141
55 95 143
54 94 140
57 96 151
55 95 146
54 93 145
55 94 144
52 92 138
54 94 143
55 94 146
56 96 147
55 94 148
54 94 143
55 95 143
55 95 145
53 92 138
56 95 151
53 91 137
56 95 149
54 93 143
54 93 142
56 95 147
54 92 143
56 94 148
56 95 150
54 93 140
55 92 146
53 92 142
55 93 144
54 92 144
55 95 148
55 92 143
54 93 142
56 93 149
55 92 142
55 95 146
56 92 148
56 92 145
54 91 140
55 93 146
55 91 143
54 90 139
53 87 131
56 91 143
55 92 147
54 91 141
53 89 138
57 90 146
52 88 130
52 87 132
52 85 136
53 86 132
52 81 129
51 82 126
50 73 115
53 86 132
50 76 117
51 79 124
51 74 117
48 68 107
47 64 99
143 68 88
140 52 57
21 8 14
21 8 15
23 10 17
30 14 24
32 14 23
32 14 23
33 11 19
35 15 25
39 16 26
38 17 29
38 17 27
37 16 25
41 19 33
42 21 33
42 20 32
42 21 32
42 20 31
45 21 35
44 22 36
44 23 36
44 24 37
45 26 40
46 23 36
47 25 41
48 26 40
46 27 41
47 26 41
47 27 42
47 27 43
81 37 36
98 42 40
135 54 55
153 60 58
176 68 64
180 69 65
192 72 78
196 74 80
197 74 80
197 74 80
197 74 80
197 74 80
197 74 80
197 74 80
197 74 80
197 74 80
197 74 80
197 74 80
197 74 80
197 74 80
197 74 80
197 74 80
196 74 80
197 74 80
197 74 80
197 74 80
197 74 80
197 74 80
197 74 80
197 74 80
197 74 80
197 74 80
197 74 80
197 74 80
197 74 80
197 74 80
197 74 80
197 74 80
197 74 80
197 74 80
197 74 80
197 74 80
197 74 80
197 74 80
197 74 80
197 74 80
197 74 80
197 74 80
197 74 80
197 74 80
197 74 80
197 74 80
197 74 80
197 74 80
197 74 80
197 74 80
197 74 80
197 74 80
197 74 80
197 74 80
197 74 80
197 74 80
197 74 80
197 74 80
197 74 80
197 74 80
197 74 80
197 74 80
197 74 80
197 74 80
197 74 80
197 74 80
197 74 80
197 74 80
197 74 80
197 74 80
197 74 80
197 74 80
197 74 80
197 74 80
197 74 80
197 74 80
197 74 80
197 74 80
197 74 80
197 74 80
197 74 80
197 74 80
197 74 80
197 74 80
197 74 80
198 74 80
197 74 80
197 74 80
197 74 80
197 74 80
197 74 80
197 74 80
197 74 80
198 74 80
197 74 80
197 74 80
197 74 80
197 74 80
197 74 80
197 74 80
197 74 80
197 74 80
197 74 80
197 74 80
197 74 80
197 74 80
197 74 80
197 74 80
197 74 80
197 74 80
197 74 80
197 74 80
160 194 0
164 196 0
161 193 0
167 197 0
168 198 0
172 198 0
160 194 0
162 194 0
165 196 0
166 196 0
163 195 0
169 198 0
165 196 0
171 197 0
165 196 0
167 197 0
164 196 0
167 197 0
163 195 0
163 195 0
161 194 0
172 199 0
167 197 0
166 196 0
164 195 0
156 192 0
157 193 0
174 199 0
162 194 0
158 193 0
165 196 0
163 195 0
165 196 0
163 194 0
164 195 0
168 197 0
170 198 0
166 197 0
156 192 0
167 196 0
163 195 0
167 196 0
160 194 0
167 197 0
161 194 0
164 196 0
165 196 0
161 194 0
164 195 0
169 198 0
165 196 0
163 194 0
163 195 0
162 195 0
163 195 0
162 194 0
166 196 0
171 198 0
165 196 0
164 195 0
164 195 0
170 197 0
164 196 0
163 194 0
165 194 0
158 193 0
162 192 0
169 198 0
164 196 0
167 195 0
168 196 0
170 198 0
159 193 0
161 192 0
157 192 0
168 196 0
165 195 0
166 194 0
158 192 0
163 194 0
167 196 0
157 193 0
165 195 0
166 194 0
163 193 0
161 193 0
163 194 0
158 191 0
161 194 0
162 194 0
168 195 0
165 194 0
162 194 0
156 189 0
161 191 0
159 192 0
164 190 0
158 188 0
163 189 0
163 185 0
162 186 0
154 180 0
148 174 0
164 186 0
154 179 0
159 183 0
148 176 0
132 163 0
147 174 0
139 169 0
141 165 0
141 163 0
131 158 0
126 159 0
124 148 0
120 147 0
123 150 0
122 147 0
117 141 0
114 139 0
107 134 0
98 126 0
96 121 0
99 124 0
73 100 0
63 90 0
48 79 0
41 75 0
42 74 0
41 73 0
43 75 0
40 71 0
38 67 0
39 69 0
39 69 0
36 64 0
38 67 0
33 60 0
33 61 0
34 62 0
31 55 0
30 53 0
27 48 0
27 50 0
33 53 0
50 71 0
72 88 0
63 89 0
69 94 49
48 84 111
51 87 118
50 87 121
50 87 119
50 87 114
49 88 118
52 90 131
51 89 123
53 92 128
51 89 122
52 90 126
54 92 137
51 90 131
55 94 141
52 90 130
56 95 146
54 93 140
51 91 128
54 93 139
53 93 141
54 92 136
53 92 138
54 94 138
55 94 146
55 94 142
55 95 144
54 94 145
52 92 130
55 95 140
52 92 137
52 93 134
52 93 137
53 93 139
54 92 140
53 92 140
54 93 142
52 93 134
58 96 154
51 91 130
54 94 142
54 93 142
56 95 149
55 95 146
54 94 142
54 94 143
54 93 143
56 95 146
56 95 149
56 96 149
55 94 146
54 94 138
54 94 141
52 91 137
55 94 144
55 95 145
55 93 148
54 93 140
56 96 149
56 95 151
54 93 143
52 91 135
54 93 143
55 94 146
55 92 145
56 94 148
54 91 141
54 93 139
54 92 141
54 94 145
54 91 141
55 94 147
52 91 135
55 92 144
54 90 139
56 93 147
54 89 140
54 91 144
52 91 138
54 93 142
54 93 144
53 90 138
52 87 133
53 89 135
53 89 136
55 91 145
54 87 139
51 86 130
56 91 143
53 87 134
53 87 134
55 85 135
51 83 124
55 88 142
52 83 131
51 79 124
53 83 132
53 81 129
52 76 122
52 78 126
50 73 116
48 70 111
49 67 111
133 59 71
131 49 54
25 10 16
21 8 15
25 10 16
23 10 15
28 12 19
32 13 21
35 14 24
32 12 20
38 16 26
35 16 25
36 16 25
39 19 29
41 18 29
43 20 33
40 19 30
43 23 36
44 21 35
44 22 36
43 21 33
46 24 37
47 25 39
46 23 35
46 25 39
45 25 37
47 26 39
47 27 42
47 27 42
48 27 43
49 28 39
71 34 39
107 46 47
131 53 48
158 62 57
167 65 60
183 71 69
186 71 73
196 74 80
194 73 79
196 74 79
194 74 79
197 74 80
195 74 79
196 74 80
196 74 79
195 74 79
196 74 79
196 74 79
195 74 79
195 74 79
196 74 79
196 74 80
197 74 80
193 73 78
196 74 80
196 74 79
198 74 80
196 74 80
196 74 80
194 74 79
196 74 80
197 74 80
193 73 78
197 74 80
198 74 80
198 74 80
197 74 80
197 74 80
197 74 80
196 74 79
196 74 79
196 74 80
197 74 80
196 74 79
197 74 80
197 74 80
198 74 80
196 74 79
197 74 80
196 74 80
197 74 80
198 74 80
197 74 80
197 74 80
196 74 79
196 74 79
196 74 80
197 74 80
198 74 80
198 74 80
198 74 80
197 74 80
198 74 80
196 74 80
196 74 79
197 74 80
197 74 80
197 74 80
197 74 80
197 74 80
197 74 80
197 74 80
197 74 80
197 74 80
198 74 80
198 74 80
198 74 80
198 74 80
197 74 80
198 74 80
198 74 80
198 74 80
198 74 80
197 74 80
198 74 80
197 74 80
198 74 80
198 74 80
198 74 80
198 74 80
198 74 80
198 74 80
198 74 80
197 74 80
197 74 80
198 74 80
197 74 80
198 74 80
198 74 80
198 74 80
198 74 80
198 74 80
198 74 80
198 74 80
198 74 80
198 74 80
198 74 80
198 74 80
198 74 80
198 74 80
198 74 80
198 74 80
198 74 80
198 74 80
198 74 80
198 74 80
198 74 80
198 74 80
163 195 0
163 195 0
165 196 0
156 191 0
166 196 0
160 194 0
161 194 0
157 192 0
164 195 0
160 193 0
166 196 0
166 196 0
156 192 0
167 197 0
161 194 0
165 196 0
161 194 0
153 191 0
169 196 0
165 195 0
168 197 0
165 196 0
168 197 0
164 195 0
160 193 0
164 195 0
162 194 0
159 193 0
162 194 0
160 194 0
158 193 0
166 196 0
162 194 0
163 195 0
166 195 0
169 198 0
164 195 0
166 195 0
166 196 0
161 195 0
164 196 0
161 194 0
162 194 0
166 196 0
160 193 0
161 194 0
169 197 0
169 197 0
166 195 0
160 193 0
163 193 0
156 191 0
160 194 0
159 192 0
161 193 0
158 193 0
164 194 0
163 195 0
165 196 0
164 195 0
158 192 0
163 195 0
162 194 0
160 193 0
155 190 0
165 196 0
162 195 0
163 195 0
161 192 0
165 195 0
159 193 0
169 197 0
158 192 0
161 193 0
161 193 0
158 191 0
166 196 0
161 193 0
160 192 0
161 194 0
161 194 0
163 193 0
162 194 0
160 192 0
163 193 0
162 193 0
164 194 0
158 193 0
162 193 0
152 186 0
160 193 0
159 191 0
167 195 0
159 192 0
160 191 0
156 191 0
156 188 0
161 190 0
154 182 0
165 191 0
164 186 0
151 172 0
155 184 0
155 184 0
154 180 0
150 175 0
148 177 0
146 172 0
149 176 0
142 168 0
133 160 0
140 167 0
135 160 0
137 163 0
123 153 0
118 146 0
128 152 0
104 128 0
113 139 0
120 141 0
98 125 0
94 120 0
94 119 0
71 101 0
81 109 0
80 104 0
53 85 0
42 76 0
41 74 0
41 73 0
42 73 0
42 74 0
40 70 0
40 70 0
39 68 0
37 65 0
34 64 0
35 65 0
34 62 0
33 58 0
30 55 0
30 55 0
27 51 0
28 50 0
40 58 0
66 82 0
69 87 0
78 100 0
74 99 68
47 83 104
49 84 111
49 84 113
48 84 107
50 87 116
52 88 121
50 87 119
54 91 133
53 92 132
54 93 138
52 90 127
50 89 128
53 93 135
54 91 138
51 90 132
53 92 138
53 92 138
51 91 128
51 92 126
55 94 142
53 92 137
52 92 134
54 94 140
52 92 132
52 91 136
53 93 139
54 93 141
55 93 145
53 93 136
52 92 133
54 93 143
54 93 140
54 94 140
56 94 149
54 93 141
54 94 140
53 92 141
54 94 143
55 95 145
54 94 142
55 95 145
52 92 135
56 96 149
55 94 144
55 94 148
53 93 137
56 95 147
55 94 145
51 91 134
55 94 146
55 94 144
55 94 146
58 96 153
56 94 150
53 93 142
53 92 138
53 93 139
53 92 142
52 93 135
56 95 150
55 94 145
53 93 137
56 94 148
54 92 143
56 93 145
55 93 146
57 93 152
53 93 143
53 92 138
55 92 146
53 92 137
51 89 131
55 93 143
55 91 145
52 90 137
55 92 146
56 91 146
53 91 136
55 92 143
54 92 143
54 89 139
53 91 136
51 87 128
54 91 141
55 90 141
54 90 140
56 89 140
53 88 136
53 86 135
52 89 134
49 80 124
55 85 136
53 85 134
56 86 138
51 80 124
51 82 126
53 80 125
52 78 127
51 74 120
47 75 116
47 73 112
47 68 107
131 64 81
122 47 50
21 9 12
19 7 10
24 8 14
23 7 10
28 11 18
31 12 19
33 14 22
34 15 23
33 14 23
33 15 23
38 19 31
35 16 26
39 18 29
40 20 30
41 22 34
41 20 31
42 20 30
45 22 36
42 21 32
43 24 36
42 20 31
44 24 37
45 25 40
44 25 38
45 26 40
46 25 40
46 26 39
47 27 43
48 28 42
74 36 40
91 40 39
118 51 43
145 59 49
156 64 56
178 70 65
172 69 64
187 72 75
189 73 76
182 72 73
187 72 75
185 72 74
185 72 74
187 72 75
184 72 74
187 72 75
190 73 77
189 73 76
179 71 71
188 73 76
190 73 76
192 73 77
184 72 74
186 72 75
190 73 76
184 72 74
186 72 75
185 72 74
185 72 74
190 73 76
185 72 74
188 73 75
187 72 75
185 72 74
186 72 75
188 73 75
184 72 74
188 73 75
189 73 76
186 72 75
185 72 74
188 73 75
188 73 76
185 72 74
185 72 74
190 73 76
187 72 75
191 73 77
189 73 76
190 73 76
189 73 76
188 73 76
190 73 76
190 73 76
189 73 76
191 73 77
188 73 76
190 73 76
190 73 76
195 74 79
189 73 76
189 73 76
195 74 79
190 73 76
191 73 77
193 73 78
194 73 78
191 73 77
190 73 76
192 73 77
191 73 77
192 73 77
194 74 78
192 73 77
193 73 78
189 73 76
193 73 78
190 73 77
193 73 78
191 73 77
191 73 77
191 73 77
192 73 78
195 74 79
192 73 78
194 74 78
194 74 78
195 74 79
191 73 77
191 73 77
195 74 79
192 73 77
195 74 79
193 73 78
195 74 79
194 74 78
191 73 77
193 73 78
196 74 79
196 74 79
195 74 79
195 74 79
195 74 79
193 73 78
192 73 77
195 74 79
195 74 79
195 74 79
196 74 79
195 74 79
194 74 78
196 74 79
195 74 79
194 74 78
195 74 79
193 73 78
196 74 79
197 74 80
157 192 0
162 195 0
163 194 0
167 197 0
157 192 0
160 194 0
164 196 0
159 194 0
164 196 0
162 195 0
163 195 0
161 194 0
160 192 0
164 195 0
157 193 0
169 197 0
161 194 0
164 196 0
158 193 0
156 192 0
160 194 0
155 190 0
165 196 0
166 195 0
160 194 0
163 195 0
166 196 0
161 195 0
161 194 0
156 192 0
160 192 0
167 197 0
165 196 0
159 193 0
160 194 0
164 195 0
153 190 0
163 195 0
155 192 0
161 194 0
161 194 0
159 192 0
159 193 0
162 195 0
159 192 0
157 192 0
159 193 0
163 194 0
164 195 0
163 195 0
161 194 0
154 190 0
159 192 0
157 192 0
162 195 0
162 192 0
162 195 0
155 191 0
155 191 0
163 195 0
161 195 0
159 193 0
160 194 0
157 191 0
162 195 0
157 193 0
155 190 0
159 193 0
163 195 0
158 192 0
162 195 0
162 194 0
161 193 0
159 193 0
162 194 0
159 193 0
154 187 0
157 192 0
161 194 0
164 195 0
161 193 0
168 195 0
159 193 0
161 191 0
154 191 0
158 190 0
156 192 0
163 193 0
162 192 0
158 191 0
156 189 0
159 192 0
159 190 0
163 194 0
156 190 0
152 183 0
159 188 0
153 183 0
150 179 0
154 183 0
150 178 0
150 174 0
157 180 0
142 170 0
150 181 0
140 169 0
143 173 0
139 170 0
140 166 0
128 158 0
131 162 0
124 151 0
131 162 0
128 157 0
126 151 0
126 151 0
115 144 0
115 147 0
101 131 0
104 136 0
105 131 0
95 122 0
92 119 0
80 109 0
67 100 0
59 92 0
50 82 0
46 79 0
42 73 0
41 73 0
43 74 0
45 75 0
40 68 0
37 67 0
38 68 0
37 65 0
36 62 0
34 62 0
33 59 0
32 59 0
29 53 0
29 55 0
28 50 0
26 47 0
27 51 0
33 50 0
72 88 0
83 108 0
79 102 48
46 80 88
45 82 102
49 85 107
47 84 113
51 89 116
48 86 114
51 89 122
50 90 123
53 91 137
53 91 134
52 91 132
52 91 127
51 89 129
54 91 141
51 92 130
54 92 137
52 91 133
53 92 133
54 93 135
52 90 130
54 94 137
54 93 143
52 93 135
53 93 138
54 92 141
53 93 137
53 93 139
52 92 134
53 93 138
55 94 144
52 92 137
56 94 146
54 94 139
55 93 144
53 93 137
52 93 135
54 93 141
53 93 142
55 95 142
54 94 142
53 92 139
55 94 145
54 94 142
55 95 146
54 94 140
53 94 137
55 93 142
55 94 146
55 95 146
53 94 138
53 93 140
51 90 131
56 95 147
53 92 138
55 94 144
55 94 146
55 93 146
54 93 142
56 95 150
54 93 140
53 94 135
56 94 148
55 93 145
55 94 141
56 93 145
54 91 140
56 95 149
55 93 144
55 92 139
53 92 140
52 90 135
52 91 135
52 90 134
53 91 136
52 90 135
55 94 145
54 91 139
53 89 138
54 90 140
57 93 150
53 89 137
55 92 143
53 90 136
53 90 136
53 87 133
50 85 128
52 85 132
53 88 134
51 87 131
52 87 136
52 83 128
52 86 132
54 87 136
51 86 128
51 84 127
53 84 130
50 78 121
52 85 129
48 77 118
48 75 113
51 72 111
47 65 103
129 64 77
142 56 58
26 9 15
20 8 11
24 8 13
23 10 15
25 10 15
26 8 13
32 13 20
31 14 22
37 15 25
36 18 26
37 19 28
40 18 28
39 19 31
39 18 27
38 19 27
42 20 33
42 20 32
43 21 34
41 20 31
43 24 36
46 24 37
42 23 35
45 24 37
44 24 37
47 26 40
45 26 39
46 26 40
46 27 41
48 27 41
74 36 37
80 40 39
115 51 41
133 57 48
146 63 49
161 66 59
165 69 64
173 70 69
172 70 68
175 71 69
177 71 70
169 70 66
163 69 63
179 71 71
179 71 71
175 71 69
179 71 71
171 70 67
171 70 67
173 70 69
174 70 69
171 70 67
176 71 69
175 71 69
171 70 68
177 71 70
177 71 70
175 71 69
177 71 70
174 70 69
181 71 72
175 71 69
173 70 68
178 71 71
176 71 70
177 71 70
180 71 72
178 71 71
176 71 70
179 71 71
176 71 70
179 71 71
172 70 68
180 71 72
178 71 71
177 71 70
172 70 68
181 72 72
185 72 74
175 71 69
179 71 71
182 72 72
178 71 71
174 70 69
174 71 69
184 72 74
179 71 71
180 71 72
182 72 73
181 72 72
176 71 70
182 72 73
180 71 72
192 73 77
179 71 71
187 73 75
184 72 74
185 72 74
187 72 75
185 72 74
180 71 72
184 72 74
179 71 71
184 72 74
180 71 72
184 72 74
184 72 73
185 72 74
182 72 73
184 72 73
181 71 72
178 71 70
187 72 75
185 72 74
184 72 73
180 71 72
185 72 74
178 71 71
186 72 75
188 73 75
186 72 74
184 72 73
188 73 75
181 72 72
186 72 75
190 73 76
187 72 75
187 72 75
187 72 75
191 73 77
191 73 77
189 73 76
186 72 75
189 73 76
186 72 74
189 73 76
192 73 77
190 73 76
192 73 77
186 72 74
187 72 75
191 73 77
191 73 77
189 73 76
187 72 75
191 73 77
189 73 76
190 73 76
163 195 0
160 193 0
159 193 0
164 196 0
157 193 0
164 195 0
161 194 0
153 190 0
158 193 0
162 194 0
155 192 0
157 192 0
169 198 0
166 197 0
166 196 0
160 193 0
161 194 0
162 195 0
154 192 0
160 193 0
159 194 0
158 193 0
158 193 0
164 196 0
162 194 0
157 192 0
154 190 0
157 193 0
156 192 0
155 192 0
159 194 0
168 197 0
160 193 0
164 195 0
158 193 0
164 195 0
167 196 0
154 191 0
167 197 0
155 192 0
162 194 0
163 195 0
160 193 0
160 194 0
153 190 0
154 191 0
159 193 0
166 195 0
154 190 0
156 193 0
158 192 0
155 190 0
157 192 0
159 193 0
164 195 0
161 194 0
161 192 0
158 191 0
159 192 0
160 193 0
156 192 0
160 193 0
156 191 0
158 192 0
160 193 0
159 193 0
157 192 0
157 191 0
161 193 0
151 189 0
161 193 0
157 192 0
155 192 0
161 193 0
162 193 0
153 191 0
152 189 0
166 197 0
151 190 0
160 192 0
162 195 0
161 193 0
153 189 0
163 195 0
158 192 0
159 187 0
151 187 0
163 195 0
145 186 0
155 190 0
161 193 0
160 191 0
156 192 0
163 191 0
154 188 0
158 189 0
157 186 0
154 183 0
156 187 0
152 184 0
146 176 0
152 180 0
149 177 0
150 179 0
148 174 0
145 174 0
138 168 0
136 163 0
131 169 0
136 163 0
118 146 0
132 160 0
140 167 0
124 154 0
121 151 0
116 146 0
114 145 0
116 147 0
101 132 0
97 124 0
88 121 0
85 116 0
81 109 0
80 110 0
79 106 0
54 88 0
54 85 0
46 80 0
42 75 0
44 76 0
40 71 0
40 71 0
41 72 0
40 69 0
40 69 0
36 65 0
34 62 0
35 65 0
31 56 0
31 59 0
28 55 0
30 55 0
30 53 0
31 56 0
35 55 0
47 67 0
83 101 0
80 99 0
76 102 47
49 84 100
48 84 104
48 85 107
49 85 106
49 87 112
50 87 120
51 89 123
49 88 120
50 88 122
52 91 127
54 92 130
52 90 128
53 92 131
53 92 134
53 92 134
53 93 134
53 93 136
51 91 132
52 92 131
50 91 128
54 92 140
54 93 140
53 93 135
51 91 128
53 92 136
56 94 147
55 94 142
52 92 134
52 91 133
52 93 134
54 93 140
56 96 147
54 94 138
56 95 145
54 93 140
54 92 140
56 95 149
54 94 142
55 95 147
56 94 148
53 92 135
52 92 137
55 94 145
56 95 144
55 94 146
53 91 141
55 94 144
54 94 140
52 92 136
51 91 132
54 93 144
52 91 135
54 93 142
50 90 131
55 94 143
54 92 140
54 93 142
53 92 140
57 95 148
56 96 148
52 91 133
55 93 142
53 91 139
56 95 149
54 94 142
55 93 145
53 93 137
54 93 139
56 92 148
54 91 139
56 94 150
57 95 148
52 90 136
55 91 147
53 90 135
54 92 142
52 88 134
53 88 133
51 90 129
51 87 127
52 89 131
55 91 143
54 89 139
53 90 139
53 87 135
52 88 133
52 85 130
54 89 136
54 89 141
50 84 125
50 86 126
53 86 128
52 83 129
52 83 127
50 83 123
52 81 123
50 77 118
51 79 120
51 77 123
49 73 113
48 72 115
47 69 104
134 69 88
139 55 56
27 13 18
23 8 12
26 11 18
26 10 17
27 11 16
28 13 18
30 12 18
32 13 21
33 14 21
30 14 19
35 17 27
38 18 28
38 17 27
36 19 28
38 19 29
43 21 34
42 22 34
43 21 33
43 22 32
43 23 36
43 24 35
46 24 38
44 23 36
43 25 35
46 26 39
46 26 40
46 27 41
48 28 43
46 27 40
68 36 37
89 43 40
105 49 44
129 57 45
132 61 43
142 64 50
159 67 60
163 69 63
154 68 59
161 69 63
168 70 66
165 69 64
157 68 61
158 68 61
156 68 60
160 68 62
168 70 66
159 68 61
167 69 65
160 68 62
164 69 64
163 69 63
169 70 66
160 68 62
163 69 63
165 69 64
164 69 64
163 69 63
160 68 62
166 69 65
167 69 65
159 68 61
163 69 63
162 69 63
164 69 64
164 69 63
169 70 66
169 70 66
152 67 58
156 68 60
164 69 64
165 69 64
162 69 63
172 70 68
168 70 65
172 70 68
168 70 66
163 69 63
168 70 66
172 70 67
173 70 68
172 70 68
167 69 65
167 69 65
172 70 67
172 70 68
170 70 67
172 70 68
170 70 67
174 70 69
170 70 67
164 69 64
172 70 67
176 71 70
169 70 67
173 70 68
163 69 63
176 71 69
183 72 73
170 70 67
175 70 69
177 71 70
172 70 68
178 71 70
177 71 70
178 71 70
177 71 70
174 71 69
179 71 71
172 70 68
173 70 68
177 71 70
170 70 67
175 71 69
172 70 68
177 71 70
176 71 70
176 71 70
175 71 69
175 71 69
175 71 69
180 71 72
180 71 72
179 71 71
176 71 70
178 71 70
181 72 72
179 71 71
179 71 71
180 71 72
179 71 71
177 71 70
183 72 73
186 72 74
182 72 72
182 72 73
182 72 73
184 72 73
181 72 72
178 71 71
183 72 73
184 72 73
181 72 72
185 72 74
181 72 72
182 72 73
189 73 76
181 72 72
162 195 0
167 197 0
165 196 0
165 196 0
158 193 0
160 194 0
158 192 0
164 196 0
160 194 0
160 194 0
165 195 0
154 191 0
160 193 0
156 192 0
158 192 0
160 192 0
159 193 0
157 193 0
153 191 0
160 193 0
159 193 0
166 197 0
162 194 0
159 193 0
157 192 0
155 192 0
154 191 0
157 193 0
159 194 0
166 196 0
162 194 0
160 194 0
164 195 0
158 193 0
160 193 0
161 195 0
163 195 0
160 194 0
156 191 0
155 191 0
157 192 0
157 193 0
163 195 0
151 190 0
159 191 0
151 190 0
161 194 0
161 194 0
158 192 0
157 192 0
156 192 0
147 188 0
152 190 0
154 191 0
163 194 0
157 192 0
158 193 0
158 192 0
159 193 0
163 194 0
151 190 0
156 192 0
158 192 0
158 193 0
157 192 0
156 190 0
158 193 0
157 192 0
154 191 0
158 193 0
164 196 0
160 193 0
158 192 0
154 191 0
154 191 0
156 190 0
155 189 0
160 193 0
159 192 0
153 188 0
161 192 0
158 194 0
159 192 0
161 192 0
158 192 0
154 189 0
154 188 0
154 189 0
153 189 0
158 190 0
158 193 0
158 191 0
152 187 0
157 191 0
148 185 0
153 185 0
156 185 0
153 183 0
146 182 0
149 183 0
149 180 0
147 178 0
141 171 0
141 171 0
146 176 0
145 178 0
142 167 0
138 166 0
139 165 0
133 161 0
125 154 0
124 153 0
131 158 0
125 151 0
116 147 0
120 147 0
104 134 0
110 141 0
101 129 0
108 135 0
89 120 0
85 116 0
79 107 0
70 97 0
64 95 0
58 89 0
51 83 0
42 76 0
40 72 0
39 72 0
38 70 0
39 70 0
38 69 0
37 68 0
36 66 0
40 68 0
34 63 0
36 64 0
31 58 0
30 55 0
29 53 0
26 47 0
30 56 0
34 56 0
38 65 0
51 73 0
66 89 0
86 114 0
85 112 35
45 80 99
47 82 104
49 87 114
49 86 108
49 87 119
49 88 113
49 87 108
50 88 115
50 87 121
51 90 130
52 90 135
54 92 130
53 92 131
52 90 127
53 92 135
51 90 127
51 91 127
53 93 139
53 91 135
51 91 127
54 93 142
54 94 140
55 95 145
55 93 145
53 93 139
52 91 135
55 95 143
56 95 146
53 94 136
54 93 142
54 93 138
54 95 138
54 94 141
53 94 138
56 96 150
53 92 138
51 91 129
53 92 138
55 93 145
55 95 144
56 95 150
57 95 148
56 95 150
52 91 137
54 93 142
54 93 144
55 94 147
54 92 141
54 93 142
53 93 140
55 94 145
56 94 147
54 93 142
52 92 134
54 92 138
55 94 143
56 95 145
54 94 141
56 95 149
54 93 142
53 93 140
53 92 138
54 93 144
53 93 139
53 91 137
53 94 140
55 93 145
53 92 140
51 91 131
52 92 135
54 92 141
55 93 146
54 93 142
54 92 142
52 90 133
53 88 136
53 88 132
52 91 138
51 87 126
55 92 143
53 89 140
52 90 135
53 88 135
54 90 139
53 91 138
53 88 135
52 86 131
51 84 127
53 89 137
50 81 119
51 84 130
53 84 129
54 86 137
52 83 130
50 78 124
51 79 121
53 77 125
51 75 120
50 75 115
46 74 111
48 68 102
40 58 84
141 64 70
142 58 55
44 18 18
21 9 10
20 8 11
24 10 14
28 12 18
28 11 17
29 12 18
33 16 24
35 17 25
35 16 24
35 17 26
40 20 31
37 17 26
35 16 22
36 18 28
43 21 33
43 23 36
43 23 34
41 22 34
42 22 32
44 22 33
43 23 34
41 22 33
44 25 37
46 25 39
44 25 36
44 26 38
46 27 39
49 28 40
61 34 36
84 43 37
96 50 38
118 57 40
137 63 48
140 65 51
135 64 48
135 65 49
149 67 57
144 66 54
139 65 51
141 66 52
145 66 54
146 67 55
150 67 57
141 66 52
147 67 55
146 66 54
144 66 54
147 67 55
142 66 52
149 67 57
146 66 55
145 66 54
143 66 53
152 67 58
150 67 57
148 67 56
151 67 57
154 67 59
154 67 59
150 67 57
153 67 58
147 67 55
154 68 59
154 68 59
152 67 58
160 68 62
162 69 63
151 67 57
158 68 61
150 67 57
161 69 62
159 68 61
157 68 60
162 69 63
161 69 63
156 68 60
164 69 64
163 69 63
158 68 61
157 68 60
160 69 62
166 69 65
159 68 61
153 67 58
167 70 65
155 68 59
156 68 60
159 68 61
160 68 62
154 68 59
166 69 65
169 70 66
156 68 60
160 68 62
163 69 63
170 70 66
164 69 64
171 70 67
157 68 60
166 69 65
172 70 67
163 69 63
165 69 64
169 70 66
157 68 61
162 69 62
167 69 65
163 69 63
157 68 61
160 68 62
168 69 65
165 69 64
165 69 64
167 69 65
165 69 64
168 70 65
163 69 63
172 70 67
178 71 70
171 70 67
168 70 66
169 70 66
177 71 70
178 71 70
170 70 67
173 70 68
168 69 65
174 70 69
172 70 68
175 71 69
181 72 72
176 71 69
174 70 69
177 71 70
186 72 74
168 70 66
178 71 70
176 71 70
172 70 67
174 71 69
175 71 69
177 71 70
172 70 67
175 71 69
180 71 72
178 71 71
157 192 0
155 193 0
161 194 0
154 192 0
160 193 0
166 196 0
155 192 0
162 194 0
165 195 0
167 197 0
153 192 0
152 191 0
163 195 0
154 191 0
156 192 0
154 191 0
158 192 0
156 192 0
157 192 0
155 192 0
158 193 0
148 190 0
156 193 0
155 191 0
152 190 0
150 189 0
157 193 0
160 192 0
154 190 0
160 194 0
153 191 0
154 191 0
158 193 0
159 194 0
146 188 0
160 194 0
149 188 0
154 191 0
155 192 0
156 192 0
163 195 0
168 197 0
153 190 0
145 187 0
155 190 0
164 195 0
160 194 0
159 194 0
156 192 0
156 193 0
159 194 0
153 190 0
156 192 0
162 194 0
152 190 0
152 190 0
158 193 0
160 193 0
153 190 0
160 193 0
156 191 0
157 191 0
152 191 0
161 194 0
154 190 0
155 191 0
150 188 0
152 190 0
153 190 0
152 190 0
163 193 0
152 189 0
160 194 0
157 191 0
154 189 0
158 191 0
159 192 0
155 191 0
151 187 0
149 187 0
152 189 0
151 187 0
153 190 0
143 183 0
160 193 0
151 186 0
157 190 0
153 190 0
152 187 0
148 187 0
153 189 0
153 188 0
154 190 0
161 189 0
150 188 0
149 188 0
152 188 0
145 181 0
139 173 0
145 173 0
136 169 0
153 179 0
137 171 0
136 169 0
141 175 0
144 172 0
133 160 0
142 165 0
133 164 0
143 175 0
131 163 0
120 150 0
133 164 0
118 148 0
111 141 0
112 141 0
102 132 0
98 129 0
102 130 0
91 125 0
87 119 0
96 128 0
93 123 0
73 106 0
70 99 0
53 86 0
47 82 0
40 74 0
42 75 0
39 70 0
39 70 0
40 71 0
41 73 0
39 69 0
35 65 0
32 62 0
36 65 0
36 65 0
34 62 0
32 61 0
31 57 0
30 55 0
36 62 0
36 58 0
39 62 0
74 95 0
59 80 0
82 108 0
96 122 29
44 77 79
46 81 95
46 83 107
48 86 111
47 85 111
48 86 113
49 88 117
52 90 131
50 88 123
53 93 133
52 90 124
50 90 122
52 90 131
49 88 119
53 91 129
50 90 130
53 91 136
55 94 143
52 92 135
54 92 137
53 93 134
53 92 138
54 93 139
54 94 137
57 95 145
53 93 136
52 91 134
54 93 143
52 92 136
55 94 142
55 94 145
50 90 127
55 95 145
52 92 135
52 92 136
50 90 128
52 92 134
55 94 144
54 94 140
58 97 155
54 92 141
54 94 141
55 94 146
54 94 141
53 92 138
55 94 144
52 92 135
53 94 138
53 93 138
53 93 140
54 93 140
55 95 144
54 93 143
52 91 134
52 91 136
57 95 153
52 92 138
54 94 142
52 93 136
56 94 149
54 93 142
50 91 128
54 94 141
54 91 140
52 91 136
55 94 142
52 91 136
52 90 135
54 91 141
53 91 133
53 92 139
53 91 139
55 94 144
53 89 135
54 91 139
56 92 145
50 88 127
53 92 143
55 91 143
51 88 129
53 92 139
51 88 126
52 89 133
52 87 133
56 93 146
52 88 132
48 84 118
53 85 131
51 85 126
51 85 131
54 90 137
53 84 129
52 85 133
50 83 124
49 79 119
51 83 128
52 80 125
47 71 103
49 72 116
50 72 113
47 70 106
41 56 82
147 65 71
146 63 57
55 23 22
20 8 10
25 12 16
23 8 13
27 12 19
28 12 19
27 11 15
30 13 20
31 15 22
35 15 21
33 17 24
38 17 25
34 17 25
36 17 25
39 19 30
39 19 29
42 22 34
40 20 30
38 21 30
41 22 31
40 22 31
42 22 33
44 24 37
43 24 35
44 24 36
44 25 37
42 25 36
45 26 39
51 30 41
70 39 38
80 45 35
99 51 40
104 54 36
113 59 35
121 62 39
126 63 45
130 64 46
121 63 42
132 64 48
123 63 42
130 64 47
129 64 46
126 64 45
126 64 45
135 65 48
134 65 48
133 65 48
125 63 44
131 65 47
135 65 49
133 65 49
140 66 52
135 65 49
135 65 49
138 65 51
131 64 47
128 64 45
136 65 49
139 65 51
133 65 48
136 65 50
137 65 50
135 65 49
141 66 52
140 66 52
145 66 54
147 67 55
146 66 55
139 65 52
143 66 53
146 66 55
148 67 56
138 65 51
146 66 54
142 66 53
141 66 52
144 66 54
139 65 52
146 66 55
147 67 56
151 67 57
141 66 52
144 66 54
142 66 53
158 68 61
148 67 56
148 67 56
150 67 57
156 68 60
150 67 57
151 67 57
153 67 58
151 67 58
160 68 62
158 68 61
153 67 58
154 67 59
155 68 59
153 68 58
152 67 57
157 68 60
154 68 59
150 67 57
162 69 63
158 68 61
157 68 61
161 69 62
158 68 61
153 67 58
162 69 63
166 69 65
161 69 63
154 67 59
156 68 60
166 69 64
159 68 61
164 69 64
166 69 65
164 69 64
164 69 64
172 70 67
160 69 62
166 69 65
171 70 67
161 68 62
171 70 67
156 68 60
155 68 60
167 69 65
165 69 64
169 70 66
169 70 66
168 70 66
164 69 64
164 69 63
167 69 65
173 70 68
172 70 67
170 70 67
169 70 66
172 70 68
168 70 65
169 70 66
171 70 67
169 70 66
177 71 70
172 70 68
156 192 0
162 195 0
160 194 0
160 194 0
152 190 0
158 194 0
158 193 0
157 193 0
156 192 0
153 190 0
154 192 0
155 191 0
158 193 0
156 192 0
156 193 0
144 187 0
152 190 0
161 194 0
157 193 0
159 193 0
160 193 0
151 190 0
155 192 0
156 192 0
157 192 0
159 193 0
155 191 0
155 192 0
162 195 0
150 189 0
158 192 0
151 190 0
159 193 0
160 193 0
149 190 0
153 191 0
148 188 0
162 193 0
150 188 0
158 193 0
158 193 0
168 197 0
155 191 0
152 190 0
155 192 0
153 192 0
154 190 0
155 190 0
156 192 0
150 189 0
152 189 0
157 191 0
150 189 0
141 185 0
143 186 0
163 193 0
155 191 0
152 190 0
153 191 0
148 189 0
153 191 0
155 191 0
155 191 0
154 189 0
150 189 0
145 186 0
153 191 0
160 194 0
150 188 0
158 192 0
151 189 0
141 185 0
156 191 0
147 186 0
149 188 0
159 191 0
146 183 0
158 190 0
153 188 0
148 188 0
161 194 0
158 193 0
155 191 0
144 183 0
149 186 0
145 185 0
152 189 0
156 188 0
150 187 0
144 183 0
145 185 0
147 184 0
143 184 0
156 191 0
143 183 0
151 185 0
146 184 0
146 181 0
143 177 0
148 180 0
140 174 0
150 179 0
136 170 0
138 168 0
135 159 0
138 174 0
141 174 0
129 158 0
138 167 0
129 158 0
127 159 0
122 152 0
127 156 0
120 148 0
114 143 0
121 152 0
107 136 0
102 135 0
93 125 0
92 124 0
83 118 0
68 103 0
67 105 0
73 107 0
63 99 0
53 88 0
50 86 0
46 82 0
38 71 0
41 73 0
38 70 0
39 71 0
36 66 0
31 60 0
34 64 0
34 64 0
34 64 0
36 64 0
32 57 0
31 58 0
26 50 0
32 57 0
35 62 0
45 75 0
40 69 0
64 89 0
73 98 0
83 107 0
109 135 57
41 77 88
46 82 104
45 84 96
52 90 127
48 85 116
49 86 112
51 89 122
53 90 126
50 90 125
51 88 123
54 93 129
53 92 135
52 91 133
51 89 128
54 93 131
54 92 137
51 90 128
52 92 134
54 93 135
52 91 132
52 90 131
53 93 134
53 92 134
54 93 141
54 93 139
52 92 132
52 92 135
54 94 139
53 94 135
55 95 143
52 93 135
54 94 142
55 94 150
54 94 139
52 91 135
55 95 146
52 92 135
53 91 137
51 93 129
53 92 140
50 90 128
53 92 136
54 95 140
56 95 145
54 94 142
53 93 138
54 94 140
54 94 142
52 92 138
54 94 143
52 92 134
54 94 142
54 92 142
56 94 147
52 92 136
52 91 135
53 93 138
54 93 141
53 91 137
56 95 148
57 96 155
53 92 137
51 91 134
55 93 145
54 93 144
54 94 142
54 92 142
54 93 141
54 92 144
55 90 141
50 90 129
48 87 122
54 92 137
52 90 132
52 91 134
52 90 131
54 93 141
53 89 139
55 90 141
54 92 142
54 89 137
52 87 131
53 88 136
51 88 132
52 87 130
52 87 134
53 89 135
50 84 121
52 86 126
52 89 130
51 84 127
54 86 135
52 84 132
53 83 128
51 82 126
51 82 123
51 76 120
49 74 115
51 78 121
50 71 111
47 66 97
41 57 89
153 77 80
151 65 58
56 28 23
21 9 11
23 10 13
23 9 12
24 10 14
27 13 17
26 12 18
30 13 18
31 14 21
34 16 24
37 17 26
37 18 26
36 17 25
37 18 26
38 18 26
40 20 29
41 21 32
37 19 27
38 20 28
41 23 34
42 22 32
44 24 35
40 22 33
43 24 36
42 23 34
45 25 38
43 25 35
40 25 33
48 28 37
63 36 38
72 42 37
81 48 32
99 55 31
110 59 32
106 61 33
109 60 35
111 61 36
113 62 37
112 62 37
112 62 37
113 61 38
112 62 35
113 62 37
113 62 37
117 62 40
115 62 39
114 62 38
113 62 37
115 63 39
112 62 37
115 63 38
118 62 40
115 63 38
120 63 41
124 64 43
117 62 39
117 63 39
119 63 40
121 63 42
125 63 44
118 63 40
128 64 46
120 63 41
114 62 39
125 63 45
126 64 45
123 63 43
125 63 44
124 64 44
126 64 45
125 64 44
130 65 46
131 64 48
133 65 48
136 65 50
128 64 46
129 64 46
140 66 52
138 65 50
130 64 46
127 64 45
131 65 47
130 64 46
137 65 50
140 66 51
132 65 47
140 66 51
139 66 51
140 66 52
135 65 49
144 66 54
139 66 51
147 67 55
144 66 54
143 66 53
134 65 49
139 66 51
144 66 54
148 67 55
145 66 54
145 66 55
148 67 55
143 66 53
142 66 53
141 65 52
144 66 54
141 66 52
151 67 57
153 67 58
155 68 59
147 67 55
142 66 53
152 67 58
150 67 57
145 66 54
150 67 57
157 68 60
160 68 62
151 67 57
147 67 55
151 67 57
158 68 61
156 68 60
150 67 57
154 68 59
161 69 62
161 68 62
160 68 61
161 69 62
158 68 61
159 68 61
153 68 58
159 68 61
165 69 64
155 68 59
158 68 61
164 69 63
158 68 61
154 68 59
165 69 64
165 69 64
159 68 61
161 69 62
168 70 65
165 69 64
172 70 67
164 69 63
155 191 0
158 193 0
155 192 0
152 191 0
162 195 0
157 193 0
163 195 0
161 194 0
158 192 0
159 193 0
150 189 0
156 192 0
153 190 0
151 190 0
154 190 0
155 192 0
156 193 0
156 192 0
154 191 0
158 193 0
153 190 0
152 190 0
156 192 0
146 187 0
159 193 0
153 190 0
156 192 0
147 188 0
149 188 0
153 190 0
155 192 0
153 191 0
152 190 0
159 193 0
160 193 0
162 194 0
152 190 0
160 192 0
151 191 0
152 191 0
154 191 0
151 189 0
157 192 0
151 188 0
155 192 0
146 189 0
153 190 0
150 189 0
145 187 0
154 190 0
146 189 0
151 190 0
156 192 0
154 191 0
154 191 0
152 189 0
153 190 0
150 188 0
146 188 0
154 190 0
150 190 0
145 186 0
150 188 0
154 190 0
155 190 0
151 190 0
151 189 0
145 188 0
154 191 0
152 189 0
146 186 0
145 187 0
151 189 0
157 192 0
144 184 0
154 191 0
152 189 0
149 189 0
142 185 0
153 190 0
144 183 0
157 190 0
139 180 0
150 189 0
142 185 0
146 186 0
147 186 0
150 187 0
152 189 0
148 184 0
151 186 0
147 181 0
145 182 0
153 189 0
142 181 0
151 188 0
141 178 0
148 183 0
135 176 0
145 182 0
148 178 0
144 177 0
137 176 0
132 166 0
138 174 0
139 170 0
124 163 0
126 157 0
127 155 0
123 161 0
123 148 0
119 154 0
123 155 0
103 139 0
115 145 0
111 146 0
91 122 0
94 127 0
99 130 0
93 124 0
79 113 0
76 105 0
76 109 0
63 97 0
61 95 0
53 91 0
49 86 0
37 70 0
43 78 0
38 72 0
38 70 0
37 70 0
38 71 0
37 69 0
35 66 0
33 61 0
32 62 0
31 61 0
31 59 0
28 55 0
28 55 0
34 62 0
35 58 0
34 63 0
56 84 0
56 79 0
75 104 0
93 120 0
149 168 135
43 78 86
46 83 101
45 81 106
45 81 95
49 87 113
47 83 107
48 86 115
49 87 116
51 89 125
48 88 112
50 90 126
51 89 126
52 89 133
49 88 125
52 91 132
51 90 131
54 93 137
52 91 132
52 91 128
51 91 126
52 92 134
50 90 124
55 91 144
51 91 129
51 90 126
54 93 139
55 94 142
52 92 136
55 95 141
53 93 134
56 94 145
56 94 147
53 93 137
51 90 131
52 92 133
55 93 142
49 91 125
53 93 140
55 94 144
54 94 142
53 92 137
52 90 135
54 93 142
51 91 131
54 93 142
56 94 147
53 92 135
52 92 137
53 92 139
54 94 139
54 93 141
53 92 138
56 95 147
52 91 137
53 92 137
54 92 141
52 92 136
52 92 135
54 94 142
54 93 140
53 92 139
52 92 135
49 89 125
53 92 139
58 96 155
54 93 141
52 90 133
52 91 135
53 91 137
53 92 140
53 91 139
53 90 137
55 92 145
53 90 135
52 86 134
52 90 135
53 88 135
54 90 137
49 85 126
50 85 123
54 91 139
51 87 130
52 88 131
54 89 135
53 87 137
52 89 136
51 87 129
52 85 133
54 87 138
50 86 125
48 84 117
49 83 122
51 80 124
52 83 130
52 81 124
51 82 125
53 82 130
48 77 115
49 75 115
48 74 113
46 69 106
43 67 99
171 127 133
154 67 59
91 43 35
24 11 12
25 11 15
20 9 12
25 10 14
27 12 17
29 13 19
29 13 18
28 15 19
37 16 24
34 15 23
35 15 22
34 17 24
38 19 28
38 18 26
39 19 27
38 20 30
41 21 33
39 20 28
42 22 33
41 22 33
41 23 33
45 25 38
42 24 35
41 24 35
43 24 36
43 26 37
45 27 40
53 32 36
69 40 36
88 50 34
89 51 29
93 53 30
106 60 32
106 61 32
105 60 33
104 59 32
107 61 34
105 60 34
108 61 34
105 60 34
108 61 34
109 61 35
105 60 33
107 61 34
108 61 35
108 61 35
107 61 35
109 62 36
108 61 35
107 61 35
109 61 35
107 61 34
108 61 35
109 62 35
109 61 35
107 60 34
108 62 35
110 62 36
108 61 35
109 61 36
108 61 35
112 62 36
109 61 35
109 62 36
111 62 36
112 62 37
110 62 36
114 63 38
113 63 37
112 62 37
114 62 38
113 62 37
114 62 38
112 62 37
115 62 39
111 62 36
120 63 41
118 63 40
119 63 41
112 62 37
109 62 35
121 63 42
122 64 42
119 63 40
119 63 40
124 64 43
119 63 41
125 64 44
128 64 46
127 64 45
126 64 45
130 64 46
125 64 44
132 64 47
131 65 47
132 65 47
133 65 48
129 64 46
128 64 45
128 64 45
132 64 48
137 65 50
129 64 46
133 65 49
131 65 47
128 64 45
135 65 49
134 65 49
141 66 52
139 66 51
139 66 51
142 66 53
140 66 52
141 66 52
143 66 53
147 67 55
140 66 52
141 66 52
146 67 55
145 66 54
141 66 52
150 67 57
153 67 58
151 67 57
148 67 56
145 66 54
152 67 57
153 68 58
144 66 54
148 67 56
149 67 56
155 68 59
146 66 55
155 68 59
152 67 57
156 68 60
149 67 56
158 68 61
157 68 60
158 68 61
154 68 59
147 66 55
157 68 60
160 68 61
157 68 60
156 68 60
158 193 0
157 193 0
155 192 0
157 193 0
158 193 0
158 193 0
159 193 0
155 191 0
162 195 0
164 195 0
151 190 0
156 193 0
153 190 0
151 191 0
160 194 0
146 188 0
165 196 0
155 192 0
157 192 0
157 192 0
159 193 0
156 192 0
150 190 0
159 194 0
147 189 0
144 187 0
154 192 0
158 193 0
156 193 0
159 194 0
153 190 0
150 190 0
157 192 0
148 188 0
156 192 0
142 185 0
147 189 0
157 193 0
146 186 0
151 189 0
157 191 0
154 192 0
152 190 0
144 187 0
147 188 0
143 186 0
153 191 0
156 192 0
146 187 0
149 189 0
150 189 0
148 189 0
153 188 0
146 187 0
146 188 0
149 188 0
155 192 0
145 187 0
153 189 0
144 185 0
147 186 0
156 192 0
149 189 0
148 189 0
152 190 0
151 190 0
152 188 0
158 192 0
147 187 0
153 190 0
137 182 0
138 180 0
153 188 0
152 189 0
140 183 0
145 183 0
144 181 0
144 185 0
144 185 0
140 182 0
145 186 0
144 184 0
147 186 0
147 186 0
148 188 0
148 188 0
143 181 0
148 187 0
147 185 0
145 185 0
146 184 0
149 186 0
141 182 0
145 183 0
142 181 0
132 176 0
143 182 0
139 179 0
140 179 0
144 179 0
141 176 0
145 174 0
129 164 0
134 161 0
134 171 0
134 167 0
130 164 0
118 158 0
126 164 0
125 162 0
119 150 0
118 154 0
112 150 0
117 143 0
105 136 0
109 139 0
95 133 0
92 128 0
93 130 0
83 125 0
80 111 0
75 106 0
77 113 0
61 97 0
68 102 0
52 87 0
50 85 0
44 76 0
49 87 0
38 70 0
37 67 0
39 70 0
35 64 0
35 64 0
33 61 0
36 66 0
35 66 0
33 63 0
30 58 0
30 58 0
30 57 0
41 71 0
39 68 0
38 67 0
61 82 0
76 92 0
78 105 0
99 124 0
185 204 194
67 93 104
47 83 102
48 84 106
49 84 112
49 86 114
49 87 113
50 88 117
48 88 116
51 89 122
50 88 121
49 88 117
51 89 128
52 91 134
49 89 125
53 92 138
54 91 135
51 91 119
52 91 125
53 91 137
50 91 125
51 91 133
48 89 124
51 89 132
52 91 133
51 91 124
52 91 130
53 94 138
51 91 131
54 93 145
54 93 138
50 89 128
52 92 135
53 93 137
54 92 142
56 95 147
51 91 133
55 94 144
53 93 141
52 92 134
52 92 136
51 92 132
53 92 137
52 92 132
55 95 147
53 93 140
51 91 135
54 93 142
52 92 136
54 93 139
53 93 137
52 92 135
54 93 144
51 91 130
54 94 143
51 91 130
54 93 144
57 94 149
51 91 128
51 92 131
54 93 143
51 90 132
55 93 143
55 94 146
52 91 134
53 91 138
55 94 145
54 91 138
53 93 138
52 89 133
54 91 140
52 91 134
53 91 136
53 92 135
54 91 143
51 89 133
52 90 133
54 92 139
50 87 128
55 92 144
53 90 138
53 90 136
52 88 129
55 91 140
51 86 131
52 89 135
49 83 121
53 89 136
51 86 131
51 83 128
54 85 136
51 84 127
51 83 128
51 84 128
49 78 116
52 84 129
49 77 117
49 77 116
49 77 113
46 76 110
48 72 104
45 66 100
60 73 95
200 180 193
140 66 52
109 52 40
36 18 16
20 10 13
23 10 14
24 11 14
26 13 17
29 14 19
30 14 20
32 14 22
30 14 19
32 13 18
33 18 25
39 18 26
37 17 25
37 19 27
33 18 23
39 19 29
41 21 31
41 22 33
40 22 31
38 20 29
40 22 31
41 24 35
43 24 36
43 25 36
39 23 32
41 25 34
45 28 37
58 34 36
70 41 35
83 48 34
86 50 30
91 53 27
101 58 29
102 59 31
103 59 32
103 60 31
106 60 33
105 59 33
105 60 33
105 60 33
106 60 34
105 60 33
107 61 34
107 61 34
107 61 33
108 62 35
106 60 33
107 60 34
106 60 34
109 62 35
108 61 35
111 62 35
110 62 35
109 62 35
108 61 35
108 61 35
109 62 35
110 62 36
108 62 35
108 61 35
108 61 35
108 61 35
109 61 35
109 62 35
109 62 35
108 61 35
107 60 34
109 61 35
110 62 35
109 61 35
110 62 36
109 62 36
109 62 36
110 62 36
109 61 35
109 62 35
110 62 36
110 62 35
110 61 35
111 62 36
111 62 35
110 62 35
110 61 36
110 62 35
109 61 35
112 62 36
113 63 37
109 62 35
111 62 36
109 62 36
111 62 36
114 62 38
114 62 38
114 63 38
117 62 39
115 63 38
118 63 40
121 63 42
119 63 40
118 63 40
127 64 45
120 63 41
119 63 41
114 62 38
124 63 44
122 63 42
126 64 44
126 64 44
123 64 43
123 63 43
125 64 44
132 65 48
134 65 49
131 64 47
131 65 47
137 65 50
139 66 51
133 65 49
135 65 49
138 65 51
132 65 48
137 65 50
137 65 51
135 65 48
136 65 50
131 65 47
141 66 52
135 65 49
139 66 51
142 66 53
130 64 46
142 66 53
149 67 56
137 65 50
140 66 52
143 66 53
147 67 55
149 67 56
144 66 54
141 66 52
145 66 54
154 68 59
143 66 53
145 66 54
146 66 55
155 68 59
157 192 0
164 196 0
158 193 0
151 190 0
154 192 0
153 190 0
149 189 0
164 195 0
154 191 0
151 190 0
152 190 0
156 192 0
160 194 0
150 188 0
146 188 0
153 191 0
149 188 0
160 193 0
154 192 0
154 192 0
154 191 0
158 193 0
153 191 0
151 190 0
151 191 0
141 186 0
153 191 0
157 193 0
161 193 0
148 187 0
140 185 0
153 190 0
149 188 0
144 186 0
152 191 0
151 191 0
154 190 0
153 190 0
150 190 0
147 186 0
152 190 0
150 190 0
152 188 0
137 184 0
155 192 0
145 187 0
146 189 0
142 186 0
153 191 0
148 189 0
152 191 0
145 187 0
143 186 0
153 190 0
151 189 0
150 190 0
143 186 0
147 188 0
139 185 0
147 188 0
145 185 0
147 188 0
144 185 0
149 186 0
140 185 0
139 185 0
153 189 0
151 190 0
143 186 0
139 184 0
144 187 0
139 181 0
141 183 0
146 188 0
144 186 0
141 185 0
137 182 0
146 184 0
143 185 0
152 186 0
144 184 0
147 186 0
150 189 0
134 178 0
148 187 0
143 184 0
139 180 0
143 183 0
147 186 0
139 181 0
130 175 0
139 181 0
137 178 0
140 182 0
129 175 0
138 180 0
143 179 0
137 178 0
127 170 0
145 180 0
140 179 0
128 171 0
132 173 0
120 160 0
136 169 0
134 171 0
128 159 0
127 164 0
126 158 0
121 155 0
128 156 0
118 153 0
115 150 0
103 145 0
102 133 0
101 134 0
92 133 0
95 130 0
75 111 0
82 115 0
83 116 0
67 102 0
76 113 0
66 105 0
60 95 0
56 94 0
49 85 0
43 75 0
41 75 0
40 72 0
41 72 0
36 68 0
34 64 0
34 65 0
30 59 0
35 63 0
32 63 0
32 60 0
32 64 0
33 61 0
43 74 0
40 69 0
51 78 0
49 75 0
56 84 0
72 101 0
92 124 0
101 128 0
204 219 224
106 124 128
42 78 83
45 84 99
47 84 100
49 86 121
46 84 101
49 87 114
49 87 113
47 84 108
51 89 131
52 89 136
51 90 123
52 91 130
53 91 133
51 89 128
49 90 124
51 91 126
50 90 128
53 93 136
52 92 134
50 91 129
51 92 129
52 92 135
54 93 143
53 93 132
51 92 134
52 91 128
50 89 126
52 91 134
55 95 141
52 92 133
52 92 134
53 93 138
51 93 130
54 93 142
53 93 135
54 93 140
53 93 141
54 94 141
53 92 138
54 93 141
53 94 140
50 91 125
53 93 137
54 94 143
53 93 137
50 91 128
53 94 135
54 93 139
55 94 143
53 92 140
52 92 138
51 91 132
56 95 149
55 93 144
51 92 132
53 92 139
52 91 134
54 93 140
52 92 136
53 92 138
55 94 141
52 91 137
53 91 139
51 89 131
52 90 137
54 93 139
52 91 136
53 92 138
52 91 133
56 95 148
52 90 132
53 90 134
50 86 129
53 92 137
53 91 139
51 89 127
51 89 129
52 89 134
53 90 137
52 88 132
52 88 132
51 87 130
50 88 127
54 89 136
52 88 130
51 87 129
52 86 125
53 88 135
49 83 121
50 82 119
51 82 122
50 81 119
54 81 128
50 82 120
50 80 116
48 78 116
47 74 109
47 72 109
46 70 103
43 62 90
103 114 136
203 200 214
143 66 53
119 59 42
52 29 22
21 11 14
20 8 10
25 10 14
27 11 15
25 12 16
28 13 16
28 15 18
32 17 24
33 16 23
34 16 23
36 17 25
38 20 29
36 19 26
41 20 30
40 21 30
41 20 30
39 21 31
38 20 28
37 20 27
40 23 31
42 22 34
40 23 31
40 24 32
41 24 34
44 26 38
49 28 37
62 37 34
70 40 33
77 45 30
87 50 30
91 54 27
99 57 30
101 58 30
99 57 30
102 59 32
102 58 32
103 59 32
104 59 33
103 58 31
106 60 33
103 59 32
105 60 33
102 58 33
104 60 33
106 60 34
105 59 33
108 61 34
107 60 34
108 61 35
107 61 34
107 61 35
108 61 35
106 60 34
106 60 34
107 61 34
107 60 34
109 61 35
109 62 35
108 60 35
110 62 36
107 60 34
108 61 35
109 61 35
109 61 35
109 62 35
109 62 35
110 62 36
108 61 35
109 62 35
109 61 35
108 61 35
110 62 35
107 61 35
108 62 36
108 61 35
109 61 35
110 61 35
107 60 35
111 62 35
110 62 35
108 61 35
109 62 36
110 62 36
109 62 36
110 61 35
110 62 36
109 62 35
110 62 35
108 61 35
109 61 35
110 61 35
109 62 35
110 62 36
111 62 36
109 62 35
110 62 35
111 62 36
110 62 36
110 62 35
111 62 36
109 62 36
111 62 36
110 62 36
112 63 36
110 62 36
111 62 36
108 61 35
113 62 38
112 62 37
117 63 39
116 63 39
119 63 40
123 64 42
121 63 42
115 62 38
118 63 40
120 63 41
124 64 43
125 64 44
135 65 49
122 64 42
126 64 45
120 63 41
121 63 42
123 64 42
135 65 49
130 64 46
130 64 46
133 65 48
127 64 45
138 65 51
136 65 50
132 64 47
137 65 50
136 65 50
134 64 49
145 66 55
134 65 49
147 67 55
137 65 50
137 65 50
140 66 51
141 66 52
142 66 53
143 66 53
145 188 0
148 189 0
155 192 0
156 192 0
150 189 0
150 190 0
155 192 0
150 190 0
146 186 0
154 191 0
153 191 0
154 191 0
153 190 0
151 191 0
155 192 0
143 187 0
148 188 0
155 193 0
149 189 0
141 186 0
142 187 0
153 191 0
153 191 0
149 190 0
150 189 0
157 192 0
151 190 0
143 186 0
150 190 0
148 188 0
144 188 0
153 190 0
143 186 0
147 187 0
151 191 0
155 191 0
144 187 0
148 188 0
141 185 0
147 188 0
141 186 0
145 188 0
142 187 0
151 187 0
143 187 0
146 186 0
148 189 0
143 186 0
152 190 0
138 184 0
149 188 0
150 188 0
143 185 0
153 190 0
149 189 0
145 187 0
147 187 0
141 184 0
151 189 0
142 184 0
143 185 0
143 188 0
131 180 0
146 188 0
137 182 0
140 185 0
141 185 0
147 187 0
144 185 0
140 185 0
141 184 0
140 185 0
143 185 0
148 187 0
141 182 0
140 182 0
142 183 0
135 182 0
137 182 0
134 183 0
142 184 0
143 183 0
140 183 0
132 180 0
138 182 0
137 182 0
140 178 0
139 181 0
137 180 0
133 179 0
137 180 0
141 183 0
137 179 0
141 181 0
138 178 0
129 173 0
134 179 0
135 177 0
134 175 0
140 179 0
129 168 0
126 160 0
120 161 0
123 161 0
129 162 0
123 160 0
126 161 0
126 162 0
111 153 0
122 160 0
108 151 0
109 145 0
109 148 0
109 146 0
97 131 0
106 145 0
99 134 0
100 132 0
83 122 0
83 118 0
78 117 0
75 111 0
70 108 0
62 101 0
57 94 0
50 88 0
51 88 0
46 81 0
40 72 0
40 74 0
43 75 0
37 68 0
37 69 0
32 62 0
36 67 0
32 61 0
34 65 0
31 62 0
34 62 0
36 68 0
42 75 0
51 80 0
42 75 0
61 89 0
68 103 0
76 106 0
88 117 0
113 142 0
221 234 250
147 161 170
41 78 88
46 83 104
46 82 102
47 85 106
49 85 112
51 90 126
49 89 116
49 87 113
50 89 123
51 90 122
50 90 124
51 90 126
50 88 124
50 90 122
49 89 120
50 90 124
53 92 139
55 94 139
49 88 123
50 92 130
52 91 133
52 91 130
52 92 132
51 92 131
50 90 126
53 91 139
55 95 144
52 92 134
53 91 134
54 93 141
51 92 128
52 92 130
51 91 133
51 91 131
53 93 138
53 93 136
53 93 139
51 91 131
53 93 139
54 94 140
51 90 132
51 89 132
52 93 134
54 94 140
53 93 139
52 92 133
51 91 132
53 92 140
52 90 135
53 93 140
52 92 132
50 89 128
52 91 134
52 93 135
51 90 132
52 91 134
51 91 130
54 93 141
54 92 142
55 94 142
52 91 132
51 91 130
53 91 137
54 94 144
51 90 130
51 90 133
51 89 127
55 93 145
53 91 138
54 91 140
52 90 134
52 90 132
53 91 137
51 89 130
53 90 139
53 90 136
53 90 135
51 88 127
53 90 136
52 89 136
50 86 127
55 91 142
53 91 137
52 87 132
56 90 145
50 86 126
54 87 135
50 83 123
50 85 125
52 83 130
52 84 131
49 80 119
51 82 125
45 76 109
46 76 107
48 71 106
49 76 114
46 67 102
47 70 103
43 62 93
143 153 171
221 230 248
146 80 73
119 62 41
84 46 28
34 17 17
24 11 13
22 11 11
23 11 14
26 12 15
29 14 18
28 13 18
28 14 18
33 18 24
34 17 23
33 16 23
36 18 25
34 18 25
37 19 28
39 20 30
38 20 30
38 20 28
37 20 29
40 23 32
42 24 35
43 24 35
41 24 33
40 24 34
43 24 37
43 26 38
52 31 35
56 34 32
71 42 29
85 49 32
90 52 28
93 54 26
98 57 30
96 56 30
99 57 29
98 56 31
102 58 31
100 58 31
99 57 30
100 57 31
103 59 33
102 58 32
104 59 33
102 58 33
106 60 33
104 59 33
102 58 33
104 59 33
105 60 34
105 60 34
107 60 34
107 61 35
105 60 34
105 59 34
105 60 34
106 60 34
108 61 34
106 60 35
107 60 34
106 60 34
106 61 35
107 61 35
109 62 36
108 61 34
108 61 35
109 61 35
108 61 35
107 61 35
108 61 35
109 62 36
107 61 35
109 61 35
109 62 35
109 62 35
109 62 35
107 61 35
108 61 35
107 61 35
108 62 35
108 61 35
108 61 35
110 62 36
110 62 36
110 62 36
109 62 35
109 62 35
108 61 35
110 62 36
109 62 35
108 61 35
109 61 35
109 62 35
109 61 35
109 62 35
109 62 36
108 61 35
108 61 35
109 62 35
109 62 35
110 62 36
108 61 35
108 61 35
111 62 36
110 62 36
110 62 36
110 62 36
110 62 36
110 62 36
109 62 35
110 62 36
109 62 35
110 62 36
110 62 36
109 62 35
111 62 36
109 61 35
109 62 36
111 62 36
112 63 36
112 62 37
110 62 36
110 62 36
121 63 42
116 63 39
120 63 41
114 62 38
117 63 39
118 63 40
117 63 39
128 64 45
122 63 42
126 64 44
117 63 40
129 64 46
125 64 44
128 64 46
125 64 44
130 64 46
129 64 46
134 65 49
123 64 43
130 64 47
131 65 46
135 65 49
134 65 49
140 66 52
161 194 0
150 190 0
149 189 0
147 189 0
149 190 0
147 188 0
151 190 0
145 188 0
143 188 0
148 188 0
149 189 0
150 190 0
154 191 0
149 189 0
145 187 0
150 189 0
144 188 0
151 190 0
148 188 0
145 188 0
152 189 0
151 189 0
149 189 0
154 191 0
149 188 0
148 189 0
149 190 0
151 191 0
141 186 0
138 185 0
147 187 0
150 190 0
132 181 0
144 187 0
150 190 0
143 187 0
147 187 0
143 186 0
154 191 0
151 191 0
150 189 0
139 185 0
151 189 0
147 187 0
143 187 0
135 182 0
141 186 0
149 189 0
145 187 0
140 185 0
141 185 0
153 191 0
140 185 0
144 186 0
142 185 0
152 190 0
135 179 0
147 188 0
137 185 0
143 185 0
146 187 0
141 183 0
152 189 0
140 184 0
142 185 0
146 186 0
141 185 0
146 188 0
142 184 0
148 188 0
146 187 0
140 184 0
144 185 0
145 184 0
137 184 0
127 177 0
140 183 0
137 183 0
142 184 0
137 183 0
141 185 0
141 183 0
139 183 0
130 177 0
134 180 0
141 183 0
136 182 0
142 180 0
130 177 0
133 182 0
141 183 0
146 183 0
140 182 0
129 176 0
124 174 0
131 172 0
133 177 0
123 171 0
130 172 0
127 170 0
133 170 0
130 171 0
132 166 0
130 166 0
132 165 0
125 159 0
125 157 0
128 162 0
123 155 0
121 147 0
101 135 0
116 149 0
108 150 0
102 140 0
105 144 0
102 137 0
83 119 0
85 118 0
89 126 0
77 114 0
70 104 0
72 116 0
70 107 0
65 105 0
51 87 0
54 91 0
51 90 0
50 86 0
52 91 0
45 79 0
36 70 0
36 66 0
34 64 0
33 64 0
37 68 0
32 61 0
37 69 0
34 64 0
47 80 0
53 90 0
50 81 0
51 84 0
59 91 0
57 90 0
65 95 0
72 104 0
92 123 0
131 154 108
212 232 240
153 177 177
38 72 81
44 80 94
44 81 97
47 84 108
48 86 111
49 86 115
48 86 112
49 86 111
49 87 121
48 87 122
51 90 130
50 90 120
50 89 123
50 89 127
52 91 125
50 89 124
50 89 123
53 92 134
50 89 125
51 90 129
50 90 126
51 92 129
51 91 130
51 91 127
51 91 133
53 94 138
52 92 134
53 92 136
49 89 125
53 93 139
53 92 134
52 91 132
51 90 131
54 94 141
55 94 142
52 92 135
53 94 138
53 93 138
51 91 131
52 92 135
52 92 133
54 93 141
51 91 134
51 91 133
53 92 136
49 88 125
52 92 136
53 92 136
49 89 126
53 92 139
53 93 141
52 92 131
53 93 138
50 90 129
50 90 130
52 91 133
53 93 138
54 93 140
52 91 134
54 92 142
53 92 138
54 92 137
53 93 137
55 94 145
55 93 143
53 93 136
53 91 139
55 93 141
54 92 139
51 88 130
54 92 138
53 90 136
53 91 133
51 88 134
52 88 132
52 89 136
51 89 134
55 91 142
51 87 128
52 87 132
51 88 127
51 85 127
52 87 131
50 83 127
50 82 123
53 86 132
51 84 126
51 87 131
52 82 127
49 83 121
49 79 118
50 80 118
50 80 122
47 74 106
49 78 112
48 71 108
44 69 97
45 67 94
44 69 99
45 63 92
159 181 183
211 231 239
150 112 110
116 62 39
98 56 33
53 30 22
30 14 14
25 13 16
26 14 15
28 13 18
30 13 17
29 13 19
30 14 19
30 16 21
31 17 22
34 18 24
36 19 27
34 18 24
37 19 25
38 21 28
36 20 29
36 20 26
39 21 30
37 21 28
39 21 31
42 24 34
42 25 34
41 24 34
41 24 33
45 27 35
55 33 29
61 36 33
70 42 31
84 50 27
86 51 25
95 55 28
93 55 27
97 55 29
96 55 28
98 56 29
99 56 30
100 57 31
97 56 30
96 55 31
97 55 31
103 58 31
101 57 31
104 59 33
103 57 32
105 60 34
102 59 33
103 58 33
103 58 33
105 59 34
106 60 34
102 57 32
106 60 34
106 60 33
109 61 35
108 61 34
107 60 34
109 62 35
108 61 35
108 61 35
108 60 35
108 61 34
108 61 35
107 60 35
108 61 35
106 60 35
107 60 35
107 61 35
107 60 34
109 61 35
108 61 35
109 61 35
107 61 35
107 61 35
108 61 35
108 60 34
109 61 35
110 62 35
108 61 35
109 62 35
107 61 35
109 61 35
108 61 35
108 62 35
108 61 35
110 62 35
110 61 35
110 62 36
109 61 35
109 61 35
108 61 35
110 62 35
107 61 35
109 61 35
109 61 35
110 61 35
110 62 36
109 62 36
108 61 35
110 62 36
110 62 35
109 62 35
109 62 35
111 62 36
109 62 35
107 61 35
109 62 35
109 62 36
110 62 35
110 62 36
110 62 36
110 62 36
109 62 36
109 61 35
110 62 36
109 62 35
109 62 36
110 62 36
110 62 36
110 62 36
109 62 35
110 62 36
109 62 36
111 62 36
110 62 35
110 62 36
110 62 36
110 62 36
113 62 37
110 62 35
111 62 36
112 62 37
118 63 40
111 62 36
112 62 36
115 63 38
118 63 40
115 63 38
118 63 40
122 63 43
117 63 40
121 63 42
123 63 43
119 63 41
119 63 41
127 64 45
159 193 0
141 186 0
154 192 0
150 189 0
150 190 0
151 190 0
155 191 0
152 191 0
150 188 0
144 186 0
145 188 0
146 188 0
148 189 0
150 190 0
144 187 0
146 189 0
144 185 0
146 188 0
143 187 0
147 187 0
147 188 0
147 187 0
144 186 0
146 188 0
149 189 0
153 190 0
143 186 0
146 189 0
146 189 0
147 187 0
146 188 0
148 189 0
149 189 0
142 186 0
143 186 0
136 184 0
141 186 0
148 190 0
138 183 0
145 186 0
149 189 0
147 189 0
149 189 0
150 189 0
139 185 0
145 187 0
142 186 0
150 190 0
141 186 0
137 183 0
149 187 0
138 185 0
139 185 0
138 184 0
145 187 0
143 184 0
146 186 0
135 182 0
138 183 0
135 182 0
141 186 0
146 185 0
138 185 0
141 185 0
143 184 0
147 185 0
129 179 0
144 185 0
142 184 0
139 182 0
137 182 0
140 184 0
144 185 0
145 187 0
133 183 0
139 182 0
136 182 0
136 181 0
137 184 0
146 186 0
137 183 0
135 182 0
125 176 0
130 177 0
130 179 0
127 176 0
140 180 0
133 178 0
133 176 0
130 177 0
132 178 0
135 181 0
132 179 0
133 174 0
134 177 0
129 178 0
124 170 0
132 174 0
126 173 0
133 175 0
123 169 0
124 163 0
127 165 0
127 170 0
126 162 0
123 155 0
109 148 0
114 154 0
118 160 0
105 142 0
105 139 0
103 141 0
106 143 0
101 143 0
97 137 0
89 128 0
78 118 0
75 113 0
85 126 0
76 115 0
69 111 0
59 96 0
56 94 0
56 95 0
56 94 0
52 87 0
51 88 0
51 88 0
46 81 0
40 74 0
41 74 0
46 80 0
33 64 0
30 61 0
37 70 0
34 65 0
40 73 0
39 71 0
47 82 0
46 83 0
52 87 0
57 93 0
55 84 0
73 102 0
68 101 0
74 107 0
91 123 0
116 170 78
123 197 114
117 189 109
39 74 81
42 78 86
44 81 96
47 83 108
46 84 111
47 86 110
47 87 110
47 86 116
47 86 114
51 89 128
53 92 134
50 91 121
51 91 124
51 90 124
51 90 131
51 92 123
52 91 135
49 87 122
52 91 132
53 93 132
51 91 130
49 88 125
49 89 122
53 93 134
53 91 139
51 90 129
53 94 138
49 90 123
50 90 126
50 90 125
52 93 136
52 92 135
52 93 131
53 93 136
54 94 140
53 93 138
52 91 137
52 91 133
49 90 124
52 92 133
51 92 133
51 92 129
52 91 134
51 88 132
51 91 133
53 93 137
52 90 134
53 94 140
53 92 137
51 91 131
51 91 132
53 91 136
54 91 142
53 92 137
52 91 136
53 93 136
51 92 129
54 93 143
50 88 128
52 91 134
54 92 141
50 90 127
53 91 139
53 91 137
52 90 134
50 89 125
52 91 135
52 90 132
54 93 139
50 88 129
47 85 118
53 91 139
53 92 138
53 89 136
51 88 128
52 90 135
53 89 137
51 89 130
52 88 131
52 85 126
52 88 133
53 90 134
50 87 124
50 85 124
51 85 125
49 83 119
50 86 125
50 82 125
48 82 118
50 85 123
47 81 115
49 81 117
47 78 111
47 82 115
48 75 113
44 76 104
48 78 110
46 72 107
43 61 88
42 58 81
112 180 108
124 198 114
128 139 83
116 62 39
106 60 34
87 49 29
38 19 16
25 14 15
26 12 14
26 12 16
27 12 16
27 14 17
31 14 21
30 17 23
32 15 18
33 16 25
34 20 27
34 18 25
31 18 22
37 20 26
36 20 25
37 21 29
35 21 27
38 21 30
37 22 30
40 23 33
38 23 32
37 23 30
42 26 34
51 30 35
53 32 31
64 38 27
71 41 26
82 48 28
89 52 28
90 52 27
91 53 27
92 53 28
96 55 29
97 55 30
94 53 29
101 58 31
97 55 31
94 54 30
102 58 32
101 57 31
101 57 33
103 59 32
101 58 32
103 58 33
103 59 33
102 58 32
105 60 33
104 59 34
107 61 35
108 61 35
107 61 34
106 60 34
106 60 34
103 59 34
103 58 33
103 59 33
107 60 34
108 60 34
106 60 34
107 60 34
106 60 34
105 59 34
107 60 34
106 60 35
107 61 35
108 61 35
105 59 34
107 61 34
109 61 35
107 61 35
108 60 34
106 60 35
106 60 34
106 60 35
107 60 35
109 61 35
109 61 35
110 62 36
109 62 35
110 62 36
110 62 35
110 62 36
108 61 35
109 62 35
108 61 35
108 61 35
109 61 35
109 61 35
110 62 35
109 61 35
110 62 36
109 61 35
108 61 35
109 61 35
110 62 36
109 61 35
109 61 35
109 61 35
109 61 35
109 61 35
109 62 35
108 61 35
109 62 36
110 62 35
109 61 35
109 61 35
109 62 35
108 61 35
109 61 35
109 61 35
110 61 35
110 62 36
109 61 35
109 62 36
109 62 36
109 62 36
110 62 35
109 61 35
108 61 35
110 62 36
109 61 35
108 61 35
111 62 36
109 62 36
110 62 36
110 62 35
110 62 35
110 62 36
109 61 35
110 62 36
110 62 35
110 62 36
110 62 35
109 62 36
110 62 36
112 63 36
110 62 36
110 62 36
110 62 36
111 62 36
114 63 38
114 63 38
114 62 38
115 62 38
149 189 0
145 186 0
150 190 0
146 188 0
146 189 0
144 187 0
155 191 0
146 187 0
156 192 0
150 190 0
146 188 0
146 186 0
145 188 0
141 184 0
152 190 0
149 189 0
153 191 0
142 188 0
144 186 0
143 187 0
143 187 0
147 187 0
146 186 0
148 189 0
149 189 0
136 184 0
150 188 0
145 188 0
151 190 0
141 184 0
142 184 0
142 186 0
141 186 0
140 186 0
147 186 0
142 184 0
141 187 0
150 187 0
143 186 0
145 188 0
138 185 0
141 185 0
141 184 0
138 184 0
145 187 0
139 185 0
142 185 0
143 185 0
142 185 0
140 184 0
148 189 0
145 186 0
139 184 0
143 186 0
137 182 0
139 185 0
139 185 0
131 180 0
129 181 0
139 184 0
141 185 0
139 184 0
135 180 0
138 183 0
131 182 0
143 185 0
134 181 0
139 184 0
140 184 0
129 176 0
137 183 0
139 182 0
139 183 0
142 184 0
144 186 0
134 182 0
130 180 0
129 178 0
133 181 0
131 176 0
129 180 0
137 182 0
129 177 0
139 183 0
128 172 0
133 177 0
132 178 0
135 180 0
127 174 0
134 178 0
118 173 0
130 176 0
128 174 0
124 171 0
126 176 0
126 169 0
127 176 0
122 169 0
123 170 0
125 169 0
128 170 0
121 167 0
121 165 0
123 163 0
118 161 0
112 152 0
109 152 0
115 157 0
105 147 0
112 154 0
105 142 0
97 139 0
101 139 0
98 137 0
100 141 0
89 125 0
83 121 0
82 125 0
75 118 0
75 117 0
71 117 0
68 108 0
59 102 0
64 105 0
56 95 0
51 89 0
45 77 0
48 85 0
47 83 0
42 78 0
39 73 0
37 70 0
41 73 0
34 65 0
34 67 0
41 74 0
38 70 0
40 73 0
52 90 0
45 80 0
51 89 0
75 105 0
72 103 0
82 116 0
76 106 0
93 121 0
99 134 0
118 181 97
122 197 114
123 197 113
56 97 75
41 75 81
44 79 96
46 84 105
45 83 101
46 83 112
51 89 123
47 86 111
49 88 117
48 88 114
49 89 113
46 84 108
49 89 118
45 84 106
51 89 125
50 90 125
48 88 117
49 89 122
51 91 130
49 87 127
49 90 121
51 90 127
49 89 125
52 91 129
48 89 122
53 91 136
52 92 137
49 91 124
50 91 129
51 91 125
52 92 134
53 93 136
50 90 124
50 90 125
55 94 144
50 90 129
52 91 134
52 92 139
54 94 141
53 92 131
53 94 137
52 91 133
52 92 137
53 92 138
51 91 128
52 92 135
54 94 139
53 91 138
48 90 122
53 92 139
55 94 142
54 92 138
50 90 131
54 92 140
53 93 138
53 93 140
53 92 138
53 91 140
54 92 139
54 93 141
52 91 135
53 92 136
49 88 127
52 91 136
53 92 140
53 93 140
52 91 133
48 86 120
53 92 142
51 90 132
52 90 137
51 90 129
50 88 126
52 90 135
52 90 134
52 89 132
51 88 133
50 86 129
49 86 126
51 88 129
49 85 124
51 86 126
52 88 132
51 82 125
48 84 118
49 86 127
48 81 120
50 84 128
51 86 127
51 80 121
49 80 115
47 79 115
48 78 110
46 75 110
45 72 100
47 78 112
51 80 123
47 71 109
45 67 102
52 81 75
124 198 114
123 197 113
123 180 104
117 62 40
108 60 35
100 56 33
62 35 23
30 16 17
21 11 11
25 13 15
29 14 17
28 16 17
29 15 18
31 14 17
29 15 19
33 17 23
34 17 22
34 19 25
34 18 23
36 20 27
38 21 30
39 21 30
38 22 29
38 21 31
38 23 31
36 21 28
39 23 32
43 25 38
46 29 32
55 33 33
57 34 31
65 38 28
80 46 28
81 46 27
83 48 27
87 51 27
91 53 28
95 54 29
92 53 29
91 53 28
97 55 31
96 56 31
101 58 32
101 57 32
97 55 29
101 57 32
100 57 31
98 55 31
105 60 33
101 57 32
99 57 32
101 57 32
101 57 32
105 59 34
105 59 34
105 60 34
107 60 34
104 59 33
107 60 34
108 61 35
104 60 34
107 60 34
106 60 34
106 60 34
104 59 33
107 60 35
108 61 35
108 61 35
107 60 34
106 60 34
107 60 34
104 59 33
109 61 35
107 61 35
108 60 34
107 61 35
107 60 34
107 60 34
108 61 35
106 61 35
108 61 34
109 61 35
108 61 35
107 60 35
106 60 35
109 62 35
108 61 35
109 61 35
109 61 35
107 61 35
108 62 35
109 61 35
107 61 35
108 61 35
110 62 35
109 62 36
109 61 35
107 60 34
111 62 35
109 62 35
109 62 36
109 62 36
109 62 35
108 61 35
108 61 35
107 61 35
108 61 35
108 61 35
109 62 35
109 62 35
109 61 35
109 61 35
109 61 35
109 61 35
109 61 35
109 62 35
109 61 35
109 62 35
109 62 35
109 62 36
109 61 35
109 62 35
110 61 35
110 62 36
110 62 36
109 62 35
108 62 36
108 61 35
109 62 36
110 62 35
110 62 36
110 62 35
109 61 35
109 62 35
110 62 35
109 62 36
110 62 36
109 62 35
111 62 35
111 62 36
110 62 36
110 62 35
110 62 36
109 62 36
109 62 36
111 63 36
109 62 36
109 62 35
110 62 35
110 62 36
144 188 0
146 188 0
147 189 0
152 190 0
153 191 0
143 186 0
156 193 0
148 188 0
144 187 0
146 188 0
149 190 0
144 187 0
136 185 0
147 189 0
139 185 0
148 188 0
147 189 0
149 189 0
140 185 0
143 187 0
146 187 0
146 186 0
146 189 0
140 184 0
142 186 0
136 184 0
141 186 0
143 186 0
143 187 0
145 187 0
135 184 0
139 184 0
142 186 0
135 183 0
143 186 0
146 188 0
136 183 0
142 187 0
136 185 0
142 186 0
141 185 0
135 183 0
148 188 0
136 183 0
144 187 0
134 183 0
136 184 0
138 182 0
144 186 0
138 185 0
132 181 0
139 183 0
133 181 0
135 183 0
139 183 0
133 182 0
142 183 0
131 179 0
125 178 0
133 180 0
132 182 0
138 183 0
128 179 0
139 183 0
129 181 0
130 179 0
133 181 0
129 180 0
136 183 0
136 180 0
132 182 0
128 180 0
133 179 0
126 177 0
133 179 0
126 177 0
129 179 0
137 181 0
120 173 0
130 178 0
126 175 0
125 176 0
132 179 0
118 169 0
132 178 0
122 169 0
132 175 0
125 176 0
130 178 0
122 172 0
128 176 0
128 175 0
127 176 0
127 178 0
127 176 0
126 173 0
120 170 0
122 168 0
115 165 0
131 172 0
112 162 0
122 170 0
118 167 0
112 157 0
127 166 0
109 149 0
103 145 0
105 152 0
111 150 0
103 144 0
103 147 0
100 141 0
101 151 0
86 129 0
92 137 0
78 124 0
90 131 0
79 120 0
74 117 0
72 117 0
68 111 0
61 100 0
62 104 0
61 103 0
54 89 0
54 94 0
51 88 0
46 81 0
47 84 0
45 80 0
42 77 0
38 70 0
38 72 0
38 71 0
40 74 0
43 77 0
45 80 0
50 87 0
49 87 0
50 84 0
55 95 0
60 96 0
67 95 0
67 103 0
81 117 0
94 129 0
108 147 36
122 197 113
123 197 114
123 197 113
78 130 87
39 76 82
43 79 92
45 83 96
46 85 107
47 86 114
45 84 108
48 86 113
51 89 125
50 88 124
48 87 118
50 90 124
54 93 134
49 87 119
52 92 131
52 91 131
52 90 129
49 89 121
51 91 127
52 92 134
50 89 129
51 90 127
49 89 123
53 92 134
51 93 126
51 90 129
52 90 133
54 94 141
51 91 128
51 91 132
50 90 126
52 92 137
53 91 138
49 89 122
51 91 135
52 92 133
52 92 138
49 90 122
52 92 132
52 92 136
51 90 131
53 92 139
51 90 131
53 92 135
52 92 137
51 92 133
51 91 132
51 90 130
49 88 129
52 91 134
52 92 137
52 91 135
51 91 131
53 91 136
52 93 134
51 90 131
53 92 136
53 90 135
53 94 137
53 92 137
52 92 134
51 91 131
51 90 131
53 92 137
51 90 129
50 87 127
52 92 135
54 93 141
51 90 132
50 89 128
52 86 134
52 90 135
52 90 133
51 89 133
53 91 137
51 85 127
50 84 125
54 90 139
50 86 122
53 93 140
52 90 134
48 85 115
49 85 124
48 84 121
49 86 126
49 86 122
51 85 124
48 81 115
47 83 113
48 82 115
48 77 111
46 76 106
47 79 110
49 80 120
47 75 111
44 71 100
45 69 101
44 67 102
44 70 103
90 143 100
122 197 114
123 197 114
124 198 114
111 91 53
107 60 35
105 59 35
84 48 29
43 23 19
24 14 14
27 13 15
22 11 11
24 11 11
28 13 16
28 14 19
30 16 21
33 18 24
29 16 19
34 20 28
32 18 22
34 19 25
35 20 24
35 21 27
37 21 29
38 23 30
35 21 26
34 21 27
40 24 33
41 24 29
48 29 30
57 33 26
62 36 28
69 41 26
75 45 26
83 49 26
83 47 25
86 50 27
89 51 29
89 51 29
94 54 29
95 54 30
90 51 29
94 54 30
96 54 29
97 56 31
102 57 33
101 57 32
94 53 30
100 57 31
102 58 32
102 58 33
103 58 33
96 55 31
103 59 33
101 57 32
101 57 33
103 58 33
102 57 33
103 57 32
103 59 34
103 58 33
106 59 34
105 59 33
105 59 33
107 60 34
106 60 34
106 59 33
105 60 34
106 59 34
106 60 35
107 60 34
103 58 33
108 61 35
106 60 34
107 60 34
110 62 35
107 60 34
105 60 34
107 60 34
107 60 35
106 60 34
108 61 35
107 61 35
108 61 35
107 60 34
107 60 35
110 62 35
107 60 35
108 61 35
108 61 35
107 61 35
108 61 35
108 61 35
109 61 35
108 61 35
108 60 34
109 61 35
109 61 35
109 61 35
109 61 35
108 61 35
108 61 35
108 61 35
110 62 36
109 61 35
108 61 35
109 62 36
109 62 35
109 61 35
110 62 35
109 62 36
108 61 35
110 61 35
109 62 35
109 62 35
108 60 34
109 61 35
111 62 36
109 61 35
110 62 35
108 61 35
109 62 35
109 61 35
109 61 35
108 61 35
109 61 35
109 62 36
110 62 36
109 62 36
109 62 35
110 62 36
110 62 36
109 61 35
111 62 35
110 62 36
109 62 35
111 62 36
109 61 35
109 62 36
109 62 36
110 62 35
110 62 35
111 62 36
110 62 35
110 62 36
109 62 35
109 61 35
110 61 35
110 62 36
109 62 36
110 62 36
154 191 0
144 187 0
151 191 0
149 190 0
144 186 0
142 185 0
150 190 0
159 192 0
149 190 0
158 194 0
147 189 0
151 190 0
142 187 0
138 185 0
149 190 0
139 184 0
144 187 0
147 188 0
142 185 0
144 187 0
145 188 0
137 185 0
151 190 0
145 186 0
136 183 0
137 184 0
142 187 0
135 182 0
141 186 0
141 186 0
133 182 0
139 185 0
135 182 0
138 185 0
130 182 0
139 184 0
144 187 0
138 185 0
127 180 0
138 184 0
134 181 0
138 185 0
143 186 0
144 187 0
139 181 0
135 181 0
140 185 0
142 185 0
136 182 0
132 182 0
137 183 0
131 181 0
130 180 0
132 178 0
131 179 0
136 182 0
137 184 0
122 175 0
136 182 0
130 179 0
130 178 0
135 183 0
125 177 0
136 182 0
131 180 0
133 182 0
131 176 0
134 183 0
133 182 0
123 177 0
120 173 0
134 180 0
128 178 0
132 180 0
129 177 0
130 179 0
124 176 0
128 177 0
123 177 0
130 179 0
125 178 0
124 175 0
122 175 0
122 177 0
124 177 0
120 173 0
120 173 0
122 173 0
117 171 0
120 170 0
117 166 0
126 176 0
115 169 0
115 169 0
120 169 0
117 167 0
117 164 0
126 174 0
115 160 0
118 168 0
109 158 0
114 161 0
131 172 0
115 160 0
102 147 0
116 159 0
106 150 0
106 150 0
103 148 0
106 153 0
98 144 0
86 135 0
99 141 0
84 127 0
85 123 0
89 129 0
90 126 0
78 125 0
79 119 0
78 123 0
71 114 0
66 108 0
63 106 0
63 102 0
54 95 0
56 95 0
50 86 0
52 91 0
49 86 0
49 84 0
44 82 0
39 72 0
44 79 0
41 74 0
45 81 0
40 74 0
43 77 0
45 81 0
52 90 0
56 92 0
53 89 0
64 103 0
61 103 0
82 116 0
80 121 0
99 137 0
108 166 83
124 198 114
122 197 114
123 198 114
98 159 103
41 79 90
42 79 88
46 84 109
48 86 113
48 86 117
45 84 111
47 86 117
46 83 108
48 88 115
48 87 113
50 88 124
49 87 123
49 89 123
51 90 131
48 89 118
50 88 125
49 88 120
50 89 126
50 89 124
49 88 128
55 93 142
52 92 137
51 92 131
52 93 134
51 90 127
53 93 135
48 89 122
48 88 118
52 92 134
52 90 137
51 92 130
55 93 145
51 91 130
51 92 128
52 93 134
50 91 128
50 90 129
52 92 134
55 95 145
52 91 134
52 93 134
52 92 136
54 93 138
51 92 132
50 91 127
51 91 131
51 90 134
53 92 139
52 91 134
54 93 142
54 92 142
51 92 133
50 88 127
53 91 137
52 91 136
54 93 140
53 93 134
49 88 122
50 89 128
53 92 139
49 89 124
50 87 124
52 90 133
54 93 140
51 90 129
53 91 138
49 88 127
52 91 134
49 89 128
53 90 139
52 91 133
54 90 139
52 91 130
50 87 128
49 87 126
51 89 132
51 87 130
53 90 137
50 86 124
51 87 129
50 85 123
48 84 117
50 86 127
49 84 125
48 82 117
51 87 130
49 83 122
50 84 120
48 82 115
46 79 106
48 81 113
48 80 120
48 78 113
48 76 115
45 70 99
46 70 108
42 69 98
40 64 90
103 165 100
123 197 114
124 198 114
124 198 114
114 138 80
110 61 35
109 60 35
100 56 32
73 41 25
43 23 19
31 17 18
27 14 18
28 14 17
29 16 18
29 15 18
28 15 16
28 15 17
30 15 19
37 18 27
32 19 25
33 19 24
33 18 25
36 21 28
36 20 27
39 21 29
36 21 29
37 23 30
39 23 30
50 29 30
61 35 29
52 31 29
69 41 28
71 42 28
73 43 23
81 47 25
86 49 26
79 45 24
83 48 27
86 50 27
88 50 27
94 52 28
86 50 27
99 56 30
90 51 28
95 55 29
91 52 29
99 56 31
103 58 33
97 55 31
96 55 31
100 56 32
100 58 32
99 56 32
100 56 32
104 58 33
98 55 31
103 58 33
102 57 32
106 59 34
105 58 33
101 58 34
103 58 33
104 58 33
102 57 32
106 60 34
105 59 33
105 59 34
106 59 34
105 59 33
104 58 33
103 59 34
106 59 33
107 61 35
107 61 35
106 60 34
107 61 35
108 61 35
109 61 35
108 60 35
108 60 35
108 62 36
108 61 34
105 59 34
107 60 34
109 62 35
107 60 35
109 61 35
105 59 34
108 61 35
109 62 35
106 60 34
107 60 35
109 61 35
109 62 35
108 61 35
107 61 35
109 61 35
108 60 34
108 61 35
108 60 35
109 61 35
110 62 36
108 61 35
107 60 35
107 61 35
108 61 35
108 61 35
108 61 35
109 61 35
107 61 35
110 62 36
108 61 35
109 61 35
109 62 36
108 61 35
109 61 35
107 60 35
108 61 35
109 62 36
109 62 35
110 62 36
109 61 35
110 62 36
109 61 35
110 62 36
109 61 35
109 61 35
108 61 35
108 60 35
109 62 35
109 62 36
111 62 36
109 62 35
110 62 35
109 62 35
110 62 36
110 62 35
109 62 36
109 62 35
110 62 35
110 62 36
109 62 36
109 61 35
109 62 36
109 61 35
109 62 36
109 62 35
110 62 36
110 62 36
109 61 35
109 62 36
144 187 0
147 188 0
144 187 0
152 191 0
145 188 0
132 183 0
139 185 0
150 190 0
147 186 0
146 188 0
142 186 0
138 184 0
144 187 0
137 183 0
137 184 0
142 185 0
142 186 0
139 186 0
143 186 0
141 185 0
145 187 0
142 187 0
142 186 0
133 183 0
141 186 0
146 188 0
142 187 0
135 183 0
141 185 0
145 187 0
145 186 0
143 186 0
139 185 0
131 182 0
136 182 0
134 181 0
136 182 0
133 182 0
133 183 0
131 181 0
129 180 0
135 184 0
132 181 0
133 184 0
129 179 0
134 182 0
135 181 0
126 179 0
133 181 0
139 185 0
134 184 0
126 180 0
132 180 0
132 180 0
132 180 0
134 180 0
127 179 0
130 181 0
131 180 0
134 181 0
122 179 0
128 179 0
121 176 0
126 176 0
131 178 0
121 176 0
126 177 0
133 180 0
132 180 0
121 176 0
123 179 0
123 176 0
122 175 0
134 181 0
128 177 0
126 170 0
127 180 0
124 173 0
130 181 0
123 175 0
121 174 0
120 174 0
121 173 0
127 175 0
124 178 0
115 172 0
124 175 0
117 169 0
119 170 0
123 174 0
119 171 0
116 166 0
117 167 0
116 171 0
117 169 0
114 170 0
113 167 0
116 164 0
110 166 0
110 160 0
111 158 0
105 159 0
119 165 0
114 160 0
111 161 0
105 151 0
106 154 0
108 152 0
97 139 0
100 146 0
94 140 0
90 135 0
97 141 0
87 129 0
92 141 0
88 135 0
85 131 0
80 124 0
75 122 0
73 116 0
71 115 0
54 90 0
64 106 0
62 104 0
63 106 0
54 92 0
58 99 0
42 78 0
49 87 0
46 83 0
43 78 0
42 77 0
50 89 0
50 87 0
45 81 0
47 81 0
50 88 0
48 83 0
53 88 0
52 87 0
70 106 0
71 109 0
78 114 0
89 123 0
98 134 0
104 134 0
121 190 104
123 198 114
121 195 112
122 196 113
117 189 109
42 77 69
43 79 101
43 80 97
44 83 102
46 85 102
45 83 108
51 89 122
49 89 117
47 84 108
51 90 123
47 86 110
50 90 126
48 86 123
47 87 118
45 85 110
48 89 117
49 89 127
53 92 134
51 90 130
47 89 115
50 89 125
52 91 131
50 89 128
52 91 131
50 89 124
49 89 125
50 90 130
52 91 131
52 89 132
46 87 113
53 92 138
51 91 130
52 90 134
53 92 135
54 94 138
50 90 129
54 93 139
51 92 130
53 92 138
51 91 129
52 91 132
53 93 135
54 93 140
52 91 133
49 88 127
52 90 132
52 92 136
50 91 126
50 90 130
49 87 124
51 91 131
51 90 131
53 94 139
52 92 132
52 92 135
50 91 127
51 91 130
51 91 129
52 92 134
53 93 136
49 89 126
51 88 132
53 91 136
52 91 132
49 88 126
53 90 133
51 91 130
50 88 127
50 89 127
52 90 133
50 90 128
49 87 123
51 88 128
51 90 131
51 90 132
49 88 125
52 89 133
50 86 129
52 89 131
52 87 129
51 85 129
49 85 120
53 90 136
47 83 115
49 83 120
50 85 125
49 82 120
50 85 125
49 81 119
46 79 110
49 82 120
47 79 113
44 78 103
48 78 116
45 71 102
46 74 107
45 71 106
38 58 76
121 193 114
123 198 114
123 198 114
121 195 113
118 182 105
106 60 35
105 59 34
103 57 33
94 53 32
72 40 27
39 22 18
27 15 15
26 15 17
31 17 19
27 15 17
29 14 16
29 15 17
30 17 22
31 18 21
33 19 24
35 20 26
36 21 28
34 20 25
35 19 26
34 21 25
37 23 29
37 22 30
45 26 33
46 28 26
54 33 29
52 31 26
73 42 26
74 43 23
86 49 27
82 48 26
81 47 26
85 48 27
89 51 28
85 49 27
91 52 29
89 50 28
98 55 31
89 50 28
98 55 31
97 54 31
98 56 31
96 54 30
99 56 32
98 55 31
98 55 32
95 54 30
95 54 30
100 56 32
103 58 33
101 58 33
101 57 32
102 57 32
105 59 33
104 59 34
102 57 33
102 58 33
99 56 32
102 57 32
106 60 34
106 60 34
101 58 33
106 60 34
104 58 33
106 60 35
105 59 34
106 59 34
105 59 34
105 59 34
103 57 33
104 58 33
107 60 34
107 61 35
107 60 34
107 60 35
104 59 34
108 61 35
107 60 34
107 61 35
109 61 35
106 59 34
106 59 34
107 60 34
109 61 35
108 60 35
106 59 34
108 61 35
107 60 35
108 61 35
106 60 35
105 59 34
107 60 34
106 60 34
109 61 35
107 60 35
108 61 35
108 60 35
107 59 34
109 61 35
109 61 35
108 61 35
109 61 35
108 61 35
109 61 35
108 61 35
109 61 35
109 62 36
109 61 35
109 61 35
108 61 35
109 61 35
109 62 36
109 62 35
110 62 35
109 62 35
109 61 35
108 61 35
108 61 35
108 61 35
109 61 35
108 61 35
107 60 35
109 61 35
109 62 35
109 61 35
109 62 35
110 62 35
110 62 35
109 61 35
109 61 35
110 62 36
110 61 35
110 62 36
109 61 35
109 61 35
109 61 35
109 61 35
109 61 35
108 61 35
109 62 35
109 61 35
109 61 35
110 62 36
109 62 35
110 62 36
110 62 36
110 62 36
142 186 0
143 187 0
148 188 0
145 188 0
149 189 0
146 189 0
138 185 0
133 184 0
145 189 0
143 187 0
142 186 0
142 186 0
152 190 0
133 183 0
139 185 0
139 186 0
138 185 0
140 185 0
139 185 0
139 183 0
136 185 0
137 185 0
138 184 0
141 186 0
135 184 0
145 186 0
142 186 0
135 184 0
136 184 0
136 183 0
139 184 0
135 181 0
142 187 0
139 185 0
132 182 0
140 185 0
140 185 0
133 183 0
130 179 0
133 182 0
136 181 0
125 176 0
126 179 0
126 180 0
138 185 0
133 183 0
129 181 0
134 181 0
134 181 0
122 178 0
137 184 0
129 179 0
128 176 0
123 177 0
125 178 0
126 178 0
131 181 0
126 178 0
128 182 0
129 181 0
126 178 0
124 177 0
130 179 0
129 178 0
130 179 0
120 175 0
127 179 0
125 177 0
121 178 0
127 181 0
114 171 0
128 178 0
126 174 0
124 176 0
127 178 0
120 174 0
112 168 0
118 172 0
112 171 0
119 174 0
123 174 0
115 172 0
113 169 0
116 169 0
114 173 0
118 172 0
116 170 0
116 170 0
111 169 0
114 167 0
112 169 0
111 164 0
109 166 0
112 166 0
110 166 0
109 164 0
110 165 0
113 161 0
108 165 0
111 166 0
108 160 0
111 163 0
110 163 0
104 153 0
101 152 0
97 144 0
95 147 0
99 144 0
94 144 0
97 152 0
93 138 0
91 136 0
95 139 0
82 131 0
78 124 0
74 117 0
82 131 0
75 118 0
71 112 0
70 114 0
71 117 0
66 110 0
69 114 0
61 100 0
60 100 0
57 98 0
48 82 0
48 85 0
46 83 0
50 88 0
41 77 0
42 81 0
46 82 0
50 88 0
50 89 0
47 83 0
48 87 0
60 103 0
59 98 0
55 93 0
62 94 0
76 114 0
85 124 0
89 123 0
96 134 0
108 154 59
122 196 113
123 197 114
123 198 113
123 197 113
123 197 113
83 137 91
43 79 96
42 78 84
45 83 103
44 80 93
50 87 123
49 84 119
48 86 114
47 84 108
48 87 118
50 88 119
47 87 114
49 88 123
51 90 127
48 86 115
50 88 126
49 89 120
49 87 126
49 89 126
50 89 122
52 91 132
49 89 125
47 89 115
50 90 127
51 91 129
51 90 131
54 94 136
50 92 125
50 89 127
50 89 132
53 91 137
53 92 136
52 92 132
53 92 134
51 91 133
50 91 127
49 88 123
50 91 126
52 91 132
52 91 135
51 90 132
52 91 132
49 89 126
55 94 142
53 92 137
52 90 133
53 94 139
51 90 128
51 90 130
54 93 141
51 91 129
53 91 139
51 91 129
51 91 128
51 90 132
52 91 135
49 89 122
51 90 130
50 89 130
53 92 138
53 91 138
50 91 128
52 92 131
52 92 134
47 88 118
51 91 129
48 87 123
52 92 135
47 87 115
53 90 136
50 88 129
53 91 136
50 89 129
51 90 131
50 87 126
52 89 133
50 87 127
50 86 127
50 87 123
51 87 126
47 81 112
48 84 120
48 81 118
51 87 132
47 80 116
48 86 122
50 82 121
48 81 113
49 86 123
47 80 114
50 84 125
47 76 107
46 74 102
44 73 103
45 73 103
42 69 89
43 66 96
69 110 76
122 196 113
122 196 113
121 196 113
122 196 113
123 198 114
109 108 62
107 60 35
99 56 33
102 57 33
90 51 31
61 35 23
48 26 20
35 19 18
28 16 19
29 17 21
30 18 19
30 17 21
32 18 21
27 16 18
32 18 23
31 19 22
31 19 22
36 21 28
34 20 26
33 19 26
37 22 28
37 22 27
42 25 25
54 31 27
53 30 21
67 38 26
77 44 25
69 41 22
70 41 22
75 43 24
83 47 26
80 46 25
86 49 26
78 45 25
92 52 29
89 50 29
87 50 28
89 51 29
94 53 30
95 54 31
97 53 31
95 53 30
96 55 30
96 54 30
96 54 31
96 54 30
98 56 32
99 56 32
98 55 32
100 56 32
98 56 31
99 57 32
103 59 34
103 58 33
105 58 33
103 58 33
102 58 33
103 58 33
104 59 34
103 57 33
106 59 34
102 58 34
102 57 33
106 59 34
104 58 33
106 60 34
104 58 33
103 59 33
106 60 34
106 60 34
105 59 34
108 60 34
107 60 35
103 58 33
103 58 33
105 59 34
107 61 35
107 60 34
108 60 34
106 59 34
105 58 34
109 61 35
107 60 34
107 60 34
107 60 35
107 60 35
107 60 35
105 59 34
107 60 34
108 60 35
109 61 35
108 60 34
108 61 35
108 61 35
109 61 35
109 62 36
107 60 35
108 61 35
109 61 35
109 61 35
108 60 35
108 61 35
108 61 35
108 60 35
108 61 35
109 61 35
107 61 35
109 62 36
109 61 35
108 60 35
109 61 35
107 60 35
108 61 35
108 60 34
108 60 35
109 61 35
109 61 35
110 61 35
110 62 36
108 61 35
109 61 35
110 62 35
110 62 35
108 61 35
109 62 35
109 61 35
109 62 36
108 61 35
109 62 35
109 61 35
109 61 35
110 62 36
109 62 36
109 61 35
110 62 35
110 62 36
109 61 35
108 61 35
110 62 36
110 62 36
110 62 35
110 62 35
109 61 35
110 61 35
109 62 35
110 62 35
147 187 0
137 185 0
140 185 0
137 183 0
150 190 0
147 188 0
138 185 0
141 184 0
139 185 0
147 189 0
145 187 0
150 190 0
139 186 0
139 185 0
142 187 0
145 188 0
142 187 0
136 184 0
132 182 0
134 181 0
141 185 0
137 182 0
127 180 0
140 185 0
133 183 0
135 183 0
132 182 0
135 184 0
135 184 0
139 185 0
137 184 0
139 184 0
134 184 0
137 183 0
136 184 0
129 178 0
133 181 0
139 186 0
124 177 0
133 181 0
130 181 0
127 180 0
133 181 0
135 184 0
133 182 0
134 182 0
128 177 0
123 178 0
122 176 0
134 180 0
127 179 0
139 184 0
127 179 0
127 179 0
125 178 0
123 178 0
128 178 0
126 176 0
121 177 0
119 175 0
124 177 0
123 179 0
129 178 0
127 178 0
123 175 0
124 176 0
130 178 0
123 178 0
112 170 0
126 174 0
118 174 0
118 173 0
119 173 0
116 174 0
115 173 0
111 171 0
119 174 0
119 174 0
116 169 0
108 169 0
118 173 0
122 173 0
112 167 0
118 173 0
118 173 0
108 169 0
105 164 0
112 171 0
116 174 0
106 165 0
105 165 0
110 166 0
106 163 0
113 170 0
111 167 0
107 160 0
108 166 0
99 156 0
111 169 0
104 164 0
96 155 0
97 155 0
97 151 0
102 159 0
98 149 0
97 153 0
102 158 0
90 142 0
98 147 0
97 144 0
87 136 0
90 140 0
92 139 0
80 128 0
79 130 0
77 125 0
72 119 0
67 109 0
70 115 0
70 116 0
74 119 0
54 95 0
62 105 0
60 101 0
64 105 0
55 94 0
42 81 0
56 96 0
48 84 0
54 92 0
48 85 0
43 80 0
52 90 0
56 96 0
52 90 0
55 96 0
53 91 0
58 99 0
64 107 0
64 105 0
68 103 0
80 118 0
88 129 0
86 128 0
111 149 0
117 183 99
123 198 113
122 196 112
122 197 113
122 197 113
121 195 113
104 167 108
40 77 87
39 76 80
44 81 98
46 84 105
46 83 101
46 84 109
45 84 100
45 82 105
50 87 122
49 89 126
49 87 119
48 88 120
49 88 119
47 86 114
50 89 124
48 87 118
50 90 125
48 86 120
48 88 120
49 89 123
52 91 129
51 90 128
50 89 124
49 88 119
50 91 124
49 90 123
48 88 119
51 91 130
50 89 124
51 90 131
52 90 134
53 91 137
50 90 127
47 86 121
52 92 134
52 91 133
51 91 132
53 92 135
52 90 132
50 92 127
52 92 137
51 91 131
51 90 131
51 90 133
49 89 124
52 91 135
52 92 136
51 90 132
52 91 135
50 89 130
54 93 142
51 91 130
54 93 143
52 91 133
53 93 137
49 90 126
49 88 128
48 89 121
51 90 130
50 90 126
51 90 133
49 89 125
50 90 126
51 90 131
48 88 123
47 86 118
53 89 134
52 89 130
53 90 135
51 89 129
50 87 126
51 88 130
48 85 119
52 90 131
51 89 129
50 87 122
51 88 123
50 87 130
50 85 127
53 91 136
52 89 132
50 87 124
48 82 119
47 82 118
48 81 116
48 80 120
48 81 116
47 81 114
47 77 112
48 82 117
45 76 101
46 74 109
45 72 102
45 73 105
47 71 106
39 64 80
103 166 104
122 197 114
123 197 114
121 195 113
123 197 113
123 197 113
116 164 95
106 59 34
102 57 33
99 55 32
94 52 30
87 49 29
59 33 22
55 31 23
31 18 16
31 17 17
29 16 20
29 17 21
31 17 21
30 17 21
30 18 22
32 18 24
30 18 21
34 20 26
33 21 27
36 23 25
41 25 23
43 25 29
43 25 21
52 30 23
55 33 23
67 39 23
58 35 21
67 40 21
74 43 24
81 47 26
77 45 26
85 49 27
88 49 28
84 48 27
82 47 26
85 48 27
88 50 27
87 49 27
86 49 28
88 50 29
91 51 30
98 56 31
97 55 31
98 55 32
99 56 32
100 56 31
99 56 32
96 54 31
98 56 32
101 57 33
99 56 32
99 56 32
99 56 32
102 57 32
104 58 33
104 59 34
102 57 33
103 58 33
101 56 32
104 58 33
103 57 33
105 59 33
103 58 33
103 58 33
102 58 33
103 58 33
105 59 34
106 60 34
107 60 34
106 59 33
103 57 33
106 60 34
101 57 32
106 59 34
105 59 34
106 60 34
106 60 35
104 58 33
106 60 34
105 59 34
105 60 34
106 60 34
107 59 34
107 61 35
108 61 35
107 60 35
106 60 35
106 59 34
107 59 34
106 59 34
106 59 34
109 61 35
105 60 35
106 59 34
109 61 35
107 60 34
107 60 34
107 59 34
106 59 34
108 61 35
107 60 35
107 60 35
109 62 35
108 61 35
108 61 35
109 61 35
108 61 35
107 60 35
109 61 35
108 61 35
107 60 35
108 60 34
109 62 35
110 62 36
108 61 35
107 61 35
110 62 35
109 61 35
107 60 35
107 60 35
110 61 35
110 62 36
108 60 35
108 60 35
107 60 34
110 62 35
110 62 36
109 61 35
110 62 36
109 61 35
109 62 35
109 61 35
109 61 35
109 61 35
110 62 36
110 62 35
109 61 35
111 62 36
110 62 35
110 62 35
110 62 36
108 61 35
109 60 35
108 60 35
109 62 36
111 62 36
139 186 0
138 184 0
133 183 0
140 186 0
142 186 0
136 184 0
138 185 0
138 185 0
140 187 0
134 183 0
135 181 0
136 182 0
135 183 0
140 186 0
132 183 0
144 188 0
137 183 0
131 183 0
125 179 0
140 184 0
135 184 0
132 181 0
138 184 0
145 186 0
128 181 0
134 183 0
137 184 0
127 181 0
136 184 0
132 182 0
128 181 0
136 182 0
124 179 0
123 178 0
133 181 0
131 181 0
128 178 0
127 178 0
130 181 0
121 176 0
128 179 0
123 179 0
137 182 0
127 179 0
133 183 0
121 176 0
126 180 0
125 178 0
127 177 0
131 179 0
130 181 0
123 176 0
119 175 0
122 176 0
121 173 0
117 176 0
126 179 0
129 179 0
119 176 0
125 177 0
125 175 0
121 175 0
125 180 0
122 179 0
119 177 0
117 172 0
111 169 0
116 173 0
122 176 0
111 173 0
114 169 0
122 179 0
123 173 0
112 172 0
110 166 0
116 170 0
113 172 0
114 172 0
113 171 0
108 166 0
111 171 0
106 167 0
105 165 0
106 168 0
101 164 0
107 162 0
109 168 0
109 167 0
106 166 0
107 166 0
112 171 0
104 164 0
105 163 0
104 164 0
105 164 0
105 167 0
102 164 0
99 158 0
96 154 0
96 152 0
98 157 0
99 156 0
105 160 0
93 148 0
96 152 0
95 150 0
87 139 0
92 146 0
88 139 0
87 139 0
87 143 0
86 136 0
85 139 0
75 120 0
77 127 0
73 119 0
74 123 0
77 129 0
80 127 0
65 110 0
66 107 0
59 99 0
63 106 0
57 98 0
64 107 0
57 99 0
57 99 0
52 89 0
58 99 0
53 92 0
46 82 0
53 91 0
44 80 0
51 91 0
59 100 0
51 89 0
56 98 0
61 101 0
59 94 0
69 103 0
72 115 0
76 116 0
95 134 0
109 146 0
107 146 37
122 196 113
121 195 113
121 196 112
123 198 114
121 195 112
122 197 113
121 195 112
56 98 89
38 75 78
42 80 92
47 86 105
43 82 93
46 83 111
47 85 105
44 84 104
46 87 108
49 87 114
49 89 117
49 89 125
46 85 112
45 85 113
45 85 109
48 89 116
50 88 127
49 89 120
51 91 128
50 90 123
48 86 122
51 90 128
48 87 122
52 92 134
50 89 128
49 88 121
48 88 121
49 90 122
48 89 123
50 88 128
50 91 129
49 89 125
53 93 133
52 91 134
55 93 144
51 90 130
52 92 130
50 88 128
51 93 130
49 88 122
49 89 124
51 90 131
52 92 133
50 91 129
52 90 137
48 90 120
50 89 128
52 92 137
51 90 130
51 90 131
50 89 128
51 91 131
52 92 134
51 91 129
51 90 131
49 87 125
49 89 125
53 92 139
50 89 128
51 91 131
49 89 128
50 87 126
48 88 119
51 89 132
52 91 134
51 91 133
50 87 125
53 91 135
54 91 137
50 89 128
50 86 122
51 90 131
51 89 131
52 90 133
50 88 128
50 84 121
51 87 129
50 86 125
51 87 129
49 86 122
51 86 130
50 86 122
48 81 113
50 82 119
51 86 127
45 80 112
45 80 104
51 85 125
44 77 106
45 78 106
45 74 104
48 75 114
44 70 97
43 69 100
39 64 81
56 90 99
120 194 113
122 195 112
122 196 113
121 195 113
123 198 114
122 197 114
123 198 114
106 86 49
103 58 33
101 56 33
95 54 31
91 51 29
81 46 28
64 36 23
62 34 23
47 26 19
36 20 19
34 19 20
27 16 17
31 18 21
32 19 22
28 17 20
33 20 23
29 18 21
39 22 23
31 20 20
38 23 19
43 26 21
51 29 21
52 30 20
63 33 20
61 36 21
75 43 25
74 42 24
80 44 25
82 46 26
81 47 27
81 47 26
76 42 24
83 47 26
90 50 27
97 54 31
90 50 29
91 52 30
93 53 30
86 49 28
91 50 28
96 54 31
97 54 31
92 52 29
99 54 31
98 56 32
97 55 31
94 53 30
99 56 33
96 54 31
99 56 33
96 54 31
103 58 33
98 53 30
105 59 34
100 56 33
100 57 32
99 56 32
98 56 32
101 57 32
100 55 32
105 59 34
104 58 33
102 57 32
101 56 32
103 58 33
103 58 33
105 59 34
106 59 34
104 57 32
104 58 33
102 57 32
105 58 33
103 58 33
106 60 34
106 59 34
106 59 34
105 59 34
106 59 34
107 60 34
105 59 34
103 58 33
108 61 35
106 60 34
107 60 35
107 59 34
107 60 35
110 61 35
107 60 34
105 59 34
107 59 34
106 59 34
106 59 34
106 59 34
106 61 35
106 60 35
108 60 34
106 59 34
105 58 33
109 61 35
108 61 35
106 58 33
109 60 34
108 60 35
108 61 35
108 60 34
107 60 34
106 60 34
108 60 35
106 59 34
108 60 34
107 60 34
108 60 34
108 60 35
108 60 34
108 61 35
108 61 35
108 61 35
108 61 35
109 61 35
109 61 35
109 61 35
108 61 35
108 61 35
108 61 35
109 61 35
109 62 36
109 61 35
108 60 35
109 61 35
109 61 35
110 61 35
109 61 35
110 61 34
110 61 35
108 61 35
109 61 35
108 60 34
109 61 35
109 61 35
109 61 35
110 62 36
109 61 35
109 62 35
108 60 34
110 62 35
149 189 0
139 185 0
141 185 0
133 183 0
137 184 0
138 185 0
132 183 0
136 185 0
139 182 0
138 184 0
135 183 0
131 181 0
134 184 0
132 183 0
134 183 0
138 183 0
135 184 0
131 182 0
129 181 0
133 183 0
127 181 0
134 183 0
136 184 0
135 184 0
129 180 0
129 179 0
123 176 0
132 182 0
139 185 0
128 182 0
133 183 0
119 176 0
133 181 0
127 181 0
127 178 0
133 180 0
136 182 0
128 181 0
117 177 0
123 179 0
127 181 0
129 180 0
134 182 0
122 177 0
132 184 0
122 177 0
120 174 0
122 178 0
120 176 0
123 178 0
123 178 0
116 175 0
117 175 0
122 177 0
120 176 0
115 174 0
119 170 0
114 173 0
119 176 0
122 175 0
122 178 0
115 172 0
115 173 0
115 171 0
121 176 0
118 175 0
116 172 0
115 172 0
115 172 0
114 172 0
112 174 0
117 172 0
113 173 0
113 172 0
111 168 0
108 171 0
113 172 0
109 169 0
111 170 0
106 169 0
105 166 0
107 169 0
106 167 0
106 166 0
107 170 0
100 162 0
101 160 0
105 168 0
101 164 0
106 167 0
100 161 0
102 165 0
96 154 0
97 155 0
102 165 0
105 165 0
101 163 0
101 163 0
98 157 0
96 155 0
96 152 0
97 154 0
91 146 0
94 151 0
95 151 0
92 148 0
88 142 0
87 139 0
90 148 0
89 145 0
84 136 0
85 138 0
81 132 0
78 131 0
79 128 0
78 128 0
83 135 0
68 114 0
73 116 0
66 110 0
68 111 0
66 109 0
70 117 0
52 91 0
65 110 0
58 101 0
49 85 0
56 94 0
52 91 0
54 94 0
58 96 0
54 95 0
48 87 0
48 88 0
61 103 0
57 98 0
55 96 0
68 114 0
71 113 0
79 117 0
79 122 0
88 126 0
104 137 0
101 142 0
117 180 93
122 196 113
121 195 112
122 196 113
121 195 112
122 195 112
122 197 114
121 195 111
88 142 99
41 76 83
40 78 86
43 82 94
43 80 100
46 84 99
47 86 112
42 79 99
45 86 109
46 85 113
47 85 113
45 84 111
47 86 110
47 86 115
46 85 113
53 91 131
48 89 117
48 89 120
49 90 120
50 89 126
48 88 117
47 88 116
48 87 120
50 89 129
48 89 117
48 88 121
49 89 121
51 91 129
51 90 128
51 91 132
49 90 127
48 89 122
52 90 136
53 91 139
47 89 118
49 88 126
48 89 121
49 88 125
48 90 123
51 91 132
51 91 129
51 90 129
53 92 138
50 91 129
50 91 126
54 93 139
50 90 128
50 89 124
48 87 121
54 92 140
51 91 134
51 90 129
51 91 130
51 90 132
50 88 127
48 86 125
49 90 123
51 90 134
51 90 130
50 88 126
51 90 132
51 88 130
51 89 131
51 90 129
51 89 131
50 89 130
49 88 125
51 90 129
51 89 129
50 89 132
49 84 124
52 90 134
51 90 127
49 87 122
51 86 127
49 87 120
47 83 116
51 87 127
53 89 136
49 86 124
50 84 122
51 87 129
47 83 114
48 81 119
48 82 117
51 85 125
48 83 118
46 78 110
47 80 111
45 76 109
43 75 104
44 68 96
45 75 105
46 78 112
40 63 86
86 138 90
123 198 114
121 194 112
121 194 112
122 195 112
124 198 113
120 192 111
122 197 114
115 160 92
104 59 34
102 57 33
99 55 32
97 53 31
86 48 28
82 44 26
64 35 21
55 32 22
60 34 24
37 21 17
46 26 20
29 17 16
31 18 15
30 18 15
31 20 20
34 19 18
38 20 18
39 22 16
48 26 20
43 25 18
46 27 20
55 30 18
64 37 21
68 39 21
65 38 22
73 43 25
78 43 24
74 42 24
79 44 24
81 45 26
82 46 26
82 46 26
83 46 26
84 47 26
86 47 27
89 50 28
87 49 28
91 50 29
93 53 30
91 52 30
96 54 30
94 53 30
95 53 30
97 54 31
97 54 31
93 53 30
97 54 30
97 54 31
97 53 31
99 56 32
101 57 32
101 56 32
101 57 32
99 56 32
102 58 33
105 59 33
103 58 33
100 55 32
100 56 32
102 57 32
100 56 32
102 56 32
106 59 33
103 57 33
103 58 34
103 58 34
106 60 34
107 60 34
106 59 34
105 58 33
105 59 34
104 57 33
107 60 34
103 58 33
104 59 34
104 57 33
106 59 34
108 60 34
106 60 34
106 60 35
103 58 33
106 59 34
106 58 33
106 60 34
105 58 33
105 59 34
106 59 34
105 60 34
106 59 34
106 60 34
107 60 34
108 60 35
107 60 34
106 59 34
106 60 34
107 60 35
106 60 34
107 60 34
106 60 34
108 60 34
107 60 35
107 60 34
107 60 35
106 59 34
109 60 34
108 60 35
108 61 35
109 61 35
108 61 35
108 61 35
108 61 35
108 61 35
108 61 35
109 61 35
108 61 35
109 61 35
108 61 35
108 61 35
108 60 35
107 60 35
109 61 35
110 61 35
109 61 35
110 62 36
106 59 34
107 60 35
108 61 35
110 62 35
109 61 35
108 61 35
109 61 35
109 62 35
107 60 34
110 62 35
110 62 36
109 61 35
109 61 35
109 61 35
108 61 35
109 61 35
108 60 35
110 61 35
109 61 35
109 61 35
139 184 0
132 182 0
134 183 0
141 185 0
132 182 0
138 185 0
138 184 0
138 185 0
143 186 0
136 183 0
137 184 0
129 180 0
131 180 0
135 184 0
134 182 0
131 181 0
138 184 0
136 185 0
132 182 0
130 180 0
137 183 0
124 180 0
131 182 0
130 182 0
124 179 0
128 181 0
126 178 0
131 181 0
127 181 0
123 180 0
133 180 0
127 180 0
125 178 0
135 183 0
121 177 0
129 179 0
128 181 0
123 178 0
122 178 0
124 178 0
127 181 0
123 179 0
128 180 0
117 174 0
124 180 0
124 179 0
118 175 0
125 178 0
119 174 0
118 175 0
128 181 0
121 175 0
114 173 0
121 174 0
116 174 0
115 173 0
119 174 0
121 177 0
115 175 0
115 175 0
120 178 0
120 177 0
118 175 0
116 176 0
107 169 0
105 168 0
108 167 0
109 170 0
114 171 0
116 174 0
109 170 0
114 173 0
110 169 0
109 171 0
102 163 0
109 171 0
105 166 0
106 169 0
104 168 0
107 171 0
105 167 0
104 164 0
101 164 0
99 159 0
100 162 0
99 160 0
101 163 0
100 160 0
98 161 0
99 157 0
98 160 0
94 153 0
97 155 0
103 164 0
100 158 0
97 156 0
96 158 0
99 161 0
94 153 0
97 155 0
100 160 0
95 153 0
90 147 0
93 151 0
90 148 0
90 147 0
95 152 0
86 140 0
91 146 0
88 140 0
78 128 0
79 130 0
86 138 0
82 133 0
87 137 0
77 123 0
72 120 0
67 112 0
69 114 0
75 124 0
67 113 0
61 105 0
72 117 0
64 110 0
58 99 0
57 98 0
54 94 0
57 99 0
57 99 0
55 96 0
47 86 0
56 94 0
56 97 0
63 106 0
52 91 0
63 107 0
62 107 0
70 115 0
78 120 0
75 117 0
76 112 0
103 131 0
99 138 0
101 143 41
123 197 112
123 198 114
121 196 113
120 194 112
122 197 112
122 196 112
120 194 111
122 196 112
114 186 107
43 81 85
40 79 80
44 84 99
45 81 108
45 81 102
44 83 103
42 82 99
45 85 108
50 88 122
49 87 118
45 83 108
47 86 113
45 85 108
48 87 119
50 89 125
49 88 121
51 90 131
49 88 118
48 87 120
48 88 119
50 89 127
49 89 125
48 89 123
47 87 117
50 89 129
50 90 128
51 89 129
50 89 130
48 87 122
49 88 120
49 90 121
49 89 124
51 90 133
52 91 131
52 91 131
50 89 128
48 88 122
45 87 112
49 89 123
50 90 131
51 90 132
48 88 123
49 89 123
50 91 126
48 87 122
51 90 132
48 89 118
51 91 130
50 90 126
51 90 131
51 91 132
50 90 129
51 91 133
49 89 123
50 89 127
50 90 126
51 89 126
49 88 125
51 90 131
49 88 125
50 88 126
49 86 125
51 91 131
50 88 127
51 88 131
50 88 125
50 89 128
50 88 127
47 85 117
48 86 120
50 87 123
48 86 122
48 85 119
48 83 123
48 86 122
51 86 125
49 85 121
46 84 114
49 89 123
51 87 129
46 81 110
50 88 127
48 83 119
49 82 122
46 82 114
47 81 112
48 78 117
47 80 115
45 75 103
49 77 115
44 72 101
40 70 86
43 67 94
39 64 74
115 185 107
121 194 113
121 193 112
123 198 113
123 197 113
122 196 113
121 195 113
121 195 112
120 192 110
103 88 51
99 55 32
101 56 33
91 49 28
89 49 28
81 45 26
78 44 25
69 39 23
62 34 21
57 32 21
36 20 14
40 23 17
38 21 14
41 23 17
42 23 17
40 24 17
39 21 21
43 26 16
45 26 17
51 29 18
49 29 16
61 34 19
60 33 19
69 38 21
69 39 22
64 37 21
70 40 22
75 43 24
80 45 25
72 40 22
86 47 27
86 48 28
82 47 26
93 53 30
88 49 28
91 51 29
93 51 29
89 50 29
95 53 31
91 50 29
95 53 30
97 54 30
97 54 31
96 53 30
95 54 31
94 53 30
101 56 32
93 52 30
99 54 31
99 55 31
102 57 33
101 57 33
98 55 32
101 56 32
99 56 32
101 56 32
99 55 31
100 55 31
100 57 33
105 58 33
102 57 32
101 56 32
100 56 32
103 57 33
102 57 32
104 58 33
103 58 33
106 58 33
100 56 32
103 57 32
106 58 33
103 57 32
103 57 33
103 56 32
103 58 33
104 58 33
104 58 33
106 59 34
103 57 33
106 58 33
105 59 34
106 60 34
107 59 34
107 60 34
104 58 34
107 59 34
105 59 34
104 58 33
109 61 34
107 58 33
104 58 33
106 58 33
104 58 34
108 60 34
107 59 34
109 61 35
108 60 34
108 60 35
107 59 34
104 58 34
109 61 35
106 59 34
108 60 35
108 61 35
108 61 35
109 61 35
107 60 34
107 59 34
110 61 35
108 60 35
108 61 35
108 59 34
108 61 35
109 61 35
108 60 35
106 59 34
108 61 35
108 61 35
108 61 35
109 61 35
108 61 35
108 61 35
109 60 35
108 61 35
108 60 35
109 60 35
108 60 35
109 61 35
110 62 35
108 60 35
108 61 35
110 61 35
109 61 35
109 61 35
108 60 35
108 61 35
108 61 35
110 61 35
109 61 35
108 61 35
109 61 35
110 62 35
110 62 36
108 60 35
134 182 0
136 185 0
141 185 0
133 182 0
139 185 0
135 182 0
134 183 0
139 185 0
139 185 0
128 182 0
140 186 0
138 184 0
130 182 0
132 182 0
134 184 0
132 181 0
126 177 0
134 183 0
131 182 0
129 181 0
122 179 0
120 178 0
130 181 0
133 183 0
128 182 0
129 182 0
121 175 0
126 181 0
121 178 0
119 175 0
130 179 0
129 182 0
124 181 0
127 179 0
126 180 0
123 177 0
127 180 0
128 180 0
127 179 0
118 176 0
119 179 0
119 176 0
121 177 0
121 179 0
116 176 0
124 179 0
120 176 0
120 176 0
110 168 0
117 176 0
115 175 0
121 179 0
116 174 0
112 171 0
110 172 0
116 174 0
119 178 0
108 169 0
111 171 0
108 169 0
113 172 0
110 173 0
107 170 0
110 170 0
102 163 0
104 167 0
109 173 0
109 171 0
111 172 0
105 169 0
107 171 0
103 167 0
100 163 0
103 166 0
100 162 0
103 165 0
103 163 0
105 170 0
105 169 0
103 167 0
103 166 0
99 161 0
101 162 0
99 161 0
101 163 0
96 157 0
97 159 0
99 161 0
103 166 0
101 163 0
101 162 0
95 154 0
97 157 0
100 161 0
94 153 0
96 156 0
98 156 0
97 157 0
99 157 0
96 155 0
90 148 0
89 144 0
96 155 0
98 157 0
89 143 0
94 150 0
96 152 0
90 144 0
84 136 0
87 141 0
86 141 0
85 139 0
83 135 0
76 124 0
79 132 0
73 119 0
83 134 0
70 115 0
69 114 0
73 120 0
61 103 0
77 126 0
67 112 0
61 104 0
59 104 0
59 101 0
57 98 0
62 108 0
58 99 0
57 98 0
60 104 0
55 96 0
58 101 0
66 112 0
64 109 0
61 107 0
69 111 0
70 114 0
80 116 0
96 137 0
80 118 0
104 147 0
95 133 0
114 174 88
122 196 112
123 197 113
121 196 113
122 197 112
118 191 109
122 196 112
122 197 114
121 195 113
121 195 113
80 133 93
41 78 97
41 78 91
46 84 111
45 84 103
44 84 95
49 88 121
46 84 112
50 89 124
47 88 115
45 85 108
49 89 119
46 84 113
50 89 121
47 87 115
47 86 118
51 91 126
49 89 119
48 87 118
49 88 121
49 88 125
44 83 107
49 89 119
48 89 116
48 87 123
54 93 138
48 89 123
48 88 120
50 89 128
51 92 128
48 88 120
49 89 126
52 90 136
52 90 132
48 89 120
48 90 120
50 91 126
49 89 126
51 91 132
50 88 127
48 89 121
49 88 127
50 88 126
49 90 125
51 91 132
48 89 117
50 88 127
49 90 126
52 90 135
50 90 130
50 90 128
52 92 136
51 91 132
49 91 125
51 90 133
51 90 133
50 90 126
50 90 127
51 91 132
49 88 123
53 92 137
51 89 129
54 92 139
50 88 127
49 86 122
49 87 122
51 88 129
52 90 131
48 85 122
49 86 120
46 85 114
48 86 124
47 84 119
49 84 126
50 87 125
49 85 120
45 81 106
48 86 119
47 82 118
48 84 116
48 82 121
51 86 130
46 79 110
48 84 119
50 85 129
48 81 114
47 79 111
44 75 102
44 75 105
44 71 100
43 72 101
41 66 90
42 67 85
74 119 93
121 191 111
122 196 113
120 193 112
122 194 112
122 196 113
122 195 113
122 197 113
121 195 113
121 194 112
115 170 98
104 58 33
89 50 29
97 54 31
92 52 30
89 48 28
78 42 24
78 43 25
72 41 23
64 35 20
50 28 17
52 29 17
45 25 15
45 25 17
47 25 18
52 29 18
46 24 15
45 26 14
53 31 18
55 31 17
61 32 18
57 34 19
61 35 20
68 37 20
75 43 24
61 33 18
76 43 24
77 43 24
80 45 25
83 45 26
82 46 26
85 47 26
88 50 29
86 48 28
80 44 25
90 50 29
92 50 29
86 48 27
89 51 29
91 52 29
93 52 30
94 53 30
95 53 31
91 51 29
98 54 31
97 52 30
96 53 30
96 54 30
99 54 31
98 54 30
97 54 31
98 54 31
103 57 32
102 56 32
102 56 32
95 52 30
99 55 31
100 56 32
100 55 32
100 56 32
104 57 33
105 58 33
106 59 34
102 56 33
104 57 33
102 56 33
104 58 33
102 57 33
101 57 33
104 58 33
103 56 33
98 53 30
106 59 34
105 58 33
104 57 33
104 58 33
104 59 34
105 58 33
107 60 34
105 59 34
107 59 34
103 57 33
104 59 34
105 57 32
105 59 34
106 59 34
103 56 32
108 60 34
105 60 34
107 60 34
106 59 34
105 59 34
106 59 34
107 60 35
107 60 34
108 60 35
107 59 34
109 61 35
105 59 34
105 58 33
108 61 35
104 56 32
109 60 35
105 59 34
109 61 35
109 61 35
108 61 35
108 60 34
106 59 34
108 60 34
108 61 35
107 60 34
106 60 35
108 61 35
107 60 35
107 60 34
108 60 34
107 60 35
107 60 34
109 61 34
108 60 34
108 61 35
107 60 34
108 61 35
108 60 35
109 61 35
108 60 35
109 60 35
107 60 35
109 61 35
108 60 35
109 61 35
110 61 35
108 61 35
108 61 35
108 61 35
109 62 36
109 61 35
109 61 35
109 61 35
110 62 35
109 61 35
109 60 35
108 61 35
128 180 0
145 187 0
133 184 0
136 184 0
132 182 0
137 184 0
130 181 0
137 185 0
126 179 0
141 185 0
135 182 0
132 182 0
126 178 0
140 186 0
128 180 0
130 181 0
132 182 0
122 178 0
136 184 0
132 182 0
130 182 0
127 179 0
128 180 0
120 176 0
127 180 0
126 177 0
115 176 0
129 180 0
128 180 0
130 183 0
124 177 0
119 174 0
129 180 0
123 173 0
116 175 0
123 178 0
121 176 0
116 174 0
126 179 0
119 177 0
127 181 0
123 178 0
113 173 0
119 176 0
119 178 0
117 178 0
117 176 0
111 170 0
116 178 0
119 176 0
112 174 0
110 173 0
112 173 0
111 172 0
108 170 0
110 173 0
112 175 0
110 171 0
108 170 0
104 168 0
106 170 0
105 169 0
109 170 0
107 168 0
105 170 0
104 167 0
103 164 0
105 170 0
104 168 0
106 169 0
105 169 0
103 166 0
102 164 0
101 164 0
105 168 0
104 168 0
103 166 0
102 166 0
104 168 0
98 160 0
103 167 0
104 169 0
102 165 0
102 163 0
100 161 0
103 166 0
97 155 0
99 161 0
99 158 0
102 164 0
101 162 0
97 156 0
100 156 0
97 158 0
99 161 0
100 161 0
95 155 0
93 153 0
97 157 0
91 149 0
97 157 0
91 148 0
88 144 0
87 145 0
92 147 0
91 147 0
96 154 0
92 148 0
86 137 0
86 141 0
82 133 0
87 140 0
80 129 0
81 133 0
73 119 0
81 132 0
76 124 0
65 110 0
72 122 0
71 114 0
70 115 0
60 102 0
66 111 0
68 113 0
61 106 0
47 82 0
67 112 0
47 85 0
51 92 0
57 100 0
56 96 0
53 96 0
64 109 0
61 104 0
61 104 0
74 124 0
68 111 0
77 119 0
77 116 0
88 125 0
102 142 0
96 140 0
103 154 53
120 193 110
122 196 112
120 193 111
121 195 111
121 194 111
119 194 112
122 196 112
119 192 110
121 195 110
121 195 111
110 179 101
39 74 81
42 78 99
43 82 98
42 80 94
43 79 96
45 85 108
48 85 120
43 81 98
47 85 115
45 83 109
49 89 118
46 86 111
50 88 123
47 87 117
47 87 117
49 88 124
47 87 118
47 88 118
48 90 114
49 86 126
48 88 119
49 89 122
50 89 126
52 91 129
51 91 130
49 87 122
48 88 121
50 91 126
50 89 127
53 92 138
50 90 128
50 91 126
50 89 128
51 91 129
49 89 125
49 89 125
50 90 129
47 87 118
48 88 124
49 88 125
49 89 125
49 89 125
49 89 124
50 89 127
49 89 123
50 88 127
46 88 114
51 90 130
50 88 127
49 89 125
48 86 120
50 88 129
49 90 124
50 90 126
52 90 134
51 90 130
50 89 126
50 89 127
48 88 122
47 88 116
50 89 129
51 87 132
50 87 127
49 85 126
47 84 117
46 85 116
49 88 124
49 87 121
48 86 121
47 81 113
51 86 129
49 88 126
46 82 112
47 84 117
48 84 117
51 87 129
51 87 127
47 85 115
46 81 110
50 87 126
47 80 115
49 82 120
48 81 116
48 80 117
43 78 102
43 75 101
46 75 105
42 70 97
44 75 100
43 71 97
42 72 98
42 66 93
112 178 106
119 190 110
118 191 110
120 192 110
122 194 111
121 193 111
121 195 113
121 193 112
121 193 111
122 196 113
121 193 111
103 94 54
99 55 32
92 51 30
93 52 30
91 50 29
78 43 25
68 38 22
67 36 20
75 40 23
63 34 19
60 34 19
56 31 17
54 30 17
46 25 14
57 31 17
55 28 15
53 28 16
56 29 16
62 34 19
61 34 19
63 34 19
67 37 20
70 39 22
68 39 21
73 40 23
69 39 22
76 43 24
80 44 25
77 42 24
89 49 28
84 47 26
89 49 28
87 47 27
85 47 27
89 49 28
89 50 28
94 50 28
89 49 28
92 52 30
91 51 29
93 51 29
94 52 29
93 52 30
95 52 30
96 53 31
91 52 29
96 53 30
99 54 31
94 53 31
101 54 31
98 55 31
93 51 29
98 55 32
101 56 32
98 55 32
100 55 31
103 57 33
98 55 32
101 57 32
105 59 34
102 56 32
97 53 30
102 57 32
102 57 32
101 56 32
104 58 33
101 57 33
102 56 32
102 56 33
102 57 32
104 59 34
105 58 33
105 59 34
103 57 33
102 57 33
106 59 34
105 58 34
106 58 34
106 59 34
104 59 33
106 60 34
107 59 34
102 57 33
105 59 34
106 59 34
103 56 32
109 61 35
106 59 34
107 59 34
107 59 34
108 60 35
104 58 33
104 58 34
105 59 34
104 58 34
105 58 33
107 59 34
105 58 33
108 59 34
107 59 34
107 60 34
107 60 34
108 60 34
108 60 35
108 59 34
108 61 35
106 59 34
108 60 35
107 60 34
108 61 35
107 60 35
108 60 35
109 61 35
105 58 33
106 60 34
109 61 35
106 60 34
106 58 33
108 60 34
109 61 35
108 60 35
107 58 33
108 59 34
106 59 34
109 61 35
107 59 34
110 60 34
109 60 34
109 61 35
108 61 35
108 61 35
109 60 34
109 61 35
109 61 35
109 61 35
106 58 34
108 61 35
108 61 35
108 60 35
108 61 35
110 62 35
108 61 35
109 60 35
135 184 0
139 184 0
134 181 0
143 188 0
132 183 0
130 182 0
131 183 0
133 183 0
126 181 0
130 182 0
125 180 0
120 177 0
133 182 0
122 176 0
126 180 0
134 182 0
130 182 0
117 173 0
124 178 0
121 176 0
128 180 0
131 182 0
124 178 0
127 178 0
129 181 0
119 176 0
123 178 0
125 179 0
122 176 0
122 179 0
120 178 0
123 179 0
112 172 0
115 173 0
115 173 0
113 174 0
117 175 0
114 174 0
120 176 0
115 173 0
116 176 0
113 173 0
113 175 0
120 178 0
109 169 0
115 176 0
110 171 0
108 170 0
109 171 0
112 173 0
110 169 0
112 172 0
109 170 0
109 170 0
108 173 0
109 173 0
106 171 0
109 175 0
108 171 0
105 171 0
107 173 0
102 164 0
105 169 0
105 171 0
103 168 0
106 170 0
103 166 0
105 170 0
101 164 0
104 169 0
104 168 0
99 162 0
104 169 0
101 163 0
101 164 0
105 169 0
102 165 0
101 165 0
101 166 0
102 165 0
100 160 0
103 167 0
97 159 0
100 161 0
96 158 0
101 164 0
102 166 0
99 159 0
100 163 0
102 163 0
98 159 0
100 161 0
91 147 0
96 156 0
96 154 0
98 158 0
98 156 0
94 149 0
99 159 0
93 150 0
96 155 0
95 156 0
90 145 0
94 153 0
91 148 0
90 147 0
92 148 0
89 147 0
89 145 0
86 142 0
88 144 0
78 128 0
82 134 0
73 123 0
78 129 0
80 131 0
76 127 0
72 120 0
70 117 0
70 114 0
67 111 0
66 110 0
67 113 0
66 110 0
57 99 0
62 105 0
59 103 0
63 107 0
61 104 0
68 114 0
53 94 0
67 115 0
69 116 0
65 109 0
68 114 0
70 117 0
65 108 0
78 119 0
80 119 0
79 124 0
100 137 0
93 133 11
114 184 97
121 195 110
120 195 111
122 196 112
120 194 111
120 194 111
122 196 111
120 193 110
122 196 113
121 195 111
116 188 108
118 191 109
72 121 87
36 76 76
46 83 102
43 83 102
44 80 102
43 81 100
46 84 109
43 84 97
45 83 109
47 87 118
45 83 106
47 86 117
48 87 119
45 85 109
52 90 132
49 89 120
48 86 118
48 87 117
46 87 115
48 87 120
49 88 123
48 88 122
48 89 116
52 90 133
49 89 124
50 89 127
49 88 123
50 89 128
51 91 132
48 89 123
48 89 119
51 91 133
51 91 129
53 91 134
50 90 129
47 88 120
51 91 130
49 86 124
53 93 137
49 90 123
49 89 127
51 91 129
48 86 119
50 89 127
47 87 116
51 90 130
53 91 136
51 91 130
48 89 124
51 89 131
52 92 136
48 87 122
49 87 126
51 89 133
49 88 122
49 87 125
51 92 132
47 85 116
48 88 120
50 91 127
47 86 119
50 88 125
48 86 116
47 85 115
47 86 118
46 85 109
50 88 127
49 87 123
48 85 119
48 85 118
49 86 125
47 86 119
46 84 114
48 84 117
48 84 120
47 82 118
46 83 114
45 79 106
49 84 119
48 82 118
44 75 105
46 80 112
46 85 110
45 75 111
46 79 109
43 75 105
48 80 118
45 78 106
42 72 98
42 69 94
43 74 101
77 127 92
117 186 108
120 191 110
120 192 111
121 193 111
121 192 111
117 186 108
119 191 111
120 192 111
121 192 111
122 194 112
119 190 110
121 185 106
100 55 32
98 54 31
91 50 29
87 46 27
84 46 27
70 39 23
76 40 23
71 38 22
60 33 19
62 32 18
58 29 16
63 32 18
57 28 16
55 30 16
46 26 14
61 33 18
49 27 15
68 36 20
62 33 18
67 38 22
66 36 21
74 39 22
73 40 22
67 38 21
70 39 22
72 41 24
79 45 26
82 45 25
79 44 26
82 45 26
87 47 27
80 45 26
85 47 27
87 47 27
88 50 29
82 46 27
90 49 28
84 46 26
93 51 29
92 51 29
95 52 29
94 51 29
96 52 29
97 54 31
94 51 29
93 52 30
95 53 31
95 53 31
95 52 30
98 54 30
99 54 31
101 56 32
98 54 30
99 55 31
100 55 32
99 55 32
93 51 30
101 54 31
99 54 31
103 57 32
104 58 33
104 58 33
102 57 32
103 57 32
101 55 32
103 56 32
103 57 33
103 57 32
102 56 32
105 58 33
103 57 33
102 57 32
106 59 34
106 58 33
103 57 33
101 56 32
101 57 33
105 58 33
104 57 33
106 59 34
105 59 34
104 58 33
105 57 33
105 57 33
103 55 31
107 60 35
105 58 33
107 59 34
106 59 34
103 57 33
108 60 34
107 59 34
106 57 33
104 57 33
104 58 33
105 58 33
106 59 34
107 60 34
106 58 33
106 59 34
106 59 34
108 60 34
106 59 34
105 58 33
109 60 34
104 57 33
107 59 34
107 60 35
106 60 34
108 60 34
107 59 34
109 61 35
108 61 35
109 61 35
108 60 35
105 59 34
107 60 34
106 59 34
107 60 35
105 58 33
108 60 35
110 61 35
109 61 35
108 61 35
107 60 35
109 62 35
107 59 34
107 61 35
109 60 34
109 61 35
109 61 35
108 61 35
109 60 35
110 62 35
110 62 35
109 60 34
109 61 35
109 61 35
109 61 35
109 61 35
109 61 35
108 60 34
134 182 0
130 181 0
137 183 0
136 184 0
128 180 0
128 181 0
124 179 0
134 185 0
129 181 0
135 183 0
118 176 0
127 180 0
135 182 0
130 182 0
128 179 0
131 181 0
126 180 0
127 181 0
125 179 0
123 180 0
124 180 0
122 177 0
128 182 0
119 176 0
124 176 0
116 174 0
123 178 0
128 180 0
120 175 0
116 175 0
119 177 0
120 177 0
121 175 0
118 175 0
121 177 0
117 176 0
116 176 0
116 176 0
115 174 0
113 173 0
115 176 0
107 171 0
117 177 0
114 174 0
110 170 0
110 172 0
108 172 0
111 174 0
109 174 0
104 169 0
108 172 0
106 170 0
105 170 0
100 164 0
107 172 0
104 167 0
105 169 0
105 169 0
105 169 0
102 162 0
104 169 0
106 171 0
106 172 0
104 168 0
103 168 0
104 168 0
104 167 0
104 169 0
102 165 0
104 168 0
103 168 0
104 169 0
105 169 0
105 169 0
102 165 0
103 168 0
103 166 0
103 167 0
103 166 0
100 162 0
103 165 0
96 156 0
101 160 0
96 157 0
103 165 0
101 162 0
101 163 0
100 163 0
97 159 0
100 160 0
99 159 0
96 154 0
96 156 0
97 157 0
99 160 0
98 159 0
93 153 0
94 153 0
94 152 0
94 150 0
90 148 0
94 152 0
89 146 0
87 144 0
90 145 0
90 145 0
75 127 0
84 136 0
94 151 0
88 143 0
85 138 0
83 138 0
76 123 0
81 134 0
72 121 0
76 125 0
76 127 0
70 118 0
75 124 0
63 111 0
73 120 0
73 122 0
73 121 0
63 107 0
63 107 0
61 106 0
63 107 0
62 107 0
50 90 0
59 101 0
69 116 0
62 108 0
60 104 0
68 117 0
68 113 0
72 121 0
69 113 0
81 124 0
94 139 0
96 137 0
95 132 0
105 162 72
121 196 112
122 197 112
121 195 111
119 193 108
119 194 111
119 193 110
118 191 107
121 195 112
119 192 108
120 193 111
118 190 109
119 191 109
116 186 107
43 80 86
39 76 86
38 74 87
43 82 98
43 82 97
40 81 90
44 82 108
46 85 109
46 84 111
46 84 109
49 87 119
46 85 111
47 87 112
47 86 116
46 85 113
46 86 110
48 87 121
45 86 110
49 86 119
51 90 130
49 90 118
46 87 113
48 88 122
48 89 119
49 89 126
46 88 114
50 89 127
48 89 120
50 91 123
45 86 112
46 87 114
48 89 121
50 90 125
47 86 114
51 91 128
50 90 126
50 91 129
48 88 122
48 86 122
47 87 117
51 91 132
46 84 118
47 88 119
47 86 123
50 90 127
50 90 126
48 87 119
49 89 122
50 89 128
47 87 119
49 89 124
49 88 126
47 86 118
49 87 127
50 89 127
50 89 129
47 84 119
50 89 125
49 88 124
50 90 125
47 88 116
48 87 122
45 83 108
45 84 112
50 88 126
49 85 121
47 87 119
48 85 118
48 83 123
47 83 113
50 87 127
49 84 122
48 82 118
47 85 119
49 84 123
45 80 107
47 83 115
47 82 115
45 80 106
46 79 110
46 82 113
43 77 106
46 80 113
46 76 109
43 75 103
43 75 103
44 75 103
42 70 99
42 70 96
41 68 80
108 173 105
119 192 111
121 191 110
120 192 111
122 194 112
122 196 112
121 196 113
122 194 112
119 187 109
119 191 110
121 195 113
120 191 111
120 192 111
106 128 73
102 56 32
91 50 29
88 48 28
87 47 27
76 43 24
72 38 22
77 42 24
70 38 22
69 37 20
66 34 19
48 25 14
58 30 16
60 30 16
54 29 16
59 34 19
67 36 20
62 33 18
64 34 19
69 37 21
70 38 21
68 36 20
68 37 22
70 38 22
76 43 24
78 42 24
73 40 23
79 43 24
80 44 26
81 43 25
85 47 27
83 47 26
88 48 27
85 47 27
86 47 27
90 48 28
92 50 28
88 48 27
87 46 26
90 50 28
93 51 29
94 52 29
94 52 30
91 50 29
94 52 29
98 56 32
100 55 32
94 51 29
96 53 31
99 54 31
99 54 31
98 54 31
97 53 30
101 56 32
99 55 32
96 53 31
97 53 31
98 54 31
101 56 32
104 57 33
100 57 33
103 55 32
101 56 32
100 55 32
100 56 32
102 56 33
99 55 31
101 56 32
102 57 32
102 56 32
104 56 32
103 56 32
103 57 33
103 57 33
104 57 33
103 57 32
102 57 33
105 58 33
105 59 34
106 60 34
103 58 33
105 59 34
108 60 34
105 58 34
103 57 33
104 58 33
108 59 34
108 60 35
107 60 34
105 58 33
107 60 35
105 59 34
106 58 33
106 59 33
103 57 33
107 59 34
104 58 34
107 59 34
108 60 35
107 60 34
108 60 34
107 58 33
107 59 34
107 60 34
106 58 33
107 59 34
105 59 34
109 61 35
106 59 34
106 59 34
107 59 34
109 60 34
109 61 35
105 58 34
108 61 35
109 60 34
107 60 35
107 60 34
111 61 35
108 60 34
107 60 35
108 60 35
106 59 34
109 60 34
106 59 34
109 61 34
108 60 35
109 61 35
105 58 34
108 60 35
108 59 34
110 62 35
108 61 35
109 62 36
108 61 35
108 60 34
110 61 35
108 61 35
107 59 34
108 60 34
109 61 35
109 60 35
123 180 0
126 179 0
130 181 0
132 182 0
129 180 0
122 178 0
126 178 0
122 177 0
129 182 0
127 180 0
126 181 0
128 179 0
132 180 0
122 178 0
124 178 0
128 181 0
130 180 0
122 179 0
117 176 0
121 177 0
121 178 0
130 182 0
119 178 0
114 173 0
118 177 0
114 172 0
115 176 0
114 173 0
114 176 0
118 176 0
114 173 0
115 175 0
113 174 0
113 174 0
116 176 0
115 174 0
112 174 0
115 174 0
112 176 0
109 173 0
110 173 0
106 169 0
108 172 0
110 174 0
106 172 0
107 170 0
107 170 0
108 172 0
105 170 0
106 171 0
106 170 0
105 169 0
104 170 0
103 168 0
106 170 0
106 170 0
103 168 0
103 167 0
103 167 0
104 168 0
102 167 0
103 167 0
106 171 0
100 162 0
106 171 0
104 168 0
106 172 0
100 164 0
106 171 0
103 165 0
104 168 0
103 167 0
103 167 0
106 172 0
103 165 0
100 162 0
103 168 0
101 166 0
97 157 0
102 166 0
99 161 0
103 167 0
95 156 0
101 163 0
99 159 0
101 163 0
101 165 0
104 169 0
95 155 0
102 163 0
99 163 0
96 157 0
91 147 0
94 153 0
97 159 0
92 152 0
92 153 0
93 151 0
91 150 0
92 147 0
92 151 0
93 151 0
94 153 0
87 141 0
91 146 0
83 137 0
90 147 0
80 133 0
84 139 0
80 133 0
83 135 0
80 132 0
84 137 0
82 135 0
77 128 0
75 126 0
79 132 0
68 116 0
71 119 0
66 112 0
74 124 0
65 111 0
72 118 0
63 109 0
64 109 0
63 107 0
66 111 0
61 106 0
64 109 0
63 108 0
69 116 0
71 119 0
65 111 0
64 110 0
69 115 0
80 130 0
72 114 0
73 120 0
85 125 0
96 137 0
105 149 47
118 189 105
118 191 108
119 192 109
118 192 109
118 191 107
117 191 110
118 191 106
121 194 110
121 195 110
123 197 112
120 194 110
119 192 110
118 190 109
117 191 109
83 138 92
38 75 82
42 81 92
40 80 89
46 84 107
46 84 113
48 86 115
47 85 114
45 86 105
44 83 103
45 83 106
44 84 104
47 85 117
45 86 107
49 87 125
45 83 108
51 90 130
48 89 119
51 90 126
48 88 118
50 91 124
49 89 124
47 86 114
47 88 118
46 86 110
48 87 122
49 90 125
51 89 127
48 87 122
50 90 127
47 87 114
52 91 130
50 90 127
47 86 115
49 88 125
47 87 115
47 85 116
49 87 124
51 89 131
50 89 127
48 88 120
48 87 121
51 91 128
51 91 129
48 86 123
48 88 120
49 87 124
47 85 117
46 85 117
50 90 129
50 88 126
49 90 124
46 85 113
48 89 123
48 87 122
49 86 124
48 87 122
50 89 129
48 86 122
51 90 127
49 89 125
51 88 128
46 84 111
50 89 127
46 86 113
45 81 108
45 83 113
50 85 125
48 86 121
45 81 109
48 86 120
50 88 126
47 84 117
50 85 121
47 86 119
48 83 113
50 87 128
45 78 106
46 80 111
46 82 114
43 76 99
45 77 108
48 84 115
42 73 91
44 73 104
48 81 117
42 73 98
39 69 87
41 69 96
91 146 96
119 189 110
121 192 111
120 192 110
117 185 108
119 186 107
120 191 111
119 190 109
118 188 109
119 189 109
118 189 110
118 187 108
119 189 110
119 190 110
119 186 108
102 79 46
94 51 30
91 50 29
87 47 27
84 45 26
80 44 25
72 39 22
77 41 23
66 35 20
60 31 17
69 38 21
59 31 17
62 32 18
62 33 18
58 29 16
63 33 19
71 38 22
73 38 21
65 37 21
63 33 18
73 37 21
72 39 21
76 40 23
76 42 24
82 43 25
72 39 22
83 45 25
79 43 25
82 42 24
85 47 26
84 46 27
81 45 26
86 46 26
93 49 28
91 51 29
89 49 28
94 50 28
93 51 29
90 51 29
89 50 29
91 50 28
92 51 29
95 53 30
97 52 30
94 52 30
94 52 30
99 54 31
98 54 31
100 56 32
95 52 30
97 54 31
97 53 30
102 57 33
98 55 31
97 53 30
98 53 30
98 54 31
101 57 32
102 55 31
98 54 31
103 57 33
103 56 32
100 55 31
102 55 32
103 58 33
100 55 32
102 55 31
100 54 31
106 59 34
98 55 31
106 58 33
104 56 32
103 56 32
104 57 33
106 59 34
102 56 31
106 58 33
104 57 33
104 58 33
106 60 34
108 59 33
104 58 33
106 57 33
105 58 34
104 57 33
103 58 33
105 58 33
105 59 34
105 57 33
108 59 34
106 57 33
104 58 33
106 58 34
103 56 32
105 57 32
106 58 33
106 58 33
104 57 33
106 58 34
106 59 34
105 58 33
107 59 34
107 58 34
104 57 33
106 59 34
109 61 35
107 58 34
106 58 34
106 59 34
109 61 35
107 59 34
105 58 34
108 60 34
106 58 34
106 57 33
108 59 34
107 59 34
105 57 33
108 60 35
109 61 35
109 61 35
106 59 34
108 61 35
108 60 34
106 60 35
109 60 35
108 60 35
108 60 34
109 60 35
108 60 35
108 61 35
109 60 34
109 60 34
109 61 35
110 61 35
108 60 34
108 60 34
108 60 34
110 61 35
108 60 34
109 60 34
125 180 0
134 182 0
125 181 0
130 181 0
126 180 0
129 180 0
126 179 0
123 178 0
126 179 0
121 178 0
125 180 0
126 179 0
129 182 0
111 173 0
122 177 0
122 178 0
117 175 0
116 177 0
120 178 0
119 178 0
122 180 0
115 175 0
112 171 0
124 178 0
115 174 0
121 177 0
114 176 0
116 174 0
113 176 0
111 172 0
109 171 0
115 176 0
111 174 0
109 171 0
112 172 0
107 171 0
109 171 0
109 172 0
106 170 0
108 173 0
107 171 0
106 170 0
106 168 0
105 170 0
105 171 0
103 168 0
106 170 0
105 170 0
106 169 0
105 170 0
107 171 0
106 172 0
102 166 0
106 172 0
106 170 0
105 170 0
101 165 0
103 166 0
101 162 0
100 164 0
105 168 0
103 167 0
101 166 0
103 165 0
105 170 0
101 164 0
102 166 0
100 164 0
103 166 0
103 166 0
103 167 0
99 162 0
103 166 0
104 167 0
100 163 0
101 164 0
99 161 0
101 164 0
100 164 0
104 169 0
101 164 0
100 161 0
100 164 0
96 156 0
96 158 0
100 163 0
98 155 0
96 156 0
100 163 0
96 155 0
99 160 0
98 159 0
93 154 0
96 155 0
93 151 0
96 155 0
95 156 0
93 149 0
95 153 0
91 149 0
90 149 0
91 150 0
91 146 0
92 150 0
93 151 0
91 148 0
90 145 0
82 136 0
80 132 0
87 143 0
79 129 0
86 141 0
83 136 0
74 124 0
79 133 0
72 122 0
75 126 0
72 123 0
75 127 0
66 111 0
70 117 0
66 112 0
66 111 0
70 118 0
72 121 0
69 119 0
67 114 0
66 111 0
66 112 0
67 114 0
71 118 0
68 116 0
69 116 0
66 112 0
71 119 0
74 122 0
84 133 0
77 122 0
94 139 0
90 134 11
108 172 93
120 193 107
119 192 109
119 191 111
118 191 108
117 189 109
122 197 113
119 192 108
120 193 111
118 191 107
117 189 106
118 192 108
117 189 107
120 193 110
118 191 110
116 189 107
48 90 81
40 80 89
41 77 89
37 77 75
42 82 97
44 82 108
43 82 103
45 83 105
47 86 113
42 79 100
46 86 117
45 84 107
44 85 104
46 86 112
45 84 105
45 86 106
47 87 117
48 87 121
46 86 113
47 85 113
47 87 116
48 88 119
49 87 127
49 88 123
47 86 115
49 89 125
50 88 127
48 87 118
49 89 124
46 86 114
48 87 121
50 91 127
48 88 121
49 88 121
48 87 120
50 90 124
48 88 120
46 85 115
51 90 130
45 85 111
43 85 104
51 92 127
49 89 125
51 91 129
48 87 120
48 88 121
48 88 118
49 89 125
44 84 112
47 87 117
52 91 131
49 87 126
50 89 127
49 89 126
51 88 130
48 88 121
45 86 111
48 87 118
46 86 117
48 87 119
47 83 116
46 84 110
45 83 110
51 87 127
47 82 119
50 87 126
46 81 110
48 86 121
48 84 121
49 84 123
46 85 117
44 81 105
49 86 123
46 77 114
47 84 116
47 82 114
45 79 107
46 79 107
49 81 120
43 76 103
44 79 101
44 76 109
43 76 101
42 70 100
44 74 100
43 70 97
43 72 98
48 80 79
118 184 107
116 186 108
118 188 108
119 189 109
121 194 112
117 187 109
120 187 108
122 193 111
119 189 110
120 192 111
120 191 110
119 189 109
118 188 109
119 187 108
120 189 109
113 161 94
97 56 32
92 50 29
82 45 26
83 44 25
78 40 23
68 36 20
70 37 20
72 37 21
65 33 19
64 33 18
61 33 18
65 33 19
64 32 18
58 29 16
60 31 17
68 36 20
62 33 18
65 35 20
69 35 20
70 38 21
79 43 24
78 43 24
70 40 23
79 43 25
77 42 24
82 45 26
83 45 26
85 44 25
83 46 26
88 48 27
82 44 25
84 45 26
86 47 26
87 47 27
92 49 28
88 48 28
92 51 29
91 50 28
93 50 29
92 49 28
93 51 29
92 50 29
92 50 29
98 54 31
95 51 29
97 54 30
96 52 30
95 50 29
97 54 31
98 54 31
99 54 31
98 54 31
101 57 33
96 53 30
97 52 30
98 52 30
96 53 31
99 55 32
99 55 31
98 54 31
96 53 30
100 55 31
104 56 32
98 53 30
102 56 32
97 53 30
103 55 32
100 55 31
103 57 33
103 58 33
103 56 32
103 58 33
101 56 32
102 56 33
102 56 32
104 56 32
104 58 33
103 56 32
102 56 32
101 56 32
104 57 33
103 57 33
106 58 33
102 57 33
105 58 33
105 58 33
105 57 33
106 57 33
105 58 34
106 58 33
105 58 33
103 57 33
104 57 33
104 57 33
104 57 33
106 58 34
107 59 33
105 58 33
107 58 33
106 58 33
106 58 33
105 58 33
105 57 33
104 56 32
107 58 33
106 58 33
106 58 33
108 60 35
105 59 34
107 61 35
106 59 34
106 59 34
107 60 35
106 58 34
108 60 35
107 59 34
107 60 34
106 58 33
106 58 33
108 61 35
108 59 34
107 60 34
109 60 34
107 60 34
106 59 34
107 59 34
107 60 35
107 60 35
110 62 35
108 61 35
108 60 34
107 60 34
107 59 34
108 60 34
109 59 34
108 59 34
107 59 34
109 61 35
108 61 35
109 60 35
122 178 0
128 181 0
130 179 0
127 180 0
122 177 0
123 179 0
126 178 0
127 180 0
127 180 0
125 179 0
128 180 0
125 180 0
120 177 0
129 181 0
123 179 0
127 181 0
121 176 0
118 175 0
115 174 0
114 175 0
118 175 0
118 176 0
115 176 0
110 171 0
115 174 0
121 174 0
121 176 0
109 172 0
113 173 0
106 169 0
112 175 0
111 173 0
110 173 0
108 171 0
111 171 0
113 175 0
104 169 0
108 172 0
109 174 0
110 175 0
106 171 0
105 169 0
106 171 0
106 172 0
105 170 0
104 168 0
102 166 0
105 170 0
105 169 0
106 172 0
105 170 0
105 170 0
107 172 0
103 166 0
106 170 0
105 169 0
100 164 0
105 168 0
107 172 0
102 167 0
104 168 0
105 168 0
104 168 0
105 169 0
102 167 0
103 166 0
102 165 0
98 158 0
99 161 0
102 165 0
103 165 0
101 163 0
101 164 0
99 162 0
99 161 0
103 165 0
103 168 0
100 163 0
98 159 0
102 163 0
101 163 0
94 156 0
100 164 0
97 159 0
92 152 0
98 159 0
99 161 0
96 157 0
98 159 0
95 156 0
94 154 0
99 161 0
89 147 0
97 158 0
93 153 0
92 150 0
92 151 0
88 146 0
98 159 0
89 143 0
93 152 0
90 147 0
87 143 0
87 145 0
88 145 0
83 138 0
84 138 0
87 145 0
81 136 0
76 127 0
80 133 0
80 132 0
82 135 0
78 131 0
81 134 0
73 122 0
75 124 0
69 116 0
76 126 0
72 121 0
78 130 0
72 120 0
65 113 0
63 109 0
56 98 0
69 117 0
56 100 0
70 118 0
66 111 0
63 109 0
66 112 0
67 115 0
74 125 0
73 124 0
75 124 0
84 136 0
80 128 0
90 138 0
83 124 0
98 154 68
119 191 105
115 187 105
116 188 106
120 194 110
118 191 109
119 193 108
118 191 108
119 193 110
117 190 105
119 191 108
118 190 109
120 193 108
117 189 106
114 185 104
119 192 108
116 188 106
97 160 94
42 80 91
41 78 94
41 80 93
39 75 86
43 81 102
43 83 95
43 82 102
48 86 114
46 85 111
46 85 109
44 82 109
46 86 112
45 84 109
45 84 109
48 89 118
48 90 119
49 87 124
47 87 114
47 85 118
47 87 113
48 88 121
47 87 118
49 88 124
48 84 123
48 87 122
50 90 127
46 85 112
48 89 120
48 89 120
52 91 134
48 87 120
47 88 118
47 86 116
49 88 126
52 90 134
52 92 130
48 88 119
46 86 115
49 88 124
48 87 120
49 90 123
51 89 132
46 86 117
48 89 120
46 86 116
50 90 128
48 89 122
48 87 119
50 89 128
51 91 129
48 87 122
47 84 119
48 86 120
50 87 127
49 87 125
52 89 134
47 86 118
45 85 108
49 88 122
48 84 118
48 87 120
47 84 117
49 88 124
49 87 120
47 84 115
44 83 110
49 84 122
45 82 112
47 80 115
47 86 119
47 80 113
48 79 113
48 82 114
45 79 102
44 78 107
49 83 121
49 84 119
45 79 105
41 74 94
42 76 102
43 73 100
43 75 98
45 74 104
43 74 99
39 68 89
41 71 98
105 170 101
115 186 108
115 180 105
116 182 105
116 184 107
118 184 106
116 185 108
120 192 111
121 192 110
121 193 111
117 183 105
119 187 108
117 184 106
116 183 105
122 192 111
119 186 108
119 190 110
108 140 81
96 53 31
94 50 29
84 45 26
87 45 26
84 45 26
70 37 21
73 39 22
76 41 23
66 34 19
66 34 19
71 36 20
62 32 18
70 37 21
70 37 21
72 39 22
74 37 20
71 37 21
73 40 23
76 39 22
73 39 22
72 38 21
73 40 23
79 41 23
84 45 25
80 41 23
83 45 25
82 44 25
83 44 26
80 43 25
82 44 25
85 47 27
87 46 27
90 49 27
93 50 28
89 50 28
89 48 27
93 50 29
88 48 27
94 52 30
92 50 28
91 50 29
101 55 31
95 51 29
89 49 28
93 50 29
97 51 29
98 55 31
97 54 31
97 52 30
93 50 29
97 52 30
97 54 31
97 53 30
99 52 30
98 52 30
98 53 30
102 55 32
101 56 32
99 56 32
97 51 29
102 54 31
97 52 30
101 55 31
100 55 32
100 55 32
103 57 32
101 56 32
101 56 32
101 56 32
102 56 32
102 55 32
103 56 32
100 53 30
106 57 33
105 58 33
102 55 32
101 55 31
102 55 32
103 57 33
102 57 33
103 57 32
104 57 33
104 57 32
106 57 33
105 57 33
105 59 34
103 57 33
105 57 32
106 59 34
104 56 32
107 58 33
107 59 34
102 56 32
107 60 34
105 58 33
106 58 34
105 57 33
106 58 33
106 59 34
106 58 33
105 59 34
108 59 34
106 59 34
108 60 35
107 60 34
108 59 34
106 59 34
107 59 34
108 60 35
106 59 34
106 57 32
107 59 34
107 59 34
108 60 35
108 61 35
109 60 35
107 60 34
108 59 34
108 60 35
108 60 34
106 59 33
106 59 34
106 58 34
108 60 34
107 59 34
107 59 34
106 58 33
109 60 35
106 57 33
108 60 34
108 59 34
109 60 35
108 61 35
109 61 35
108 60 35
107 59 34
106 59 34
108 61 35
110 61 35
129 181 0
132 181 0
119 176 0
125 180 0
122 178 0
120 177 0
129 182 0
122 177 0
126 181 0
127 180 0
124 178 0
120 178 0
125 180 0
116 175 0
117 174 0
120 177 0
116 176 0
108 172 0
118 176 0
116 176 0
115 174 0
115 176 0
116 175 0
110 169 0
117 175 0
113 174 0
108 174 0
106 170 0
108 171 0
111 174 0
107 171 0
110 173 0
110 172 0
109 173 0
108 171 0
105 170 0
108 174 0
103 169 0
103 167 0
104 169 0
105 170 0
105 170 0
106 171 0
106 172 0
106 172 0
102 165 0
108 173 0
101 165 0
103 168 0
103 168 0
101 165 0
104 168 0
103 168 0
104 168 0
105 171 0
106 171 0
105 169 0
104 169 0
103 165 0
105 169 0
105 170 0
105 170 0
103 167 0
103 168 0
104 169 0
102 164 0
101 165 0
101 165 0
105 169 0
104 167 0
100 161 0
102 165 0
96 157 0
101 165 0
99 164 0
102 166 0
103 165 0
101 164 0
101 162 0
98 159 0
95 157 0
99 162 0
101 162 0
98 157 0
96 155 0
96 158 0
94 155 0
97 159 0
96 156 0
94 155 0
92 149 0
99 161 0
95 153 0
95 153 0
94 154 0
92 150 0
97 157 0
92 151 0
94 151 0
89 147 0
90 146 0
91 150 0
92 150 0
85 140 0
86 144 0
91 147 0
85 142 0
85 140 0
87 141 0
81 135 0
83 138 0
86 142 0
82 135 0
80 131 0
77 128 0
78 126 0
77 129 0
71 121 0
72 120 0
63 108 0
74 124 0
70 118 0
60 106 0
68 115 0
66 113 0
67 116 0
62 106 0
63 109 0
66 111 0
76 127 0
72 122 0
70 118 0
75 127 0
76 127 0
78 130 0
84 134 0
84 129 0
90 134 0
97 147 54
117 190 106
118 192 109
116 188 104
115 187 106
119 193 109
116 189 107
118 191 109
114 186 105
117 190 107
116 189 106
114 185 106
115 187 106
114 186 105
116 188 104
118 191 109
116 189 106
117 190 106
117 188 106
78 131 85
39 75 91
42 81 97
43 79 97
43 80 99
44 82 105
41 79 94
46 87 108
44 82 105
43 82 100
44 85 105
46 87 111
41 78 100
47 86 114
46 85 114
48 86 118
48 86 121
46 86 113
48 86 123
49 86 122
45 85 106
44 83 103
48 87 122
48 87 120
45 86 110
49 89 125
50 90 126
48 87 120
45 85 111
47 86 118
48 86 121
48 85 122
47 85 117
47 87 117
48 86 121
49 89 123
51 90 133
49 88 125
49 88 124
50 91 126
50 89 126
49 87 125
46 87 115
50 87 128
50 89 129
50 88 128
49 88 123
47 86 119
49 90 124
50 89 130
47 86 118
52 89 129
46 86 115
48 87 122
49 86 127
50 89 127
46 84 113
48 87 119
49 86 124
50 87 125
49 87 121
47 86 116
46 85 115
48 89 122
47 84 119
47 85 116
47 85 114
47 86 113
47 85 117
49 84 121
48 84 118
46 81 113
47 84 113
49 84 121
45 79 111
46 80 113
43 77 103
47 81 114
44 74 101
43 77 102
44 75 102
42 74 97
43 68 98
41 72 94
37 64 82
73 117 90
115 181 105
118 185 107
115 183 106
118 187 109
115 184 106
118 188 108
117 179 104
117 178 103
112 171 99
118 188 109
119 187 108
118 184 107
120 186 107
117 186 108
115 177 103
117 185 107
122 194 112
117 187 107
102 105 61
90 49 28
82 44 25
79 42 25
80 42 24
78 42 24
74 40 23
79 41 23
69 36 20
68 37 21
71 36 20
67 35 19
70 36 20
66 35 19
71 40 23
66 35 20
79 41 23
78 41 23
80 41 24
74 41 23
77 39 22
76 42 24
84 45 25
81 42 24
79 43 25
81 43 24
76 41 22
81 45 26
90 46 26
82 43 25
89 46 27
87 47 27
89 47 27
84 46 26
83 46 26
90 48 28
92 50 28
90 49 28
89 49 28
96 51 29
87 49 27
95 49 28
95 52 30
94 52 30
94 51 29
93 50 28
101 55 32
98 54 31
95 52 30
94 51 29
91 50 29
101 55 32
93 51 29
99 53 30
99 54 31
98 53 30
94 51 29
97 54 31
97 53 31
100 54 31
98 53 31
102 55 32
101 55 31
103 56 32
101 55 31
100 54 31
101 56 32
100 54 31
102 54 31
101 55 32
103 56 32
98 54 31
103 55 31
103 57 33
102 54 31
101 56 32
104 56 32
104 56 32
104 57 33
102 56 32
102 56 32
104 57 33
104 57 33
103 57 33
104 58 34
101 55 31
103 56 32
107 58 33
104 56 32
105 57 33
105 57 33
103 58 34
104 57 33
105 58 33
107 59 34
105 57 33
106 58 34
105 58 34
104 56 32
105 58 33
106 59 34
106 58 34
107 59 34
103 56 32
107 59 34
106 58 33
105 59 34
105 59 34
106 59 34
107 59 34
106 59 34
104 57 32
105 57 33
106 60 34
105 58 34
108 60 34
106 59 34
107 59 33
104 57 32
109 60 34
107 60 35
105 59 34
109 60 35
106 59 34
107 60 34
107 59 34
108 61 35
107 59 34
107 58 34
108 60 35
107 60 34
107 58 33
107 60 35
109 61 35
107 60 34
108 58 33
106 59 34
105 58 34
109 61 35
128 180 0
124 180 0
126 179 0
129 182 0
136 183 0
126 179 0
123 178 0
118 177 0
114 174 0
118 176 0
116 177 0
115 175 0
118 174 0
114 174 0
114 176 0
119 175 0
119 178 0
108 173 0
115 175 0
112 175 0
115 176 0
114 172 0
113 173 0
113 172 0
107 168 0
113 175 0
109 173 0
108 170 0
108 173 0
108 171 0
103 168 0
106 172 0
107 173 0
105 170 0
107 173 0
105 171 0
105 171 0
104 167 0
106 170 0
106 171 0
105 169 0
106 171 0
106 171 0
106 171 0
105 169 0
105 168 0
102 165 0
102 164 0
104 170 0
105 171 0
106 171 0
104 167 0
104 167 0
106 170 0
102 165 0
106 170 0
101 165 0
100 164 0
104 166 0
103 167 0
100 162 0
102 166 0
103 168 0
103 166 0
105 169 0
99 162 0
105 169 0
102 166 0
101 161 0
102 166 0
105 168 0
102 166 0
98 160 0
97 158 0
94 154 0
104 168 0
100 162 0
99 158 0
98 159 0
97 161 0
101 165 0
98 160 0
98 158 0
98 159 0
95 155 0
94 155 0
99 160 0
98 160 0
92 149 0
95 151 0
96 156 0
91 151 0
95 155 0
92 152 0
90 145 0
88 146 0
93 151 0
89 144 0
88 144 0
87 141 0
98 158 0
86 144 0
81 137 0
88 145 0
84 140 0
89 146 0
82 135 0
82 135 0
83 137 0
84 138 0
77 129 0
80 132 0
85 140 0
68 118 0
82 134 0
84 137 0
76 127 0
70 119 0
78 132 0
80 132 0
73 124 0
71 119 0
64 109 0
67 114 0
67 116 0
74 121 0
68 116 0
68 116 0
74 125 0
62 108 0
72 121 0
69 118 0
77 126 0
69 117 0
74 125 0
74 121 0
78 118 0
89 132 37
115 185 98
115 188 103
117 191 107
115 187 104
118 190 107
114 185 102
116 189 105
118 190 106
114 185 106
118 191 108
118 192 110
116 189 103
115 187 104
113 185 104
117 190 106
112 183 100
115 188 107
116 189 106
111 183 100
111 180 101
52 93 84
39 78 87
40 78 91
40 78 89
44 82 105
42 79 99
42 82 95
45 85 108
44 83 104
49 87 118
43 83 104
47 85 117
48 87 120
43 82 105
45 84 111
48 87 119
49 88 123
47 85 116
47 86 117
46 85 115
49 88 122
48 89 121
48 87 120
47 86 116
46 87 114
46 85 110
45 85 113
47 87 115
49 89 123
46 85 114
48 87 118
47 86 116
49 88 123
51 89 128
48 87 119
48 87 120
44 84 106
47 87 120
49 87 123
49 89 124
50 88 128
49 87 125
47 87 119
49 88 125
49 88 125
48 89 120
51 89 128
47 85 120
49 87 123
48 88 118
46 84 117
45 85 109
47 87 119
46 84 116
48 87 117
46 85 115
47 85 118
48 87 121
47 83 116
45 82 109
44 78 109
47 84 119
48 85 121
49 85 122
44 82 107
43 81 105
44 78 106
48 82 118
47 82 113
46 82 116
48 84 120
46 82 112
45 80 108
48 84 119
43 77 99
42 75 100
49 81 122
43 77 107
45 76 104
45 78 108
45 76 107
43 73 100
42 72 98
54 85 85
110 171 102
113 179 104
112 180 105
114 177 103
116 181 104
114 181 105
114 181 105
115 182 106
117 182 105
115 178 103
112 174 101
116 178 104
118 182 105
115 182 106
113 179 104
116 181 104
116 181 105
117 185 107
117 180 104
116 172 99
96 71 41
93 49 28
83 44 25
82 42 24
83 44 25
74 37 21
79 41 23
79 41 23
69 35 20
68 37 21
63 31 18
71 38 21
71 37 21
81 43 24
74 39 22
76 40 22
79 41 23
80 43 25
78 40 23
75 37 21
79 42 24
76 39 22
78 42 24
77 41 23
85 45 26
84 45 26
83 44 25
92 50 29
81 43 25
85 45 26
88 48 27
85 44 25
84 46 26
90 49 28
90 49 28
91 48 27
88 47 27
95 51 29
90 48 28
91 49 28
93 50 29
87 47 27
93 50 29
96 52 29
94 49 28
96 51 29
92 49 28
95 51 29
101 54 31
92 50 29
92 49 28
99 53 30
97 53 30
95 52 30
97 51 30
97 52 30
102 57 33
101 53 31
101 55 32
100 55 32
102 56 32
95 52 30
99 54 31
99 54 31
99 53 30
99 53 30
99 54 31
99 56 32
100 56 32
98 54 31
103 57 32
102 56 32
105 56 32
104 57 33
102 54 31
103 57 33
104 55 31
101 53 30
107 57 32
101 55 31
105 58 34
104 58 33
107 58 34
103 57 33
106 57 32
106 57 32
105 58 33
104 57 32
104 57 33
105 57 32
104 57 33
105 58 33
99 54 31
105 57 32
104 57 33
103 57 32
103 56 32
104 56 32
102 55 31
104 57 33
106 59 34
106 57 33
106 56 32
105 59 34
106 58 33
107 58 34
105 59 34
105 59 34
106 59 34
107 59 34
106 58 33
104 58 33
105 58 33
107 58 33
107 59 34
105 58 33
107 58 33
107 59 34
108 60 35
106 59 34
108 59 34
103 56 32
107 60 35
107 58 34
107 59 34
106 58 33
106 58 34
109 60 34
107 59 34
109 60 34
110 60 35
108 59 33
108 60 34
107 59 34
107 59 34
106 59 34
107 59 34
108 59 34
127 180 0
121 177 0
121 178 0
121 177 0
123 179 0
117 177 0
123 179 0
118 176 0
119 176 0
121 177 0
119 178 0
121 179 0
114 173 0
118 176 0
115 176 0
117 176 0
111 173 0
109 172 0
113 173 0
116 174 0
117 177 0
108 172 0
110 174 0
111 173 0
110 174 0
108 172 0
106 171 0
106 171 0
106 172 0
104 169 0
101 166 0
110 176 0
107 171 0
105 170 0
105 170 0
106 171 0
103 169 0
104 169 0
106 172 0
106 172 0
104 168 0
104 170 0
107 173 0
103 169 0
105 170 0
106 171 0
104 168 0
105 169 0
106 171 0
104 168 0
104 168 0
100 165 0
101 166 0
102 165 0
104 168 0
103 168 0
106 171 0
99 163 0
104 169 0
99 163 0
102 166 0
104 170 0
101 165 0
101 164 0
97 160 0
100 164 0
104 168 0
101 163 0
99 162 0
102 166 0
98 161 0
99 160 0
104 167 0
101 164 0
98 162 0
100 162 0
102 165 0
97 159 0
96 158 0
100 162 0
98 160 0
96 159 0
95 158 0
99 161 0
95 157 0
97 158 0
95 155 0
94 154 0
95 154 0
95 156 0
97 159 0
93 153 0
87 147 0
97 158 0
95 156 0
91 147 0
94 154 0
93 152 0
92 152 0
90 150 0
89 145 0
92 149 0
84 137 0
89 148 0
87 143 0
92 149 0
84 138 0
87 144 0
76 128 0
81 135 0
88 144 0
82 137 0
73 126 0
76 129 0
76 127 0
81 134 0
75 127 0
75 126 0
81 134 0
72 120 0
77 130 0
73 121 0
70 119 0
67 117 0
64 108 0
72 123 0
71 121 0
74 123 0
75 127 0
69 119 0
71 121 0
71 119 0
75 124 0
67 113 0
78 125 0
73 114 0
81 124 16
107 173 89
115 187 102
117 190 105
116 188 103
114 187 103
115 187 106
115 187 103
114 186 103
115 188 105
114 187 105
116 188 106
110 181 98
112 184 104
115 187 103
115 186 99
111 180 101
110 181 99
111 182 102
113 185 103
110 179 99
112 183 103
95 157 91
35 74 72
43 80 95
39 76 83
37 76 78
44 80 104
39 75 90
44 83 108
47 85 109
46 82 110
47 84 112
47 83 117
44 84 103
46 85 111
45 85 107
50 87 126
46 84 111
45 86 111
46 86 114
48 86 120
46 85 110
48 87 118
45 85 108
48 88 122
49 89 124
45 82 112
45 86 112
48 88 121
45 82 114
46 86 112
47 86 120
44 84 108
44 84 110
47 87 115
48 87 121
47 86 117
49 87 126
47 86 116
48 86 121
47 87 118
47 85 118
43 84 103
43 83 105
45 83 111
47 86 117
46 88 115
49 88 125
46 87 113
50 88 126
47 85 115
47 86 116
47 87 116
43 83 106
47 87 115
46 84 115
49 88 121
46 84 114
46 82 115
49 85 123
45 83 113
44 82 108
45 84 113
44 82 108
48 86 118
47 84 117
43 80 103
47 84 114
47 79 116
44 80 105
45 80 108
46 82 112
46 79 111
43 78 107
44 80 104
45 80 107
42 78 98
44 76 105
47 79 105
39 69 89
38 67 88
38 67 82
37 66 81
40 70 80
102 159 96
116 185 107
114 181 105
111 176 103
111 172 100
116 183 106
114 180 104
108 170 99
118 183 106
111 172 100
114 179 105
116 182 105
115 180 104
117 183 106
120 191 110
115 175 101
118 186 108
119 184 106
115 180 104
115 178 102
115 178 103
107 156 90
101 68 40
93 49 28
79 39 23
72 36 21
80 42 24
77 41 23
71 37 20
72 38 21
67 34 19
73 39 22
69 34 19
76 40 23
80 43 25
72 38 21
70 37 21
72 38 21
75 39 22
76 40 23
69 36 20
72 37 21
78 42 24
82 43 25
77 39 22
87 48 27
88 44 25
83 45 26
80 43 25
78 40 23
82 45 26
82 43 25
84 45 26
88 48 28
86 46 26
85 46 26
88 48 27
92 49 28
87 47 27
94 51 29
93 50 28
93 51 29
92 51 30
95 48 27
100 55 31
93 50 28
96 51 29
100 53 30
94 51 29
95 52 30
98 52 30
92 49 28
99 53 29
96 51 30
96 51 29
99 53 30
100 55 31
99 53 31
100 55 32
100 54 31
101 56 32
98 54 31
98 52 30
101 52 30
99 54 30
98 54 31
99 53 31
100 54 31
99 54 31
101 55 31
101 54 31
101 54 31
99 55 32
101 55 32
99 54 31
104 57 33
106 56 32
104 57 33
103 55 31
102 56 32
105 57 32
103 57 32
105 58 33
99 54 31
103 57 32
103 55 32
103 55 32
104 58 33
102 55 32
105 56 33
102 56 32
104 56 32
103 56 32
104 57 33
104 57 33
106 58 33
104 57 33
103 55 32
106 58 33
103 56 32
104 56 32
104 57 33
105 58 33
104 56 32
102 55 31
104 57 33
105 59 34
108 60 34
104 57 33
108 58 34
106 58 34
106 59 34
108 59 34
105 58 33
108 61 35
107 58 33
106 59 34
105 57 33
107 59 34
104 56 32
108 59 34
106 58 33
106 59 34
109 60 35
105 57 33
107 60 35
107 58 33
108 60 35
107 60 34
106 59 34
106 58 33
105 59 34
108 59 34
107 59 34
107 59 34
109 61 35
107 60 34
107 59 34
108 61 35
121 179 0
123 177 0
122 179 0
122 178 0
121 177 0
116 177 0
115 174 0
118 177 0
125 179 0
117 174 0
117 174 0
116 174 0
114 173 0
115 174 0
113 175 0
114 174 0
112 173 0
113 175 0
110 173 0
108 170 0
110 175 0
109 171 0
106 172 0
108 171 0
106 172 0
107 172 0
106 172 0
104 170 0
107 172 0
104 167 0
108 173 0
106 172 0
105 171 0
105 171 0
105 170 0
105 170 0
104 166 0
106 172 0
105 171 0
106 171 0
104 168 0
106 170 0
104 167 0
105 170 0
106 172 0
106 172 0
103 169 0
104 169 0
101 164 0
104 169 0
101 164 0
104 168 0
104 169 0
103 168 0
100 163 0
98 163 0
105 169 0
101 165 0
99 163 0
103 166 0
103 167 0
102 165 0
102 166 0
98 163 0
99 162 0
103 166 0
100 163 0
104 169 0
103 167 0
102 164 0
96 157 0
99 161 0
95 155 0
99 161 0
99 161 0
97 160 0
98 160 0
97 160 0
98 161 0
101 163 0
100 162 0
97 158 0
99 162 0
96 153 0
98 159 0
98 161 0
95 156 0
94 155 0
95 158 0
92 152 0
95 157 0
93 152 0
97 159 0
94 151 0
91 150 0
88 146 0
92 152 0
98 159 0
95 153 0
88 144 0
91 149 0
87 146 0
88 146 0
82 137 0
87 144 0
83 140 0
83 139 0
84 137 0
90 147 0
81 134 0
83 140 0
84 138 0
70 119 0
78 131 0
79 131 0
72 123 0
76 127 0
73 123 0
73 124 0
70 120 0
77 128 0
68 115 0
68 116 0
67 115 0
75 124 0
73 125 0
66 112 0
74 126 0
76 125 0
70 120 0
72 121 0
67 114 0
74 125 0
79 128 0
74 123 0
75 119 11
103 169 86
116 188 103
115 187 104
115 187 102
110 181 98
116 189 103
118 191 104
114 186 100
111 181 99
108 178 97
107 178 95
115 187 103
111 183 102
112 183 98
110 180 99
112 183 101
114 184 103
113 183 102
110 181 99
117 189 103
109 180 100
109 180 102
113 183 102
82 140 82
37 75 80
37 75 77
40 78 87
41 79 96
41 80 93
46 84 109
40 79 91
42 80 103
42 80 105
44 82 105
43 82 104
44 83 108
43 82 99
43 79 109
48 87 120
44 84 103
47 85 120
44 83 104
44 84 108
46 84 113
46 85 118
47 88 114
49 86 124
46 86 115
46 84 114
44 85 108
46 87 115
45 85 111
45 83 114
45 84 110
50 91 129
44 84 111
49 87 123
48 85 123
45 84 113
48 87 122
46 86 115
47 88 119
46 83 114
53 92 135
46 86 114
47 87 115
48 87 122
50 88 128
50 89 129
46 84 117
43 82 107
49 87 127
45 84 113
45 84 112
45 85 111
52 90 134
44 80 108
45 83 110
49 85 124
45 83 111
49 86 124
47 85 114
44 81 105
45 84 111
45 80 108
46 80 114
48 85 121
43 78 101
46 83 114
44 81 106
45 81 110
41 78 96
42 79 101
47 82 115
45 76 102
46 80 113
42 77 97
44 74 103
45 78 108
40 72 90
41 73 98
44 75 103
38 68 88
39 71 91
89 144 91
109 169 98
102 161 94
110 176 102
110 169 98
112 174 101
114 176 103
105 165 97
103 161 94
111 170 98
113 177 103
114 173 100
115 177 103
118 179 103
111 170 98
113 173 100
117 186 108
112 173 101
110 170 98
114 177 103
116 178 103
115 181 105
116 177 102
105 141 81
92 56 32
83 43 24
79 38 22
79 41 24
75 39 23
74 39 22
75 38 22
75 40 22
76 39 22
72 34 19
69 35 20
69 35 20
72 39 22
70 34 19
75 40 22
74 40 23
86 45 25
75 39 22
70 38 22
82 43 24
80 41 24
77 40 23
81 43 25
77 40 23
87 46 26
81 41 24
81 43 25
89 47 27
86 46 26
82 44 26
87 46 26
89 49 28
89 48 27
83 44 25
85 45 26
91 47 27
88 47 27
98 52 30
90 47 27
90 47 27
93 49 28
95 51 29
93 51 30
91 48 27
92 48 27
98 52 29
95 51 29
94 51 29
94 51 30
99 52 30
91 49 28
98 53 30
97 52 30
97 53 30
95 51 30
99 53 30
98 52 30
95 49 28
99 54 31
98 53 31
94 50 28
100 53 31
100 53 31
103 55 32
97 53 31
97 50 28
102 55 32
100 53 30
103 54 31
103 56 32
104 58 33
101 54 31
101 54 31
104 57 33
101 56 32
105 56 32
103 56 32
103 57 33
99 54 31
103 55 31
103 54 31
102 55 32
103 56 32
102 55 31
106 57 32
103 56 32
103 56 32
102 55 32
104 57 32
103 56 32
105 57 33
105 57 33
105 59 33
106 58 33
102 55 31
106 58 33
103 57 33
97 53 31
103 57 33
104 58 33
104 56 32
103 57 32
106 57 33
105 57 32
104 56 32
105 57 33
105 58 33
105 57 32
106 59 34
107 59 34
105 56 32
103 55 32
104 57 33
108 59 34
105 55 31
107 59 34
108 60 34
106 58 34
107 57 33
106 59 34
106 58 33
106 58 33
108 60 35
108 60 34
106 59 34
107 59 34
108 59 34
108 59 34
107 59 34
108 59 34
108 59 34
109 60 34
107 59 34
105 58 33
108 60 35
109 60 34
123 177 0
123 177 0
115 170 0
118 176 0
127 178 0
116 175 0
119 178 0
116 176 0
115 174 0
119 176 0
117 175 0
119 177 0
113 174 0
112 173 0
111 173 0
114 174 0
110 174 0
106 168 0
110 172 0
106 170 0
107 170 0
108 174 0
108 172 0
106 171 0
106 171 0
104 170 0
103 167 0
105 170 0
106 172 0
104 167 0
106 170 0
108 173 0
104 168 0
103 167 0
104 170 0
106 172 0
104 170 0
104 168 0
104 168 0
105 170 0
103 167 0
104 168 0
104 168 0
106 172 0
102 167 0
104 169 0
104 169 0
105 170 0
104 167 0
101 165 0
106 171 0
103 168 0
102 166 0
103 169 0
99 163 0
103 167 0
102 165 0
100 164 0
102 166 0
101 165 0
100 165 0
96 158 0
102 164 0
104 168 0
97 160 0
102 164 0
102 166 0
101 164 0
100 161 0
95 157 0
99 162 0
96 158 0
97 158 0
99 161 0
99 161 0
99 160 0
99 162 0
98 159 0
97 159 0
95 154 0
102 165 0
99 158 0
93 155 0
93 154 0
95 156 0
96 157 0
97 159 0
91 151 0
96 157 0
90 149 0
90 149 0
99 161 0
87 145 0
94 153 0
95 157 0
92 150 0
89 146 0
92 151 0
87 144 0
91 150 0
85 142 0
96 156 0
88 145 0
87 144 0
85 142 0
86 142 0
80 137 0
82 137 0
86 141 0
88 145 0
82 136 0
77 127 0
82 139 0
76 127 0
76 130 0
76 126 0
78 131 0
75 126 0
74 125 0
75 127 0
69 117 0
68 116 0
71 121 0
77 128 0
73 122 0
67 115 0
62 108 0
77 128 0
71 120 0
71 123 0
78 129 0
68 114 0
66 111 0
73 122 0
78 120 0
96 156 71
112 182 97
120 193 106
113 186 103
116 190 106
108 178 92
112 183 98
109 181 97
112 182 99
113 183 99
107 176 98
114 185 102
112 183 96
108 177 96
110 181 97
107 175 95
108 177 97
108 176 95
109 178 98
110 180 100
109 177 94
113 183 99
107 175 94
105 172 92
112 183 98
72 123 85
38 77 85
34 73 73
39 77 87
40 80 92
44 82 104
43 81 101
42 82 99
45 84 108
43 83 102
45 83 106
43 80 102
45 85 108
45 84 111
45 82 110
46 87 114
46 84 111
46 86 115
48 86 115
46 85 114
48 85 117
46 86 114
48 86 120
46 86 113
45 83 110
47 87 116
46 85 114
45 83 110
48 87 119
49 88 128
44 85 105
48 88 119
45 86 111
47 84 118
48 88 120
49 87 125
44 84 112
48 88 121
46 85 114
48 87 118
47 85 117
46 84 116
45 85 109
44 85 108
44 82 105
46 84 115
47 87 115
46 84 114
47 83 120
48 85 121
45 84 115
48 84 120
44 84 106
45 84 105
48 85 122
48 87 119
48 86 121
45 84 111
44 83 108
47 85 117
45 81 108
45 82 111
46 82 114
44 82 103
46 84 112
41 78 97
47 84 118
46 81 113
46 80 109
49 83 122
44 80 110
43 79 100
43 76 102
44 77 102
40 72 89
39 71 90
39 76 93
40 71 92
35 62 71
69 111 77
108 170 98
115 177 103
107 166 96
110 169 98
110 168 98
116 182 105
110 174 101
108 168 98
116 181 105
112 179 104
111 171 99
110 170 98
112 175 101
114 174 100
113 173 99
110 167 97
112 173 100
115 175 101
115 175 101
110 167 96
115 172 99
115 174 101
112 176 102
114 170 98
101 122 71
87 46 26
88 47 27
80 41 23
74 38 21
73 36 20
78 38 22
70 34 19
82 40 23
78 42 24
66 33 18
74 37 21
69 37 21
78 40 22
76 37 21
75 37 21
76 39 22
73 38 22
80 42 24
77 40 23
80 42 24
81 44 25
75 39 22
85 44 25
84 44 25
81 42 24
84 44 25
85 44 26
85 44 26
86 45 26
86 47 26
81 40 23
89 47 27
88 49 28
87 45 26
87 46 27
93 48 28
98 53 30
88 49 28
87 47 28
92 51 29
88 46 26
91 48 27
89 48 27
92 50 28
92 50 29
94 51 29
94 51 29
94 50 28
93 50 29
96 50 29
92 49 28
98 52 30
96 52 30
91 49 28
94 50 29
96 52 29
100 52 30
98 53 30
97 51 29
95 51 29
99 53 30
102 54 31
99 53 30
103 55 32
99 53 30
100 54 31
101 55 32
99 53 30
99 53 31
105 57 33
99 52 30
99 54 31
102 54 31
98 53 31
95 52 30
101 54 31
102 56 32
100 55 32
101 53 31
102 54 31
102 55 31
101 55 32
105 58 33
103 56 32
100 54 31
104 56 32
102 55 32
105 58 33
104 57 33
102 54 31
106 58 33
103 54 31
104 56 32
106 58 34
105 57 33
103 55 32
105 57 32
103 56 32
107 58 33
102 56 32
106 58 33
105 57 33
104 57 33
104 57 33
102 55 32
105 57 33
105 57 33
103 56 32
103 56 32
100 55 32
105 57 33
106 58 33
105 57 33
108 58 33
104 56 32
108 59 34
103 55 31
107 60 34
106 58 33
104 58 34
105 57 33
107 58 33
106 58 34
105 57 33
106 59 34
107 59 34
107 59 34
107 59 34
108 60 34
106 59 34
109 60 34
110 60 34
109 60 35
108 59 34
107 59 34
111 171 0
122 177 0
119 176 0
116 176 0
125 178 0
118 176 0
113 174 0
120 177 0
114 174 0
117 174 0
111 173 0
108 167 0
112 172 0
111 174 0
109 174 0
106 171 0
108 173 0
106 172 0
106 171 0
107 172 0
105 171 0
104 168 0
104 170 0
105 169 0
106 171 0
104 169 0
107 173 0
105 171 0
106 171 0
105 171 0
102 166 0
105 169 0
106 170 0
104 169 0
104 167 0
108 174 0
103 168 0
107 173 0
106 172 0
103 168 0
102 166 0
104 170 0
102 165 0
102 166 0
105 170 0
105 171 0
104 169 0
105 170 0
98 161 0
105 171 0
96 159 0
101 166 0
100 161 0
103 166 0
102 166 0
99 162 0
102 166 0
102 165 0
104 168 0
103 167 0
103 166 0
99 163 0
101 167 0
97 162 0
100 162 0
100 164 0
98 162 0
97 160 0
99 161 0
103 166 0
100 161 0
101 164 0
100 164 0
99 161 0
101 165 0
97 160 0
96 157 0
95 155 0
99 162 0
93 152 0
97 159 0
97 158 0
96 158 0
87 145 0
96 157 0
95 157 0
96 157 0
97 159 0
93 151 0
87 144 0
87 144 0
90 149 0
94 153 0
91 148 0
92 152 0
87 144 0
88 145 0
93 154 0
93 153 0
88 146 0
87 142 0
84 140 0
86 142 0
90 147 0
85 140 0
81 135 0
80 135 0
83 137 0
75 128 0
78 131 0
82 138 0
71 120 0
77 129 0
77 129 0
83 137 0
73 126 0
75 126 0
77 130 0
74 127 0
77 128 0
72 123 0
75 126 0
70 119 0
67 116 0
74 127 0
70 119 0
70 119 0
69 119 0
64 108 0
69 117 0
76 127 0
70 117 0
67 110 0
71 114 0
87 142 62
110 181 94
111 182 97
109 181 96
111 180 94
115 187 99
111 183 96
108 178 96
111 181 97
107 177 93
112 184 100
111 181 98
109 178 97
107 175 93
108 178 95
106 175 95
107 177 95
108 179 92
113 184 101
110 181 97
110 178 98
104 172 95
106 173 92
105 172 97
107 174 97
107 175 94
99 166 91
60 105 73
39 76 84
36 73 77
43 81 98
41 79 94
42 78 100
40 79 90
43 82 100
45 82 109
42 81 97
43 81 102
45 83 109
43 84 102
47 87 116
46 83 111
47 86 114
46 84 112
41 79 101
46 84 115
47 86 115
47 85 116
47 86 116
43 82 107
46 87 110
46 87 115
47 85 117
46 82 114
46 85 115
44 84 108
45 83 113
50 90 127
46 84 116
46 86 112
46 84 112
41 81 99
46 86 116
48 87 118
48 85 121
48 89 119
45 86 111
45 83 113
46 85 112
45 83 113
48 88 120
45 83 114
45 83 112
47 85 117
48 87 120
46 84 117
47 87 117
45 82 111
50 87 127
47 84 116
45 83 108
47 85 116
47 85 118
46 83 116
45 81 112
45 81 114
46 82 114
48 85 118
43 81 101
46 84 115
47 84 117
42 75 100
46 81 115
47 84 115
45 80 108
41 76 94
39 73 93
42 78 100
43 77 100
42 73 96
39 71 88
39 71 89
38 69 85
44 73 105
62 99 87
104 165 98
112 173 101
105 162 93
107 165 96
112 176 101
112 173 100
108 168 97
108 167 97
114 177 103
106 160 92
111 169 97
104 159 92
113 169 98
105 162 94
110 169 98
109 171 99
110 166 97
111 172 99
112 172 99
108 160 91
110 154 89
112 166 95
104 155 89
111 166 96
108 165 96
113 165 95
103 129 75
83 43 25
83 41 23
76 38 21
77 37 21
74 39 22
75 38 21
71 38 21
77 41 23
71 35 20
73 36 21
63 33 18
68 33 18
76 40 23
74 38 21
76 39 23
71 37 21
83 44 25
81 41 23
81 42 24
85 45 25
72 39 23
77 41 23
86 43 24
81 42 23
85 46 26
82 43 24
79 39 22
79 42 24
88 47 27
86 45 26
80 43 24
92 47 27
85 44 25
89 47 26
88 47 27
90 49 28
93 49 27
93 49 28
89 46 26
95 50 29
95 51 29
88 47 27
90 47 27
91 47 27
93 47 27
90 47 27
95 49 28
94 51 29
96 52 30
93 49 28
96 49 28
95 50 29
97 51 29
99 53 30
96 52 30
97 52 30
99 53 30
99 53 30
99 53 31
100 53 30
102 54 31
101 55 32
97 52 30
100 54 32
97 52 30
98 51 30
97 51 29
100 53 31
99 54 31
99 53 30
100 53 30
100 54 31
102 55 31
101 53 30
100 55 32
104 57 33
103 55 31
102 54 31
100 53 31
104 56 32
103 57 33
103 55 32
104 55 31
103 55 32
104 58 33
102 53 30
101 54 31
103 56 32
105 55 31
103 55 32
102 57 33
104 56 32
106 56 32
101 55 31
104 55 32
101 56 32
105 57 33
101 55 32
105 57 33
106 58 33
103 56 32
105 58 33
103 56 33
101 55 32
105 58 33
103 57 32
105 58 33
106 57 33
105 57 33
103 55 31
104 56 32
106 58 33
105 56 32
109 59 34
107 59 34
105 57 33
103 57 33
106 58 33
104 57 32
107 59 34
107 59 34
107 59 34
105 58 34
105 57 32
105 57 33
108 60 34
108 59 34
107 59 34
109 61 35
106 59 34
108 58 34
108 59 34
108 59 34
108 58 33
123 178 0
118 176 0
117 176 0
121 179 0
111 175 0
115 175 0
119 176 0
115 177 0
113 175 0
107 171 0
110 173 0
115 176 0
112 174 0
110 175 0
110 175 0
105 169 0
107 172 0
107 171 0
109 175 0
107 173 0
106 172 0
107 172 0
107 173 0
103 168 0
107 172 0
106 172 0
104 168 0
104 170 0
105 170 0
105 170 0
105 171 0
104 168 0
106 170 0
103 168 0
103 167 0
105 170 0
104 169 0
104 169 0
106 171 0
101 166 0
104 169 0
107 172 0
103 168 0
102 168 0
100 165 0
103 167 0
105 169 0
104 169 0
103 167 0
103 167 0
105 169 0
99 162 0
101 166 0
101 164 0
102 166 0
100 164 0
105 167 0
102 166 0
101 165 0
100 163 0
99 162 0
101 163 0
101 164 0
100 162 0
97 157 0
95 157 0
98 159 0
99 160 0
102 165 0
94 157 0
95 156 0
97 160 0
100 162 0
97 159 0
100 164 0
95 157 0
98 161 0
92 152 0
97 160 0
96 156 0
97 159 0
97 158 0
95 154 0
97 157 0
93 154 0
97 159 0
96 158 0
95 154 0
96 157 0
91 149 0
91 149 0
85 142 0
91 150 0
97 158 0
90 148 0
87 144 0
86 144 0
92 152 0
90 148 0
87 144 0
85 142 0
89 148 0
86 142 0
84 140 0
79 131 0
88 147 0
80 134 0
83 139 0
78 132 0
82 137 0
81 133 0
78 131 0
74 125 0
77 129 0
76 126 0
77 131 0
74 127 0
73 124 0
70 120 0
71 120 0
73 121 0
73 124 0
68 119 0
71 123 0
78 132 0
73 125 0
69 118 0
69 116 0
65 111 0
73 119 0
73 123 0
69 114 0
65 110 0
89 148 61
111 182 93
111 181 92
106 176 93
111 182 94
110 180 93
105 173 90
113 185 100
107 177 93
108 177 92
113 183 98
108 178 95
105 173 92
113 183 98
103 171 90
106 175 93
107 176 96
106 175 94
108 177 97
110 180 97
103 171 95
107 178 96
103 170 87
109 178 96
109 178 97
106 174 93
109 177 95
103 169 93
105 172 94
55 99 84
37 76 83
40 79 93
36 72 78
42 80 93
41 80 96
41 80 99
40 77 92
41 78 92
45 83 108
43 82 102
39 77 89
41 77 100
40 79 98
45 83 110
46 85 114
43 82 103
49 85 121
46 85 113
45 86 108
42 84 99
47 86 113
47 88 116
46 83 115
46 85 115
49 89 121
47 86 119
46 88 111
44 83 106
45 84 111
46 85 113
46 87 114
49 87 122
46 86 111
43 83 106
47 86 114
44 83 108
46 84 116
46 85 114
44 84 106
46 82 114
47 85 120
45 83 110
49 86 124
47 86 115
44 81 112
46 85 115
45 82 111
45 84 107
46 87 113
46 85 113
44 80 108
48 82 118
43 82 103
41 76 97
44 82 105
45 80 112
43 80 103
44 77 108
46 81 110
42 78 103
46 80 114
46 80 115
44 81 105
41 76 98
44 80 109
43 73 102
43 75 100
41 72 96
42 75 103
42 76 98
40 72 95
43 74 100
38 68 88
39 70 86
55 85 77
104 161 93
104 159 93
105 164 94
109 171 98
103 161 94
111 168 98
112 169 98
107 157 91
105 160 93
102 155 90
105 159 92
103 160 93
102 155 90
109 168 97
108 165 96
109 164 94
111 164 93
113 174 100
110 169 98
114 172 100
109 168 97
114 170 98
110 164 94
113 172 99
109 165 96
111 168 97
108 160 93
109 165 96
94 103 60
87 43 24
87 42 23
83 42 24
73 36 20
73 37 21
81 39 22
73 35 20
80 42 24
72 37 21
66 35 20
68 34 19
71 33 18
80 41 23
65 34 19
76 37 21
78 40 23
80 40 23
77 40 22
72 37 21
82 42 24
77 40 23
80 43 24
80 41 23
82 40 23
86 45 26
84 44 25
83 43 24
88 44 26
89 45 26
88 46 26
88 46 26
87 47 27
87 46 26
92 49 28
87 46 26
88 47 27
92 50 29
86 46 26
92 49 28
96 51 29
92 48 27
87 46 26
97 51 28
97 51 30
96 53 30
96 50 29
96 50 29
95 50 29
94 49 28
93 50 28
96 50 29
92 49 27
97 50 29
95 52 30
100 54 31
94 50 29
100 51 29
93 49 28
99 53 30
99 53 30
102 56 32
98 53 30
99 50 29
96 50 29
102 54 31
98 53 31
101 55 31
101 55 31
98 51 29
103 54 31
104 56 32
98 53 30
103 57 32
101 52 29
99 53 30
98 52 29
100 54 31
102 55 31
101 54 30
102 56 32
104 56 32
100 55 31
100 54 31
103 56 32
102 54 31
102 54 31
101 55 31
104 57 33
101 53 31
99 53 31
104 56 32
105 56 32
104 56 32
103 56 32
103 55 32
103 57 33
100 53 30
105 57 33
101 53 30
102 55 32
103 54 31
104 55 32
101 54 31
105 57 33
106 58 33
102 56 32
107 58 33
106 58 33
106 58 33
105 57 33
106 57 32
105 56 32
107 59 34
105 58 33
105 57 33
107 59 33
106 58 34
104 56 32
105 56 32
104 57 33
106 57 33
104 57 33
106 57 33
103 57 32
108 60 34
106 58 33
107 59 34
108 60 34
104 58 33
107 59 34
108 60 34
107 58 33
106 59 33
117 176 0
113 174 0
114 174 0
114 172 0
111 173 0
110 175 0
115 175 0
105 170 0
115 175 0
105 169 0
108 173 0
110 173 0
110 172 0
109 173 0
104 170 0
104 170 0
108 173 0
105 169 0
104 168 0
104 169 0
104 168 0
104 169 0
104 167 0
103 169 0
104 169 0
104 171 0
105 170 0
105 169 0
107 173 0
104 168 0
105 171 0
106 172 0
105 172 0
104 168 0
100 164 0
106 172 0
101 165 0
104 169 0
102 165 0
104 169 0
106 171 0
103 167 0
100 165 0
102 168 0
102 167 0
102 166 0
103 168 0
101 166 0
104 167 0
99 162 0
101 164 0
98 161 0
101 165 0
102 165 0
103 166 0
103 169 0
100 162 0
98 162 0
101 165 0
99 163 0
100 164 0
100 165 0
95 157 0
100 163 0
94 156 0
100 163 0
98 161 0
99 162 0
96 157 0
101 165 0
98 161 0
97 158 0
103 164 0
100 163 0
94 155 0
94 155 0
95 156 0
100 163 0
95 154 0
94 156 0
95 155 0
92 152 0
93 154 0
92 150 0
95 158 0
96 158 0
94 155 0
92 152 0
97 159 0
96 157 0
95 155 0
91 150 0
91 149 0
90 150 0
86 146 0
88 145 0
83 140 0
90 150 0
84 140 0
89 147 0
85 140 0
86 142 0
85 142 0
85 142 0
80 133 0
76 130 0
77 131 0
76 129 0
84 141 0
80 136 0
76 132 0
74 127 0
78 131 0
83 140 0
80 134 0
77 130 0
76 129 0
73 124 0
73 125 0
75 128 0
75 125 0
69 117 0
71 121 0
73 126 0
71 120 0
70 119 0
70 117 0
69 116 0
65 112 0
74 124 0
73 122 0
62 105 0
91 148 62
110 180 95
105 174 85
111 180 91
114 186 100
105 175 91
108 179 92
108 178 92
110 181 99
109 179 94
104 171 93
109 180 94
105 174 90
108 177 91
110 181 93
109 178 95
105 174 92
108 177 92
108 177 93
101 169 92
108 178 95
100 166 85
100 166 88
104 170 89
99 164 88
101 168 87
99 164 90
103 170 94
103 169 94
103 170 93
101 165 86
55 96 86
39 76 89
41 80 93
40 76 94
42 80 101
43 81 99
44 82 105
44 81 106
39 79 89
43 81 99
46 85 113
43 83 101
38 79 90
43 85 104
47 88 119
41 79 98
42 82 103
47 87 114
47 83 120
44 84 108
48 87 119
50 88 128
46 83 113
48 87 118
43 81 101
46 83 115
45 84 109
43 82 106
51 90 129
44 83 107
47 86 119
46 85 112
43 84 103
42 81 101
41 80 97
43 83 106
44 84 109
43 82 104
42 80 100
43 83 106
44 83 109
45 84 111
43 82 105
45 84 108
46 82 114
42 80 99
47 85 118
46 86 113
44 81 110
45 84 108
45 82 109
43 80 106
43 82 104
44 81 104
44 83 108
45 83 109
45 83 112
41 76 100
45 83 113
42 79 101
45 80 109
42 79 100
45 77 111
42 79 101
42 76 96
42 76 103
40 75 95
42 76 100
42 75 98
42 74 97
37 67 84
38 71 83
39 70 90
54 92 89
100 151 91
99 154 88
102 158 92
104 162 93
102 155 90
104 157 91
103 158 91
107 167 96
103 158 92
107 163 93
107 162 94
107 158 91
109 165 95
107 161 94
98 147 84
106 162 93
103 151 88
107 159 91
106 159 91
107 162 93
105 156 90
108 165 95
106 160 92
107 160 93
110 164 94
112 171 99
107 158 91
105 152 87
111 167 97
111 162 93
101 120 69
89 45 25
73 35 19
77 39 22
71 33 18
73 36 21
75 37 21
76 38 21
74 38 21
83 43 24
74 36 20
74 38 21
75 38 21
76 39 22
73 35 19
78 41 24
71 36 20
80 42 23
81 40 23
75 39 22
83 41 23
78 39 22
83 42 24
85 45 26
92 48 27
92 46 25
87 45 26
79 38 22
81 40 22
87 45 26
85 45 26
88 48 28
90 48 27
91 48 27
89 45 25
92 46 26
92 49 28
89 46 26
84 45 25
94 49 28
94 49 27
89 47 27
92 48 27
94 49 28
88 46 27
91 48 27
92 48 27
90 49 28
95 51 29
90 48 27
98 53 30
95 51 29
94 50 29
97 50 29
94 48 28
90 48 27
100 51 29
97 50 29
96 51 29
99 53 30
95 50 29
100 51 29
94 50 29
99 53 30
102 54 30
102 53 30
96 49 28
96 51 29
102 54 31
100 54 31
96 51 29
101 54 31
104 57 32
99 53 30
101 55 31
101 55 32
102 55 32
100 54 31
99 53 30
101 54 31
102 53 31
101 53 30
102 55 31
102 53 30
105 56 32
105 56 32
102 55 31
102 54 31
100 53 30
104 56 32
104 56 32
103 57 33
104 56 32
102 55 31
102 55 31
103 57 33
103 56 32
106 57 33
104 56 32
107 58 33
103 57 32
104 57 33
107 58 33
106 56 32
103 56 32
104 55 32
103 56 32
105 57 32
105 58 33
105 57 33
102 56 32
106 57 33
102 56 32
106 58 33
106 58 33
107 59 34
106 56 32
106 58 33
103 54 31
106 59 34
107 58 33
104 57 33
105 57 33
105 57 33
107 58 33
106 58 33
105 57 32
106 59 34
107 59 34
109 58 33
105 57 33
110 61 35
107 58 33
117 174 0
114 173 0
117 176 0
114 177 0
111 173 0
115 175 0
112 173 0
110 175 0
109 173 0
109 172 0
108 174 0
109 172 0
107 173 0
106 172 0
108 174 0
105 171 0
102 166 0
104 168 0
103 169 0
107 172 0
104 169 0
105 170 0
106 171 0
104 169 0
105 170 0
107 172 0
104 167 0
104 169 0
103 169 0
101 166 0
107 171 0
104 168 0
103 168 0
101 165 0
101 165 0
103 169 0
104 170 0
102 165 0
105 170 0
100 164 0
106 170 0
102 165 0
101 165 0
99 163 0
99 163 0
103 168 0
100 163 0
105 170 0
104 168 0
101 164 0
100 163 0
102 166 0
101 165 0
103 167 0
100 162 0
102 166 0
99 162 0
100 162 0
103 166 0
99 164 0
96 158 0
99 162 0
100 161 0
100 163 0
100 165 0
97 160 0
97 159 0
95 156 0
103 167 0
95 158 0
95 155 0
100 162 0
92 150 0
98 160 0
99 161 0
94 154 0
102 166 0
97 160 0
96 157 0
91 151 0
97 160 0
96 155 0
99 162 0
91 151 0
93 155 0
96 157 0
96 156 0
89 148 0
92 152 0
90 149 0
91 150 0
91 153 0
92 150 0
88 149 0
85 144 0
92 152 0
89 145 0
89 146 0
93 154 0
82 137 0
81 137 0
86 143 0
79 133 0
89 147 0
84 141 0
83 139 0
82 138 0
81 133 0
78 130 0
82 140 0
71 120 0
77 133 0
80 135 0
83 138 0
75 127 0
75 126 0
81 138 0
76 128 0
72 121 0
75 128 0
73 124 0
70 121 0
62 112 0
71 122 0
69 118 0
73 125 0
65 111 0
75 126 0
71 120 0
77 129 0
63 106 0
90 146 61
106 176 84
108 178 90
112 183 96
109 180 95
106 174 88
109 179 92
103 171 89
108 178 88
106 174 90
104 172 91
104 172 89
107 175 94
108 178 93
104 170 89
106 176 92
104 172 90
100 166 90
98 164 83
103 170 90
106 173 91
107 176 92
101 168 89
100 168 86
96 161 85
103 170 89
100 166 89
102 168 91
95 160 84
98 162 86
101 165 89
97 161 90
94 156 91
49 89 89
37 72 85
44 81 103
41 78 94
42 82 100
40 79 92
42 80 100
41 78 100
42 81 99
39 78 88
41 80 96
43 80 105
43 81 102
41 80 100
42 83 99
43 80 104
46 86 111
43 83 100
42 79 100
43 81 103
45 84 110
43 82 106
47 86 115
45 82 108
45 84 109
41 80 97
44 84 109
43 82 107
46 84 117
45 86 111
46 86 116
48 87 118
46 85 113
45 84 111
45 84 112
47 85 117
49 88 124
46 85 115
43 83 102
47 85 117
46 86 115
44 82 105
45 84 112
48 86 118
40 78 95
47 85 120
45 84 109
40 78 93
45 84 109
47 84 118
41 75 100
46 83 116
43 80 103
44 82 104
46 84 110
43 80 105
47 84 117
47 84 117
45 82 109
40 78 92
46 80 113
43 80 103
44 80 104
42 78 97
42 75 100
40 72 93
44 76 107
39 73 88
40 71 88
40 74 95
38 73 89
59 95 102
98 153 92
99 154 90
102 153 88
101 159 91
97 150 86
103 155 90
100 153 88
103 157 90
101 153 89
101 144 83
104 157 91
103 159 92
100 153 89
104 161 93
103 156 91
100 151 88
103 151 86
103 157 91
99 149 85
105 158 92
109 159 91
107 159 92
101 147 85
111 172 99
102 151 87
103 148 85
104 157 91
105 156 90
107 155 90
111 162 93
105 148 84
104 152 88
95 113 65
82 41 23
81 39 22
77 40 22
78 39 22
75 37 21
75 37 21
73 35 20
78 39 22
72 37 21
73 36 20
69 34 19
74 38 21
71 37 21
75 37 21
75 40 22
78 40 22
76 37 21
80 39 22
76 36 21
81 39 22
77 36 20
83 44 25
84 44 25
84 42 24
85 44 25
80 41 23
90 46 26
78 40 23
85 43 24
89 45 26
90 45 26
86 44 25
91 48 27
87 45 26
90 48 28
95 51 29
91 48 27
87 44 25
97 49 28
91 48 28
94 47 27
94 48 27
89 47 26
94 47 26
93 50 29
96 49 28
91 46 26
93 48 28
96 50 29
97 51 29
96 51 29
95 50 29
95 50 29
99 51 29
98 51 29
96 51 29
98 50 29
102 54 31
99 53 31
99 51 30
98 53 30
95 48 27
99 52 29
99 52 30
96 49 28
103 54 31
98 53 31
101 53 31
103 53 30
100 52 30
102 52 30
97 52 30
99 53 30
103 53 30
96 51 29
101 55 32
102 54 31
102 54 31
101 54 31
101 53 30
103 56 32
98 53 30
103 55 31
103 57 33
104 55 31
102 55 32
105 58 33
104 56 32
104 55 32
101 54 31
104 57 32
106 57 33
104 55 32
106 58 33
103 55 32
104 57 33
100 53 30
105 57 32
105 57 33
105 56 32
100 54 31
104 58 33
104 56 32
106 57 33
103 54 31
106 57 32
107 58 33
104 56 32
105 55 32
104 56 32
105 56 32
105 57 33
106 56 32
103 56 32
106 56 32
104 56 32
106 58 33
106 57 32
107 59 34
106 58 33
106 57 33
105 58 33
106 58 33
104 56 32
106 58 33
106 58 33
107 59 34
106 58 33
107 59 34
105 57 33
107 58 33
116 174 0
121 178 0
111 173 0
119 174 0
119 177 0
115 173 0
110 171 0
113 174 0
109 171 0
109 173 0
104 168 0
102 167 0
106 172 0
105 172 0
107 171 0
107 173 0
108 174 0
103 167 0
105 169 0
105 169 0
105 171 0
105 171 0
102 166 0
102 168 0
103 167 0
104 170 0
101 165 0
101 168 0
105 171 0
106 171 0
100 166 0
106 172 0
102 168 0
100 164 0
103 168 0
103 166 0
102 166 0
100 164 0
105 169 0
100 165 0
99 163 0
101 165 0
104 168 0
102 167 0
105 168 0
98 160 0
97 159 0
104 169 0
99 163 0
100 165 0
101 164 0
102 167 0
100 164 0
100 163 0
102 166 0
103 167 0
98 162 0
100 163 0
100 161 0
95 158 0
99 162 0
99 163 0
98 161 0
102 167 0
100 163 0
100 162 0
95 156 0
98 160 0
98 163 0
96 159 0
96 157 0
94 155 0
101 165 0
95 156 0
99 160 0
89 147 0
95 157 0
91 152 0
96 157 0
95 157 0
96 156 0
94 155 0
95 155 0
93 155 0
91 150 0
92 154 0
92 153 0
95 156 0
89 148 0
89 149 0
89 147 0
96 157 0
89 148 0
88 147 0
90 146 0
84 142 0
88 144 0
83 139 0
93 153 0
88 145 0
90 149 0
82 139 0
85 141 0
83 139 0
84 140 0
81 136 0
77 130 0
78 131 0
87 142 0
74 129 0
82 138 0
74 127 0
82 137 0
83 137 0
75 128 0
72 124 0
76 126 0
71 121 0
68 117 0
75 129 0
69 118 0
71 123 0
69 119 0
71 120 0
66 116 0
69 117 0
65 111 0
67 117 0
72 124 0
59 100 0
86 139 61
107 179 87
102 172 83
101 169 89
105 175 86
107 176 90
99 168 84
103 171 86
101 168 88
104 173 86
108 176 93
106 176 92
99 167 83
105 173 92
102 169 86
106 175 91
100 164 88
100 167 87
103 172 90
93 158 80
103 170 92
100 168 90
105 173 92
100 166 85
102 168 88
99 163 87
101 167 89
97 162 88
101 166 89
98 163 88
94 157 85
94 157 82
94 155 86
93 155 85
93 155 86
55 98 82
36 72 84
39 76 89
40 79 90
37 74 86
41 80 98
43 78 104
42 81 99
39 75 94
41 81 100
43 81 102
40 79 97
46 85 114
41 78 98
41 79 97
42 81 101
43 82 105
43 79 107
46 84 115
47 86 119
45 82 110
49 89 123
45 82 114
49 87 126
43 82 105
42 80 100
44 81 108
42 82 103
43 81 105
44 82 108
48 87 119
43 82 106
40 79 96
43 81 103
44 84 109
45 84 112
47 87 117
45 83 111
43 81 106
47 85 117
46 85 112
44 84 108
43 82 104
46 85 111
45 83 109
44 83 109
45 82 110
45 83 111
45 83 111
41 79 99
45 80 111
40 77 96
40 79 95
43 79 107
41 78 98
43 81 103
42 77 100
42 79 101
46 79 111
43 76 103
46 81 110
38 71 90
40 72 91
41 74 95
37 71 82
37 71 87
37 64 88
40 73 94
37 69 85
65 105 89
92 141 84
96 150 86
97 151 87
99 155 90
103 159 93
93 146 83
98 151 88
100 149 86
99 149 87
103 155 90
104 156 90
98 151 87
97 144 83
98 152 87
94 134 78
100 154 89
102 147 85
102 151 86
106 156 89
104 160 91
103 156 90
101 147 85
108 162 93
105 155 90
101 149 85
108 166 96
100 144 83
101 147 85
111 167 95
99 146 85
103 143 81
102 150 86
108 158 91
99 145 83
94 107 61
78 38 22
68 32 19
72 34 19
76 39 22
75 37 21
71 33 18
71 36 20
70 35 19
74 37 20
73 37 21
75 38 21
78 37 21
77 38 21
72 34 19
74 37 21
79 39 22
77 38 21
77 39 22
81 40 23
73 35 19
83 41 23
85 42 24
82 41 23
86 44 25
81 41 23
82 43 24
83 44 24
82 42 24
84 41 23
87 45 26
88 45 25
92 48 27
88 46 26
87 44 25
87 44 26
90 46 26
91 48 27
87 43 24
92 46 26
96 49 28
94 49 28
96 46 26
91 46 26
94 50 28
91 49 28
92 47 27
89 45 25
92 48 27
95 49 28
89 46 26
100 53 30
97 52 30
94 49 28
94 50 29
95 51 29
100 55 31
99 52 30
101 54 31
93 49 28
101 53 31
102 54 31
97 51 30
100 53 30
97 52 30
99 51 29
102 53 30
101 53 31
101 52 30
102 52 30
101 53 30
101 53 31
95 50 29
96 50 29
100 53 31
97 50 29
101 54 31
100 53 30
103 53 30
103 54 31
97 51 30
99 54 31
101 52 29
103 54 31
100 53 30
105 57 32
102 54 31
101 54 31
102 53 30
102 54 31
104 57 32
102 52 30
100 51 29
102 55 32
101 55 31
102 55 31
106 58 33
104 55 32
103 55 32
105 56 32
104 55 32
105 56 32
102 56 32
103 57 33
106 57 33
104 55 32
106 57 33
104 56 32
105 57 33
105 57 32
104 54 31
106 57 33
105 56 32
103 56 32
106 58 33
105 59 33
105 56 32
103 56 32
106 57 32
107 59 34
107 57 33
104 57 32
106 57 32
107 58 33
106 57 33
106 56 32
103 56 32
107 59 34
107 59 34
107 58 33
108 58 33
111 170 0
114 172 0
110 171 0
106 167 0
111 173 0
110 173 0
109 173 0
109 174 0
106 170 0
107 172 0
105 171 0
104 169 0
105 170 0
108 174 0
106 172 0
105 171 0
105 170 0
105 170 0
104 169 0
106 170 0
106 170 0
104 170 0
105 171 0
105 171 0
102 167 0
104 170 0
103 167 0
104 169 0
103 168 0
101 165 0
104 170 0
105 169 0
104 169 0
105 170 0
104 170 0
101 165 0
100 163 0
101 165 0
100 166 0
104 168 0
100 165 0
104 168 0
105 169 0
103 167 0
101 165 0
97 160 0
105 169 0
104 169 0
103 169 0
98 160 0
101 165 0
99 162 0
103 166 0
100 164 0
101 165 0
100 162 0
98 159 0
98 160 0
99 163 0
98 162 0
98 159 0
96 158 0
97 161 0
99 162 0
102 166 0
99 161 0
94 154 0
96 159 0
99 161 0
101 165 0
98 162 0
99 161 0
93 154 0
96 158 0
96 158 0
97 159 0
93 155 0
97 160 0
95 157 0
96 157 0
94 156 0
92 152 0
92 150 0
92 153 0
94 156 0
88 148 0
89 150 0
92 153 0
91 152 0
89 149 0
94 154 0
87 144 0
93 153 0
83 142 0
86 141 0
83 140 0
91 151 0
91 150 0
83 139 0
89 147 0
85 146 0
84 140 0
85 141 0
84 141 0
88 144 0
82 136 0
79 134 0
82 137 0
75 130 0
72 123 0
79 135 0
76 129 0
87 144 0
76 128 0
76 129 0
71 124 0
75 129 0
69 116 0
66 114 0
69 120 0
72 126 0
70 118 0
69 116 0
65 111 0
66 116 0
72 122 0
63 110 0
55 99 0
57 98 0
91 149 67
102 169 84
103 172 86
105 174 82
103 170 84
102 170 84
103 172 86
100 168 82
100 166 78
95 161 75
101 170 85
94 161 77
99 166 87
100 166 83
95 161 79
97 163 81
96 161 81
91 153 79
102 169 87
101 166 83
99 165 87
97 161 83
92 157 77
98 164 82
95 158 85
98 163 86
100 165 87
99 163 89
98 163 84
92 156 81
98 161 82
92 153 81
91 153 81
90 150 81
95 158 85
88 147 76
94 157 85
52 94 85
36 72 78
37 76 83
37 75 83
39 74 90
38 76 87
41 77 101
39 78 88
40 77 96
39 74 91
40 80 91
43 82 104
43 82 105
44 85 106
41 80 100
44 82 106
41 79 101
43 83 103
42 79 103
44 83 104
49 87 121
42 84 100
40 78 91
44 83 108
47 85 118
49 87 126
45 85 112
46 84 113
43 82 102
43 81 107
41 78 98
45 82 109
47 85 119
44 82 110
47 86 119
45 84 110
44 85 108
43 81 102
44 82 109
44 83 108
42 83 101
44 83 108
45 82 110
42 81 104
44 81 104
44 81 108
43 80 107
45 84 111
43 78 102
45 82 111
44 80 105
43 80 105
41 79 101
47 82 119
44 79 108
40 74 95
40 75 92
42 78 101
46 81 113
41 76 97
42 79 100
41 77 97
38 69 84
43 78 98
40 71 92
38 71 90
39 70 88
56 91 72
80 120 70
89 135 79
94 146 84
90 136 78
94 144 83
90 140 81
100 156 90
99 149 86
93 141 81
92 142 82
96 136 79
102 158 91
96 146 85
96 146 85
96 145 84
96 146 83
94 136 79
96 146 85
102 155 89
100 147 84
88 133 78
100 146 83
103 154 89
99 141 81
105 147 84
95 133 77
102 150 86
103 139 79
98 145 83
100 153 88
101 139 80
106 151 87
107 155 89
100 137 79
106 149 85
103 146 84
100 131 75
75 37 21
78 34 19
79 39 22
79 38 21
77 37 21
70 33 18
57 28 15
72 34 19
78 38 21
61 31 17
72 35 20
74 37 21
76 40 23
70 36 20
72 35 20
71 33 18
80 38 21
76 40 23
72 37 20
79 40 22
79 38 22
82 42 23
82 42 24
83 40 22
82 41 23
84 43 24
79 41 23
86 44 25
84 43 24
85 45 25
82 43 24
81 42 24
88 45 26
93 49 28
89 46 26
85 44 25
90 47 27
88 46 27
90 47 27
90 46 26
96 50 28
91 48 28
92 47 27
88 46 26
93 50 28
97 51 28
91 45 26
96 50 29
96 49 28
95 48 27
95 48 28
97 50 29
95 50 29
93 49 28
99 53 30
95 50 28
101 52 29
97 50 29
97 52 29
94 49 28
98 52 30
91 46 26
98 51 29
98 51 29
95 50 28
101 54 31
99 52 29
98 50 28
98 50 28
103 54 31
99 52 30
102 55 31
104 55 31
101 54 31
103 54 31
100 53 31
101 53 31
99 53 30
103 55 32
96 51 29
102 53 30
101 55 32
105 58 33
102 55 31
104 54 31
106 55 31
102 53 30
103 55 32
105 57 33
104 57 32
104 55 32
102 54 31
103 54 31
103 54 31
104 55 31
102 55 32
105 55 32
103 55 32
103 56 32
104 56 32
104 56 32
104 55 32
105 55 31
105 57 33
105 57 32
103 54 31
106 58 33
107 58 34
106 58 33
105 55 32
107 58 33
103 56 32
104 57 33
108 58 33
105 55 32
107 57 33
108 59 33
105 57 33
105 56 32
104 55 32
107 58 34
107 57 33
108 57 33
109 58 33
108 59 34
105 56 32
106 58 33
108 58 33
106 58 33
107 167 0
116 171 0
107 168 0
105 168 0
110 172 0
106 169 0
109 170 0
109 174 0
105 171 0
106 172 0
103 168 0
105 171 0
107 173 0
105 169 0
103 167 0
104 170 0
106 172 0
103 170 0
104 168 0
104 169 0
106 171 0
104 167 0
105 171 0
103 169 0
105 169 0
106 170 0
106 172 0
102 168 0
105 170 0
105 170 0
106 171 0
105 171 0
103 167 0
103 166 0
101 166 0
104 169 0
104 168 0
103 167 0
104 167 0
100 165 0
105 171 0
103 168 0
103 167 0
98 162 0
101 165 0
99 163 0
100 164 0
103 167 0
98 160 0
103 166 0
103 168 0
97 160 0
98 160 0
96 159 0
98 160 0
95 158 0
97 161 0
97 160 0
96 159 0
97 158 0
96 155 0
98 159 0
101 165 0
99 162 0
98 159 0
101 163 0
97 160 0
95 158 0
98 160 0
98 157 0
95 158 0
92 154 0
98 159 0
95 156 0
95 156 0
93 152 0
94 155 0
94 154 0
95 154 0
97 160 0
90 150 0
91 150 0
93 153 0
92 152 0
95 155 0
91 152 0
92 153 0
94 155 0
90 149 0
92 152 0
90 149 0
88 148 0
87 148 0
93 153 0
89 147 0
84 142 0
87 141 0
83 142 0
86 147 0
79 136 0
80 137 0
84 142 0
82 138 0
81 136 0
80 136 0
84 142 0
79 134 0
85 141 0
82 137 0
84 140 0
77 133 0
79 134 0
77 131 0
74 127 0
74 129 0
76 130 0
74 125 0
65 116 0
73 123 0
75 127 0
74 124 0
67 114 0
62 111 0
68 117 0
69 119 0
62 108 0
61 105 0
67 116 11
94 157 68
101 169 80
99 167 79
101 167 84
96 161 75
93 158 73
93 158 77
96 163 76
98 165 84
101 168 82
97 162 86
98 163 73
99 166 84
98 164 79
98 163 77
100 167 83
99 165 80
99 166 85
100 165 83
100 166 84
95 159 81
86 146 72
88 151 77
94 157 79
97 163 83
97 160 86
96 160 81
98 162 85
91 153 77
94 157 85
90 151 82
93 154 82
95 159 86
97 160 83
95 156 81
90 150 81
93 155 84
96 158 82
89 147 77
67 117 74
36 72 84
36 73 82
33 70 73
38 76 90
36 73 82
39 75 96
40 79 94
42 79 98
40 80 97
43 83 102
45 84 106
43 82 100
42 81 100
42 79 100
41 79 99
41 80 100
40 79 94
42 81 103
44 84 106
46 83 114
42 82 98
42 82 99
44 84 109
44 82 108
47 85 117
46 85 115
44 83 109
43 80 107
45 84 112
42 81 103
48 86 121
44 81 106
44 81 107
42 82 101
43 83 105
47 86 116
45 85 110
44 82 108
46 85 115
44 83 110
43 80 103
41 80 101
47 86 117
44 83 102
45 84 111
43 82 102
43 82 105
45 82 112
44 81 109
42 78 105
41 76 96
41 77 100
39 75 93
42 77 101
41 78 97
39 72 90
38 73 87
38 72 93
38 70 88
39 72 91
37 72 81
38 71 92
36 66 80
36 69 78
62 97 71
90 136 77
89 136 79
95 143 83
91 138 81
96 147 85
97 144 82
99 149 86
91 139 81
92 141 81
95 143 83
87 131 77
94 141 81
94 145 83
99 145 83
97 146 84
94 139 80
99 146 84
98 147 84
92 141 80
91 131 75
92 131 74
99 148 85
93 135 78
98 148 85
99 147 84
99 145 85
98 141 80
104 151 86
100 139 80
101 146 83
99 145 83
101 140 81
97 140 81
101 144 81
99 137 79
106 150 86
101 149 85
100 143 81
99 127 72
81 61 35
75 35 20
71 35 20
77 38 21
76 38 21
72 35 20
70 34 19
77 38 21
67 33 18
75 36 20
69 34 19
66 33 18
71 35 20
81 41 23
75 39 22
73 36 20
75 36 21
76 35 20
81 39 22
76 36 20
82 42 24
86 44 25
84 42 24
79 40 22
86 43 24
86 42 24
85 43 24
84 42 24
85 44 25
85 42 23
89 45 26
78 38 22
90 48 27
92 47 27
90 46 26
94 48 27
93 49 28
89 48 27
89 45 26
91 45 26
90 46 26
89 47 27
93 48 28
95 47 27
95 50 29
90 45 25
92 47 27
94 51 29
90 47 27
88 47 27
92 47 27
93 50 28
95 48 28
99 52 30
94 49 29
102 55 31
94 49 28
100 54 31
101 52 30
98 50 29
96 50 28
98 50 28
96 49 28
100 52 30
97 48 27
97 51 29
95 50 29
101 53 30
97 49 28
99 51 29
97 48 28
99 51 29
99 53 30
102 54 31
100 53 30
100 53 31
101 55 31
101 54 31
100 54 31
100 52 30
100 53 30
96 50 29
103 54 31
103 55 31
105 56 32
100 53 30
101 54 31
102 55 32
104 54 31
104 54 31
103 56 32
105 57 32
101 54 31
100 53 30
101 53 30
104 55 31
102 53 31
103 54 31
104 53 31
105 55 32
105 56 32
102 54 31
102 54 31
103 55 31
106 58 34
106 57 33
104 56 32
103 54 31
106 57 32
102 55 32
104 56 32
105 55 32
105 57 32
106 59 34
107 57 33
107 57 32
106 57 32
108 57 33
105 57 32
106 57 33
105 58 34
106 58 33
105 57 33
106 56 32
106 57 33
108 59 34
107 58 33
106 58 33
110 166 0
109 165 0
115 172 0
111 172 0
111 173 0
105 170 0
110 173 0
106 172 0
102 165 0
106 171 0
104 170 0
106 171 0
107 172 0
106 172 0
103 167 0
105 170 0
101 166 0
103 167 0
104 170 0
103 169 0
107 173 0
105 170 0
108 174 0
102 165 0
102 166 0
105 171 0
102 166 0
104 170 0
105 171 0
103 166 0
102 166 0
101 166 0
103 165 0
102 167 0
103 168 0
101 165 0
103 169 0
100 164 0
106 169 0
104 168 0
101 166 0
104 167 0
100 165 0
101 168 0
99 162 0
100 165 0
100 162 0
100 164 0
100 162 0
99 161 0
101 162 0
100 161 0
100 165 0
102 167 0
98 160 0
98 161 0
100 164 0
101 165 0
98 161 0
97 159 0
95 157 0
94 156 0
93 154 0
97 160 0
95 158 0
96 157 0
102 166 0
97 160 0
93 155 0
96 158 0
92 153 0
95 156 0
93 154 0
98 162 0
92 154 0
95 155 0
95 156 0
91 151 0
97 158 0
88 148 0
96 157 0
90 152 0
93 153 0
97 161 0
89 148 0
87 145 0
90 148 0
92 153 0
93 152 0
86 145 0
85 143 0
88 146 0
85 142 0
85 142 0
82 137 0
95 155 0
84 140 0
85 142 0
77 133 0
88 143 0
86 143 0
82 141 0
84 143 0
80 138 0
81 138 0
75 128 0
85 140 0
72 126 0
80 136 0
75 127 0
75 131 0
79 135 0
75 127 0
74 125 0
76 130 0
73 125 0
74 124 0
66 115 0
67 119 0
65 115 0
61 109 0
67 115 0
67 114 0
59 103 0
64 111 0
61 102 0
69 118 26
99 165 71
95 161 71
101 167 78
100 166 78
93 158 72
97 165 79
101 169 84
94 160 73
94 158 74
93 157 73
96 163 74
92 155 70
89 151 73
96 161 74
92 155 76
97 161 83
94 159 77
103 168 86
97 162 76
101 167 85
86 147 76
89 151 73
97 160 80
94 156 79
90 150 77
90 152 78
97 161 86
92 154 75
88 148 76
93 154 80
93 153 80
92 153 79
83 141 72
94 155 83
81 138 70
90 150 81
97 160 85
85 144 72
87 144 75
88 147 77
89 148 74
75 128 74
34 71 76
41 80 95
38 75 88
40 75 97
40 78 90
40 79 96
37 76 87
38 77 90
38 73 94
39 77 92
37 78 81
41 78 97
41 78 96
41 80 100
41 79 100
46 84 117
39 76 95
42 81 100
41 79 100
47 85 116
41 78 97
46 82 113
43 81 102
44 80 110
44 82 111
42 80 101
41 80 101
45 86 111
42 81 102
39 78 94
45 83 112
43 81 108
41 80 98
41 80 96
43 81 105
42 81 101
42 82 101
46 84 112
41 77 99
44 83 107
44 80 107
43 81 105
44 82 109
39 77 92
44 79 110
42 79 102
43 79 106
42 79 104
43 78 104
43 77 105
45 82 115
41 78 99
41 80 95
41 72 101
41 78 98
38 74 90
40 76 96
37 68 83
38 73 87
38 72 90
37 68 88
41 69 80
72 111 77
84 126 73
88 133 78
87 137 80
84 129 73
90 138 79
85 127 74
92 138 79
84 129 74
92 129 74
94 140 80
96 148 85
90 129 75
97 145 83
96 139 80
96 144 84
89 133 76
96 141 82
94 144 82
95 143 83
97 146 83
94 135 77
96 144 83
97 134 76
98 143 83
95 141 81
95 138 79
97 139 81
97 137 79
92 138 79
91 132 75
96 134 76
98 136 78
97 136 78
103 149 85
91 130 75
98 134 76
93 131 75
97 136 77
98 139 79
97 131 75
92 125 71
85 74 41
71 33 19
71 34 19
70 35 19
72 32 17
70 33 18
71 34 19
78 38 21
70 34 19
72 35 19
74 34 19
73 36 20
74 37 21
80 37 21
78 38 21
74 34 19
71 33 18
80 37 21
76 37 21
79 40 22
81 41 23
78 37 21
83 40 23
82 41 23
82 42 24
82 41 23
84 41 23
83 40 22
77 39 23
88 44 25
86 42 24
84 42 24
89 44 25
92 46 26
88 48 27
89 45 26
87 44 25
89 44 25
93 48 28
91 47 27
86 42 23
84 43 24
93 47 27
94 49 28
96 51 29
95 50 28
91 47 26
92 47 27
92 47 27
97 50 29
94 47 27
93 48 28
95 49 28
95 49 28
91 48 27
99 51 29
94 50 29
98 51 29
96 49 28
99 49 28
96 51 29
99 53 30
99 53 30
99 50 29
95 46 26
97 52 30
98 50 29
100 53 30
101 53 31
98 50 28
101 54 31
98 52 29
97 52 30
103 52 30
103 55 31
99 53 30
98 52 30
100 51 29
101 53 31
102 52 30
103 55 31
99 52 30
102 53 30
99 54 31
99 51 29
102 53 30
99 52 29
102 53 30
102 55 32
104 56 32
101 54 31
101 52 30
102 54 31
105 55 31
102 56 32
102 54 31
102 54 31
106 55 32
103 54 31
105 56 32
103 55 31
101 54 31
105 56 32
106 56 32
105 57 33
105 57 32
103 56 32
105 56 32
100 53 30
99 53 30
107 57 32
100 53 30
105 57 32
104 55 32
105 57 32
104 57 33
104 56 32
105 57 32
105 57 33
106 57 33
106 56 32
105 56 32
106 56 32
104 55 31
106 57 33
105 57 33
106 57 33
106 166 0
108 165 0
109 171 0
109 171 0
102 165 0
105 169 0
101 166 0
104 168 0
102 167 0
103 168 0
105 171 0
106 173 0
98 160 0
104 170 0
104 169 0
102 168 0
106 171 0
105 171 0
106 170 0
104 170 0
103 168 0
103 168 0
103 168 0
103 167 0
103 167 0
102 166 0
103 168 0
104 171 0
101 164 0
102 168 0
104 169 0
105 169 0
102 165 0
105 170 0
103 168 0
102 166 0
105 170 0
99 162 0
102 165 0
100 163 0
100 164 0
101 165 0
99 162 0
102 166 0
102 167 0
97 159 0
103 167 0
99 162 0
98 161 0
101 164 0
97 160 0
100 164 0
94 158 0
100 164 0
97 157 0
100 165 0
96 157 0
97 160 0
100 164 0
98 160 0
101 166 0
95 159 0
95 156 0
97 159 0
92 152 0
98 160 0
95 156 0
94 156 0
97 159 0
93 153 0
92 154 0
97 160 0
94 157 0
91 153 0
92 152 0
93 151 0
98 159 0
89 149 0
94 152 0
84 142 0
92 152 0
92 153 0
92 153 0
92 150 0
91 149 0
85 143 0
88 147 0
89 148 0
84 142 0
86 146 0
87 147 0
84 142 0
85 145 0
87 145 0
83 143 0
85 143 0
89 148 0
91 148 0
91 151 0
83 140 0
80 137 0
78 137 0
81 137 0
80 135 0
77 130 0
84 141 0
75 128 0
78 132 0
74 126 0
73 126 0
69 121 0
74 128 0
72 122 0
70 118 0
74 126 0
73 126 0
64 113 0
75 129 0
65 111 0
64 109 0
65 114 0
61 108 0
62 109 0
61 107 0
59 101 0
81 137 48
99 166 76
90 158 63
92 159 66
92 158 71
92 157 68
92 156 70
97 164 73
93 160 68
92 157 71
95 160 74
93 156 78
98 162 77
98 166 81
93 157 76
94 158 76
96 160 74
88 150 74
101 165 85
93 155 76
86 147 75
87 147 70
85 144 69
89 151 72
93 155 79
89 151 74
95 158 83
89 151 73
94 156 80
94 157 81
88 147 73
95 157 77
86 143 71
85 144 70
89 149 77
84 142 69
82 138 69
87 147 74
78 134 69
91 151 78
78 135 70
80 135 67
78 134 68
82 136 71
81 135 72
42 83 74
36 71 83
38 75 88
38 73 89
38 75 89
39 77 87
37 76 86
38 74 89
45 82 110
38 77 88
42 77 103
37 74 87
43 83 102
40 79 97
43 81 102
42 80 100
41 79 95
43 83 105
42 80 105
44 83 109
44 79 109
44 83 106
41 80 97
37 74 86
43 83 104
41 78 101
41 77 100
42 79 100
42 81 103
44 81 108
42 81 102
44 81 106
45 84 112
42 80 103
41 80 96
43 80 105
39 76 91
39 76 95
43 83 102
42 80 100
42 79 101
41 78 99
41 78 97
43 78 101
42 77 100
42 78 103
38 75 86
40 77 96
40 75 96
40 72 94
39 74 88
40 75 97
40 72 94
42 78 100
33 67 75
41 76 94
41 75 97
33 65 75
36 67 77
44 79 68
70 107 69
79 121 69
87 130 74
75 112 65
83 124 73
88 135 78
84 131 76
86 128 73
91 139 80
83 126 73
89 134 78
88 136 78
92 142 81
90 136 78
92 137 79
89 134 77
90 132 75
92 141 81
93 128 74
100 149 85
94 135 77
93 136 78
91 135 78
93 139 80
100 141 81
90 133 76
95 134 77
96 139 79
92 128 73
93 129 73
95 133 75
96 131 74
101 136 77
100 137 78
90 127 71
95 130 74
94 139 79
92 134 76
85 118 67
96 124 70
91 126 71
98 133 76
95 122 68
100 140 80
86 89 50
71 33 19
65 29 16
72 34 19
64 30 16
74 35 20
68 33 19
70 32 18
70 31 17
64 31 17
72 36 20
70 33 18
77 37 21
74 33 18
82 39 22
83 40 22
72 33 19
76 37 21
82 41 24
84 40 23
83 40 22
80 38 22
82 40 22
81 43 24
86 43 24
78 39 22
79 38 21
89 42 24
83 41 23
83 42 24
84 41 23
92 46 26
87 43 25
83 42 25
87 43 24
82 40 23
86 45 25
89 46 26
94 49 28
93 47 26
89 45 26
95 49 28
92 48 27
89 44 25
90 46 27
96 49 28
91 47 26
95 49 28
93 47 26
93 47 26
96 49 27
94 49 28
92 47 27
97 50 29
96 50 29
98 51 29
91 48 27
99 52 29
102 53 30
95 50 28
95 50 29
95 49 28
95 50 28
99 53 30
100 51 29
94 48 27
98 51 29
99 52 30
98 50 29
101 53 30
99 52 30
97 51 29
97 50 29
100 50 29
100 53 30
95 49 28
99 51 29
99 54 31
105 54 31
99 52 30
102 53 30
100 53 30
102 53 30
97 49 28
102 53 30
99 52 29
104 54 31
103 55 32
102 53 31
100 53 30
101 52 29
103 54 31
104 55 31
105 54 31
104 54 31
102 54 30
105 55 32
103 53 31
104 55 32
101 54 31
104 54 31
102 53 31
104 55 32
105 55 31
105 55 31
103 55 31
103 54 31
104 56 32
100 54 31
106 57 33
104 56 32
101 53 31
107 59 33
106 58 33
106 55 32
104 56 32
106 57 33
105 56 32
105 57 33
107 58 33
106 56 32
106 58 34
108 58 33
104 55 32
106 57 33
105 57 33
103 164 0
106 165 0
104 164 0
108 169 0
104 167 0
101 165 0
105 171 0
103 168 0
101 166 0
103 170 0
105 169 0
104 169 0
102 167 0
106 172 0
105 171 0
103 168 0
103 170 0
104 169 0
103 168 0
105 171 0
104 169 0
104 170 0
102 167 0
104 168 0
102 167 0
103 168 0
105 172 0
102 167 0
101 165 0
105 171 0
101 164 0
100 161 0
105 169 0
100 165 0
100 164 0
101 165 0
103 167 0
98 162 0
101 165 0
100 165 0
102 166 0
103 167 0
102 168 0
100 163 0
103 168 0
105 170 0
98 161 0
99 162 0
100 163 0
100 164 0
103 169 0
97 161 0
99 162 0
96 159 0
100 163 0
95 157 0
99 163 0
101 164 0
95 159 0
97 160 0
96 158 0
92 156 0
98 160 0
98 161 0
98 162 0
94 155 0
101 163 0
92 152 0
93 153 0
96 158 0
90 150 0
99 162 0
95 153 0
94 155 0
94 155 0
94 157 0
93 154 0
96 158 0
88 148 0
90 150 0
88 146 0
89 151 0
87 143 0
93 154 0
92 152 0
93 154 0
84 144 0
85 142 0
88 146 0
89 149 0
88 146 0
87 146 0
93 155 0
89 148 0
87 146 0
83 141 0
76 131 0
82 138 0
78 134 0
81 139 0
82 139 0
77 132 0
83 139 0
84 142 0
75 128 0
78 134 0
83 141 0
72 123 0
77 132 0
77 129 0
76 131 0
74 128 0
77 128 0
74 124 0
69 120 0
70 120 0
68 121 0
62 107 0
63 107 0
61 107 0
50 92 0
58 104 0
61 106 0
62 107 11
80 138 54
90 156 69
92 158 67
100 168 78
85 150 59
95 161 77
92 158 69
90 152 68
90 154 72
89 152 66
90 153 70
93 160 70
93 156 76
97 161 79
91 154 67
94 156 76
89 148 72
85 146 65
91 156 71
97 163 81
85 144 68
95 160 76
93 155 76
86 146 69
89 151 77
81 141 69
90 154 73
84 140 73
88 148 76
80 135 68
91 152 75
93 153 80
90 150 77
94 153 81
82 138 72
88 146 75
81 135 65
80 135 71
84 141 76
72 125 61
81 137 71
72 125 64
82 136 69
78 133 70
69 120 62
77 129 65
81 137 69
56 99 64
37 74 81
37 72 79
37 72 87
37 74 84
38 74 87
39 75 92
35 74 79
38 76 91
38 77 89
43 80 108
40 77 96
38 75 87
41 81 100
42 82 99
41 81 98
40 77 93
37 75 86
41 79 98
41 78 99
41 78 99
43 83 105
40 78 97
40 79 94
44 84 108
42 82 102
42 80 99
45 84 109
43 81 102
42 80 101
44 83 109
42 81 102
43 81 106
38 75 92
43 83 104
39 76 93
43 79 104
42 79 102
41 79 98
44 81 107
44 83 105
41 78 98
39 74 97
39 76 94
40 76 98
41 76 98
42 78 102
39 76 92
42 79 104
39 74 92
39 70 90
37 71 87
38 68 87
36 70 86
38 68 90
33 65 74
34 64 76
51 83 67
78 122 69
80 120 68
70 114 66
76 117 67
82 127 73
83 120 68
83 123 70
80 124 71
82 125 73
87 131 77
81 122 69
85 131 75
78 116 67
85 125 72
83 124 71
89 138 81
85 123 69
87 128 73
88 131 74
89 130 75
84 123 71
86 125 71
96 139 80
94 136 77
91 127 73
97 140 81
95 144 83
89 133 77
90 131 75
96 139 80
85 122 69
92 131 75
89 128 74
92 125 71
90 129 73
90 127 72
95 132 75
93 122 70
84 110 61
96 129 73
94 129 72
90 122 69
97 131 74
91 128 73
90 119 67
95 129 73
85 100 56
71 37 20
62 29 16
68 32 18
62 28 15
73 33 19
77 35 20
74 36 20
70 30 17
73 35 19
72 32 18
79 38 21
73 36 20
73 36 20
73 36 20
74 36 20
77 38 21
74 36 20
86 42 24
81 38 22
85 42 24
81 41 23
78 39 22
88 45 25
82 42 24
83 39 22
79 41 23
81 39 22
85 42 23
81 40 22
79 37 21
88 45 26
85 41 23
88 46 26
89 44 24
89 44 25
86 42 24
90 47 27
91 46 27
89 45 25
90 44 25
94 46 25
87 43 24
88 44 25
95 50 29
96 48 27
95 48 27
92 45 25
91 47 27
98 50 28
95 49 28
92 46 26
96 49 28
93 46 26
95 48 28
93 47 27
96 51 28
98 51 29
94 48 27
94 47 27
91 46 26
93 47 27
98 50 28
99 52 29
99 49 28
96 49 28
100 52 29
99 53 30
100 50 29
100 53 30
100 54 31
99 51 29
96 51 29
97 50 29
100 51 29
103 55 31
98 51 29
99 52 29
101 53 30
97 49 28
100 53 31
99 51 29
100 52 29
98 52 29
98 50 28
101 53 30
100 51 29
101 52 30
102 54 31
102 55 32
102 54 31
104 55 31
103 53 30
100 53 31
104 54 31
101 51 29
105 55 32
104 54 31
103 56 32
104 56 32
102 54 31
103 55 31
101 54 31
102 54 31
103 55 31
105 56 32
104 55 31
103 54 31
107 58 33
105 57 33
106 55 32
105 56 32
105 54 31
105 55 32
103 52 30
105 56 32
103 56 32
106 56 32
105 56 32
105 55 31
106 58 34
105 57 33
107 56 32
106 56 32
106 56 32
108 167 0
98 161 0
102 160 0
103 165 0
100 163 0
100 161 0
101 165 0
98 161 0
101 164 0
101 166 0
105 170 0
102 167 0
104 170 0
102 167 0
104 169 0
105 172 0
101 167 0
106 171 0
104 170 0
104 168 0
103 167 0
103 168 0
102 167 0
104 169 0
104 168 0
103 168 0
104 169 0
102 166 0
100 164 0
104 169 0
103 167 0
102 167 0
103 168 0
104 169 0
102 166 0
101 166 0
102 168 0
102 167 0
99 162 0
99 163 0
98 162 0
100 164 0
102 164 0
99 162 0
99 162 0
97 159 0
100 164 0
102 165 0
101 164 0
102 166 0
99 163 0
95 159 0
95 159 0
95 157 0
100 161 0
95 156 0
99 161 0
96 158 0
97 158 0
96 158 0
96 159 0
95 158 0
94 154 0
95 158 0
94 154 0
95 157 0
98 161 0
95 157 0
93 153 0
95 157 0
92 155 0
96 157 0
91 149 0
96 158 0
90 151 0
93 153 0
95 158 0
90 152 0
91 151 0
90 149 0
91 152 0
86 145 0
95 155 0
93 155 0
93 151 0
90 150 0
90 147 0
84 141 0
89 147 0
85 140 0
83 142 0
85 144 0
85 143 0
89 147 0
74 130 0
84 140 0
81 138 0
80 136 0
79 135 0
86 143 0
84 142 0
81 137 0
79 132 0
88 148 0
80 136 0
77 130 0
77 132 0
72 124 0
67 119 0
76 130 0
69 119 0
71 122 0
67 118 0
67 119 0
64 111 0
67 115 0
61 108 0
61 108 0
60 107 0
60 107 0
58 103 0
67 113 0
54 96 19
80 139 59
81 144 59
86 151 68
93 159 68
90 152 69
91 153 65
85 145 62
89 152 72
91 154 72
87 149 61
88 149 70
85 146 64
95 160 72
88 151 74
88 150 69
88 148 70
93 157 77
86 147 67
90 152 75
83 141 59
82 142 65
89 150 76
83 142 69
87 146 71
87 146 73
90 151 73
91 152 74
85 145 70
91 153 80
92 154 74
87 148 74
84 141 67
78 133 66
91 151 77
78 136 65
84 141 72
85 143 71
81 138 67
78 133 65
84 140 73
77 130 64
77 130 60
82 137 74
79 132 69
72 125 64
77 129 66
68 117 59
74 125 66
66 115 59
65 113 59
44 83 78
35 72 77
37 74 88
36 68 86
38 72 91
37 75 86
42 79 102
37 73 86
37 75 88
39 76 91
39 76 94
38 76 90
38 76 92
41 80 101
40 76 97
43 81 105
39 77 94
40 78 95
40 79 95
41 79 98
41 79 98
44 82 108
40 80 96
42 79 102
40 77 95
41 77 100
42 81 103
43 80 105
43 81 104
42 81 100
40 76 96
41 77 99
40 79 93
37 72 86
41 78 100
42 80 99
42 78 103
42 78 101
41 76 99
42 80 100
40 76 99
41 75 98
45 81 110
37 73 87
40 76 95
42 77 104
40 74 91
40 73 93
41 77 98
33 67 70
37 70 88
31 60 68
35 64 83
54 91 72
64 96 59
71 107 62
70 106 60
80 119 68
81 119 68
72 108 59
78 120 68
79 122 70
85 131 74
79 125 72
78 119 69
87 127 72
77 110 62
83 122 70
83 122 70
84 125 72
88 132 75
83 116 65
92 134 76
91 135 78
83 122 70
89 137 79
86 125 73
86 123 70
90 125 71
95 141 80
89 125 71
84 121 69
95 142 81
86 121 68
93 127 71
89 127 74
86 123 69
88 121 69
86 114 64
90 128 73
85 117 66
95 125 70
82 105 59
86 125 71
88 117 66
86 119 68
91 127 71
82 108 61
90 123 68
91 120 67
90 111 62
87 117 66
82 112 63
85 101 56
71 52 29
69 31 17
61 28 15
72 35 19
68 31 17
68 29 16
67 31 17
73 37 21
72 34 19
77 38 21
70 33 18
76 39 22
76 35 20
71 36 20
78 40 22
74 34 19
81 41 23
80 41 23
79 38 21
82 41 23
79 37 21
84 40 23
80 39 22
84 42 23
84 40 23
80 41 23
86 42 24
85 42 24
92 47 26
84 42 24
86 42 23
85 43 24
82 40 23
87 44 25
93 46 26
89 43 24
84 43 24
85 42 23
88 43 24
88 44 25
92 44 25
88 44 25
93 47 27
89 46 26
93 47 26
92 47 27
90 44 25
95 47 27
94 48 28
93 45 26
97 50 28
89 46 27
91 44 25
97 48 28
99 50 28
96 49 28
95 46 26
97 49 28
93 47 26
95 47 26
96 50 28
96 51 29
94 48 27
97 51 29
98 52 30
97 49 28
98 50 29
98 51 29
98 48 27
101 51 29
103 52 30
99 50 29
99 51 29
101 51 29
99 52 29
102 54 31
100 52 30
102 52 30
98 51 29
101 52 30
104 54 31
100 52 30
102 53 30
102 54 31
100 52 29
99 52 29
102 52 30
99 52 29
102 53 30
102 53 30
101 53 30
99 51 29
103 54 31
103 54 31
101 53 30
102 53 30
102 54 31
106 56 32
103 54 31
103 54 30
104 56 32
104 55 32
105 56 32
101 52 30
106 56 32
102 54 31
102 55 32
107 57 32
104 56 32
100 53 30
104 57 33
104 57 33
103 55 31
106 56 32
102 55 31
105 55 31
107 58 33
106 57 32
106 58 33
105 54 31
107 56 32
107 59 34
105 56 32
104 163 0
106 168 0
97 157 0
104 168 0
96 157 0
101 164 0
104 168 0
101 167 0
100 164 0
100 164 0
104 169 0
105 170 0
101 164 0
104 169 0
103 167 0
105 169 0
103 169 0
101 164 0
104 170 0
102 164 0
99 164 0
105 170 0
101 166 0
104 169 0
103 167 0
99 163 0
102 165 0
102 167 0
105 171 0
100 165 0
102 167 0
102 166 0
102 166 0
104 169 0
102 167 0
98 163 0
100 164 0
96 160 0
106 170 0
100 164 0
101 166 0
99 162 0
102 167 0
101 166 0
98 162 0
98 162 0
99 162 0
95 158 0
102 165 0
96 158 0
100 162 0
96 160 0
97 159 0
95 158 0
98 159 0
96 158 0
95 155 0
95 157 0
96 158 0
96 159 0
93 156 0
93 155 0
99 162 0
96 160 0
95 157 0
97 160 0
96 159 0
99 161 0
95 155 0
96 158 0
98 158 0
93 154 0
90 151 0
92 154 0
94 156 0
86 144 0
93 153 0
94 156 0
86 141 0
85 142 0
87 147 0
87 146 0
87 145 0
87 145 0
86 146 0
83 143 0
93 151 0
87 149 0
87 148 0
83 139 0
82 139 0
78 130 0
79 136 0
81 137 0
80 138 0
80 137 0
81 136 0
79 135 0
77 130 0
86 144 0
77 134 0
83 140 0
76 130 0
79 135 0
73 127 0
73 123 0
76 133 0
73 128 0
72 121 0
66 117 0
64 111 0
72 121 0
66 117 0
75 128 0
65 116 0
61 107 0
57 99 0
56 99 0
51 92 0
52 96 0
54 100 3
70 123 39
80 144 56
82 146 60
86 149 62
85 147 64
82 145 60
91 158 59
89 155 66
85 149 68
84 144 63
80 140 63
87 149 65
85 148 64
86 146 67
89 151 73
91 150 70
82 140 64
90 154 73
88 149 68
81 140 65
88 147 70
87 150 72
88 147 72
82 141 66
87 148 74
90 149 73
91 154 77
84 144 69
81 140 71
90 152 75
86 144 70
86 146 74
84 142 69
78 134 65
85 141 70
83 140 68
80 135 65
83 139 68
76 132 65
81 138 68
78 132 65
76 131 65
76 131 66
76 128 65
76 130 60
75 128 66
75 126 58
64 113 53
71 121 59
77 128 65
69 118 57
64 113 52
72 121 66
58 100 57
43 82 72
36 71 83
39 76 94
37 73 88
37 73 85
38 75 91
34 70 78
37 73 87
36 73 84
41 79 98
39 77 94
40 77 98
40 76 94
37 74 87
39 76 93
39 76 94
43 82 105
43 77 106
41 79 99
39 75 92
38 75 92
46 83 113
42 78 104
41 77 100
40 77 98
42 77 102
40 76 98
38 75 88
45 83 112
39 75 94
40 77 96
41 79 99
45 83 112
42 77 102
39 76 93
41 78 102
44 79 109
41 76 100
41 75 97
44 80 109
40 75 93
38 73 91
37 73 89
41 74 97
38 73 88
37 73 86
40 74 95
37 67 86
39 70 92
43 77 68
58 94 64
68 94 53
69 104 58
73 114 64
75 115 65
76 116 66
70 105 59
72 107 60
81 121 68
74 111 63
78 110 63
71 106 60
81 125 71
75 108 61
77 115 66
84 123 70
91 137 78
85 132 76
81 119 68
77 113 66
87 128 73
86 123 70
78 116 67
85 125 71
84 125 71
92 136 78
81 116 67
87 125 71
76 115 66
83 123 70
82 120 69
92 133 75
94 133 76
89 129 73
89 129 74
82 113 63
91 132 74
94 126 71
85 114 64
89 123 70
87 120 69
82 114 64
83 117 67
89 116 65
82 108 61
92 124 70
81 105 58
88 120 67
87 106 58
87 115 64
83 106 59
84 106 60
86 112 62
79 81 45
71 29 15
70 31 17
56 23 13
68 33 18
66 30 17
67 30 17
75 36 20
70 30 16
72 32 17
70 32 17
77 38 21
70 33 18
72 35 19
74 36 20
75 37 21
79 37 21
85 42 23
81 41 23
83 39 22
73 35 19
81 39 22
84 42 24
81 40 23
82 39 22
83 41 23
83 41 23
83 38 21
86 43 25
86 43 25
90 44 25
84 41 23
90 45 25
88 43 24
90 45 25
81 40 22
91 45 25
90 45 25
90 43 25
88 43 24
91 46 26
91 45 25
90 47 27
91 45 25
93 45 26
89 46 25
92 47 27
91 47 27
92 47 27
95 44 25
92 48 27
98 50 28
99 47 27
95 48 27
97 50 29
97 48 27
92 46 26
96 48 28
99 49 28
94 45 25
95 46 26
100 51 29
91 46 26
96 48 27
100 50 28
96 49 28
100 52 29
98 49 28
96 47 27
94 46 26
99 50 29
99 50 29
95 49 28
97 51 29
97 50 28
100 53 30
102 54 31
101 52 29
102 54 31
103 53 30
101 55 31
102 53 30
102 54 30
100 51 29
100 52 30
102 54 31
100 52 29
104 55 31
101 50 29
100 52 30
104 55 31
104 55 31
96 50 28
102 55 31
102 53 30
98 50 28
103 56 32
105 56 32
105 55 31
101 53 30
102 54 31
104 53 30
103 55 32
103 55 32
104 56 32
102 53 30
103 55 31
103 55 31
104 55 31
105 56 32
108 58 33
106 55 31
106 56 32
104 55 31
104 55 32
105 56 32
106 57 32
105 56 32
106 57 33
106 57 32
107 58 33
106 58 33
103 164 0
102 158 0
100 155 0
102 161 0
100 162 0
99 163 0
101 164 0
101 163 0
103 166 0
103 167 0
103 166 0
102 166 0
102 166 0
103 168 0
101 165 0
103 167 0
99 164 0
105 170 0
104 168 0
102 168 0
103 167 0
101 164 0
100 164 0
103 167 0
100 165 0
103 168 0
99 162 0
101 167 0
103 167 0
103 168 0
100 166 0
101 165 0
100 164 0
98 162 0
99 164 0
100 165 0
100 165 0
98 162 0
102 168 0
97 161 0
100 162 0
102 166 0
97 159 0
100 164 0
100 163 0
103 164 0
98 159 0
99 163 0
96 160 0
98 162 0
97 161 0
95 158 0
98 162 0
97 161 0
96 160 0
95 157 0
96 160 0
99 160 0
99 164 0
100 161 0
96 159 0
99 161 0
93 153 0
92 155 0
91 151 0
94 156 0
95 156 0
92 151 0
92 153 0
93 155 0
93 154 0
92 153 0
92 154 0
94 155 0
89 149 0
87 145 0
90 149 0
90 152 0
91 154 0
94 154 0
91 154 0
94 155 0
85 142 0
95 155 0
84 143 0
87 145 0
89 148 0
83 142 0
85 144 0
95 156 0
86 146 0
83 142 0
85 143 0
91 152 0
83 139 0
79 135 0
77 132 0
74 132 0
73 125 0
79 133 0
73 128 0
87 143 0
73 129 0
75 128 0
74 128 0
75 128 0
73 125 0
64 114 0
70 122 0
66 114 0
64 111 0
66 113 0
70 121 0
59 108 0
69 118 0
71 121 0
65 114 0
53 97 0
51 93 0
58 104 22
63 122 36
84 150 63
88 151 60
84 147 62
90 151 58
83 144 58
84 146 62
84 145 59
87 150 61
80 142 54
71 131 50
89 151 69
83 145 64
82 144 58
85 146 59
89 152 68
85 145 67
81 140 60
84 144 59
85 146 63
75 130 58
83 141 66
84 143 65
90 154 76
81 139 67
89 150 72
87 147 70
79 132 68
89 148 70
78 136 60
81 139 66
82 139 70
90 151 76
81 137 64
94 154 76
85 143 75
82 137 70
85 140 70
88 145 75
82 139 68
87 146 73
81 138 67
74 124 63
83 138 71
75 126 64
68 118 59
73 124 64
60 106 48
74 122 60
72 120 56
58 104 47
67 114 57
64 109 55
65 110 56
61 104 51
72 119 62
45 83 53
37 74 67
33 67 73
40 76 99
36 73 80
37 74 88
39 76 90
33 70 76
39 76 98
39 77 90
38 75 89
40 78 96
39 76 91
38 73 91
41 77 98
42 78 102
40 77 96
37 71 91
40 76 97
37 74 87
37 73 88
39 76 92
40 78 94
39 78 93
41 79 100
41 77 99
39 73 96
40 77 98
38 74 93
41 79 101
41 78 98
40 76 96
41 78 97
43 80 105
39 74 93
43 76 106
39 75 94
36 72 85
41 78 99
39 76 91
37 69 88
40 73 97
37 72 86
39 75 95
37 69 86
35 68 80
40 69 68
46 76 60
59 95 54
67 101 56
68 107 59
68 104 58
68 103 57
71 108 60
70 102 57
73 104 59
76 118 66
80 118 67
83 127 72
76 114 64
72 109 61
73 103 61
84 126 72
75 113 65
81 122 69
85 133 76
85 129 73
87 127 72
88 133 76
78 110 61
91 134 76
87 127 73
90 134 77
81 117 67
83 119 68
81 118 67
86 123 71
86 121 69
87 119 68
83 120 69
83 114 64
82 118 66
91 133 76
85 115 64
91 129 73
77 106 60
86 121 69
83 115 65
87 114 64
83 112 63
78 101 56
80 104 58
79 98 54
89 121 66
87 119 67
86 112 62
91 123 70
86 116 66
81 101 56
85 109 60
83 105 58
79 94 53
85 112 63
82 85 46
66 49 27
70 30 16
72 33 18
69 29 16
69 29 16
65 30 16
68 32 17
65 29 16
68 32 18
69 29 16
71 33 18
73 35 19
74 36 20
71 34 19
79 37 21
77 34 19
83 39 22
81 39 22
77 38 21
79 37 21
82 39 22
83 40 22
81 39 22
81 40 22
79 37 21
80 36 20
87 43 24
87 44 25
82 40 22
85 40 22
85 41 23
92 47 27
82 41 23
89 43 24
89 45 26
91 45 25
85 41 23
93 47 27
86 42 23
92 45 26
88 44 25
91 43 24
91 46 26
94 46 26
88 46 27
92 46 26
87 42 23
89 44 25
93 47 27
92 42 24
94 47 26
97 51 29
93 48 27
92 47 27
98 50 28
93 44 25
96 49 28
98 49 28
99 50 29
94 48 27
98 51 29
98 48 27
96 48 27
97 48 27
99 51 29
99 52 30
97 50 29
93 46 26
98 52 29
96 49 28
99 51 28
100 51 29
100 50 29
96 48 27
97 50 28
99 53 30
101 52 29
103 52 30
97 50 29
102 53 30
99 49 28
98 50 29
100 52 30
103 53 30
102 54 30
101 53 30
100 51 29
103 54 31
101 53 30
100 52 30
103 52 30
104 56 32
106 56 32
104 53 30
103 53 31
104 52 29
106 55 31
102 52 30
105 56 32
104 54 30
101 53 30
105 54 31
103 54 31
103 54 31
100 51 29
101 52 30
104 54 31
102 54 31
102 53 31
105 54 31
104 55 31
101 53 30
106 56 32
102 54 31
104 57 32
103 54 30
105 56 32
106 56 32
108 57 33
107 55 31
110 167 0
102 157 0
103 162 0
100 158 0
98 158 0
102 164 0
98 161 0
97 159 0
101 164 0
97 159 0
102 166 0
102 168 0
98 160 0
100 166 0
99 160 0
102 165 0
99 162 0
104 168 0
101 164 0
100 165 0
101 166 0
100 164 0
100 164 0
100 163 0
101 165 0
101 165 0
102 167 0
99 164 0
102 167 0
100 165 0
101 165 0
101 166 0
101 164 0
100 163 0
101 165 0
102 168 0
102 166 0
100 165 0
104 169 0
100 165 0
101 165 0
99 162 0
101 164 0
100 164 0
99 161 0
99 163 0
97 161 0
96 157 0
97 161 0
99 162 0
99 161 0
96 159 0
96 158 0
95 155 0
94 157 0
98 163 0
94 157 0
96 160 0
97 158 0
93 154 0
94 156 0
90 150 0
92 154 0
95 157 0
89 148 0
88 149 0
94 156 0
91 154 0
90 151 0
93 155 0
90 150 0
91 151 0
88 148 0
89 151 0
92 154 0
91 152 0
87 146 0
91 152 0
88 146 0
84 147 0
91 148 0
92 151 0
81 140 0
84 144 0
87 149 0
81 139 0
88 147 0
83 138 0
84 142 0
86 142 0
84 142 0
83 140 0
79 135 0
80 137 0
83 142 0
83 139 0
79 135 0
78 136 0
81 138 0
80 136 0
72 128 0
78 134 0
62 115 0
79 136 0
78 136 0
68 121 0
71 122 0
66 117 0
69 120 0
61 110 0
65 110 0
68 120 0
57 103 0
55 98 0
64 112 0
50 93 0
50 88 0
58 102 16
62 111 37
82 144 55
75 140 51
87 149 64
83 149 59
81 144 52
81 145 55
82 141 60
82 144 56
80 142 56
84 146 61
87 149 65
85 148 61
81 138 63
87 151 63
80 140 60
76 134 55
83 144 62
79 139 64
90 153 71
83 144 66
78 137 58
86 144 67
89 151 73
88 149 69
81 136 70
83 142 68
82 142 66
90 153 76
83 141 65
79 133 65
78 134 66
83 139 70
85 144 71
79 134 67
83 139 68
81 139 68
87 143 73
80 136 68
85 143 69
80 134 68
83 141 69
88 145 76
77 129 65
70 122 59
75 126 62
68 119 56
74 125 62
72 123 62
65 113 48
70 119 58
70 119 60
64 111 57
68 117 58
66 114 56
60 104 49
67 113 57
63 108 52
61 105 51
60 103 48
45 78 59
39 75 76
31 64 69
34 68 75
37 74 87
31 65 72
37 72 84
36 70 86
38 76 91
33 68 77
37 74 89
35 71 83
39 77 94
37 73 85
37 71 90
36 73 85
37 76 84
37 70 91
37 74 89
41 78 97
40 75 96
40 77 97
39 74 94
40 74 95
38 73 93
40 77 98
38 73 87
40 78 97
37 72 87
37 72 87
38 75 93
38 70 93
36 69 86
33 69 78
39 75 91
40 75 98
33 68 77
40 75 93
36 67 83
37 67 91
35 69 79
32 59 74
39 71 68
44 73 55
62 97 54
50 77 42
63 86 48
71 107 59
69 102 56
71 106 59
63 97 55
65 100 56
71 109 61
81 115 65
85 124 70
84 125 70
75 110 62
79 118 67
78 116 66
71 106 59
72 105 61
79 118 67
81 117 68
83 124 71
76 108 61
89 130 73
80 120 69
83 123 70
81 118 67
79 117 67
81 116 67
81 114 65
89 132 76
95 140 79
84 119 67
85 113 65
83 120 69
81 113 63
86 127 73
86 123 70
80 117 67
84 119 68
81 115 67
78 108 61
83 110 62
82 116 65
75 96 53
83 114 63
78 105 58
76 99 55
82 101 57
82 110 61
82 109 61
93 118 66
78 96 54
87 108 60
82 105 59
86 106 60
85 106 59
78 103 56
84 113 63
79 105 58
81 98 54
73 67 36
64 30 16
61 26 14
55 24 13
64 26 15
73 35 19
72 36 20
70 33 19
60 23 13
72 34 19
73 34 19
72 33 18
65 31 17
72 34 19
81 39 22
74 36 20
79 36 20
72 30 17
76 38 22
83 40 22
81 38 21
75 37 21
78 37 21
81 38 21
83 39 22
84 39 22
91 44 25
83 41 22
84 41 23
86 40 22
85 43 24
90 44 25
87 45 26
87 46 26
88 43 25
87 44 25
92 46 26
92 45 25
91 46 26
88 43 24
96 47 27
89 43 24
92 46 26
91 45 25
92 45 25
88 43 24
91 44 25
89 41 23
93 45 25
93 47 27
93 46 26
98 49 27
92 46 26
91 47 27
92 47 27
95 46 26
91 45 25
96 47 26
94 47 27
95 47 27
95 48 27
94 47 27
96 49 28
99 49 28
99 50 28
95 49 27
97 50 29
102 54 30
93 45 26
98 48 28
94 48 27
96 48 27
96 47 27
102 53 30
101 54 31
100 51 29
101 50 28
98 49 28
101 51 29
102 52 30
101 54 31
99 50 29
98 49 28
103 54 31
101 52 30
101 51 29
102 53 30
100 48 27
99 51 29
100 50 29
104 54 31
97 50 28
101 53 30
100 53 30
102 53 30
103 54 31
101 50 28
105 53 30
105 55 32
103 54 31
103 55 32
103 51 29
103 54 31
105 54 31
101 54 31
103 53 30
106 56 32
105 54 31
103 54 31
105 54 30
105 55 32
107 57 33
104 55 32
105 56 32
103 55 31
104 56 32
105 54 31
108 58 33
106 57 33
100 151 0
96 153 0
102 156 0
99 159 0
99 159 0
100 162 0
98 159 0
102 165 0
96 155 0
99 162 0
103 167 0
98 161 0
102 165 0
102 165 0
99 162 0
101 165 0
98 161 0
99 161 0
101 166 0
104 167 0
98 161 0
103 168 0
102 167 0
102 166 0
98 163 0
99 164 0
100 166 0
101 165 0
101 165 0
102 166 0
102 166 0
102 168 0
102 167 0
102 167 0
100 163 0
98 161 0
99 164 0
101 167 0
98 163 0
100 164 0
99 163 0
95 158 0
102 164 0
97 161 0
97 161 0
98 161 0
96 159 0
97 161 0
95 157 0
98 162 0
98 161 0
90 150 0
97 160 0
98 160 0
97 158 0
97 161 0
94 157 0
93 156 0
94 155 0
95 158 0
92 154 0
96 156 0
96 160 0
90 152 0
88 148 0
93 153 0
95 157 0
97 157 0
92 153 0
95 157 0
93 153 0
86 145 0
90 150 0
88 149 0
92 152 0
90 149 0
90 152 0
95 154 0
86 147 0
86 144 0
85 144 0
89 149 0
86 144 0
82 142 0
83 141 0
83 138 0
85 144 0
85 146 0
84 142 0
82 139 0
79 137 0
79 133 0
85 143 0
77 134 0
74 127 0
83 139 0
81 138 0
74 127 0
80 134 0
74 127 0
73 127 0
76 130 0
70 125 0
66 117 0
67 118 0
69 121 0
71 121 0
66 117 0
65 114 0
64 113 0
59 106 0
66 114 0
57 103 0
58 101 0
52 95 0
51 96 0
64 115 36
72 131 46
73 136 46
83 145 50
71 132 41
75 137 55
76 135 53
70 132 45
82 145 57
81 141 55
80 142 58
78 135 58
74 132 51
81 140 55
86 146 62
84 146 63
83 144 61
75 134 56
82 142 59
82 141 67
86 145 66
85 146 65
79 137 62
82 141 66
90 151 68
85 147 68
84 143 59
83 141 65
83 143 67
87 145 71
73 128 59
80 135 70
82 140 63
88 147 67
81 134 61
80 135 69
80 136 62
82 138 67
87 147 77
84 142 69
79 134 65
78 131 60
77 131 64
84 142 71
73 126 60
78 132 63
72 122 59
72 125 56
73 124 63
76 129 65
71 120 57
68 115 58
67 113 55
69 117 58
68 116 54
58 103 50
65 110 52
65 110 55
64 110 52
55 96 44
60 102 51
56 98 48
50 87 44
47 85 42
40 73 44
46 82 75
38 73 80
35 69 82
30 65 66
31 66 73
37 70 92
34 69 82
36 73 86
38 73 89
39 73 96
36 72 87
33 68 76
39 76 95
36 73 87
38 72 93
35 68 84
42 78 104
42 80 101
38 73 88
39 76 90
34 67 80
36 71 85
37 71 90
36 70 87
38 73 91
37 72 93
38 74 91
41 77 99
36 70 86
34 68 80
36 69 81
35 68 81
36 67 86
35 70 81
36 70 82
31 66 68
36 70 76
41 64 57
52 74 48
62 95 52
60 90 50
56 88 49
61 94 52
55 88 51
68 99 55
66 98 55
68 100 57
77 111 61
59 93 52
66 101 58
74 112 63
70 106 60
72 104 58
80 120 68
71 109 62
71 103 58
79 115 66
74 113 64
73 114 64
83 119 66
79 119 68
79 120 67
70 106 60
79 122 68
84 112 62
85 126 72
91 133 76
78 115 65
85 121 68
81 118 67
74 104 59
79 113 64
87 127 73
84 122 69
78 110 62
91 130 74
78 114 65
81 121 70
81 106 59
85 115 65
94 129 74
77 109 62
87 118 67
86 111 63
77 99 56
83 118 66
75 105 60
87 119 67
87 118 66
79 103 57
80 109 63
80 104 58
78 104 58
75 84 46
80 98 55
83 114 63
74 91 50
70 92 51
80 101 56
69 75 41
76 95 53
74 87 47
63 50 27
58 22 12
62 28 14
63 27 14
64 27 14
70 34 18
66 28 15
69 33 18
69 32 18
74 34 19
68 31 18
79 35 19
70 35 19
67 31 17
75 35 19
80 38 21
74 34 18
77 37 21
87 43 24
81 37 20
80 39 22
77 36 20
84 41 23
88 44 25
77 36 20
79 37 21
87 42 24
86 43 24
80 36 20
87 41 23
90 45 25
88 43 24
86 39 22
90 42 23
90 44 25
88 42 23
91 44 24
89 43 24
88 43 24
91 46 26
90 43 24
88 43 25
91 44 25
97 49 28
86 42 24
92 45 25
93 46 26
94 46 26
91 44 25
92 46 26
94 46 26
97 49 28
94 47 27
92 48 27
96 50 28
98 49 28
98 50 28
92 45 25
94 46 26
93 46 26
92 45 26
100 50 28
98 50 28
96 48 27
97 47 26
98 48 27
96 47 27
95 48 27
101 51 29
100 51 29
96 49 27
97 52 30
95 48 28
98 51 29
102 51 29
102 51 29
98 47 27
100 50 29
97 49 28
98 49 28
99 51 29
99 50 29
100 51 29
98 50 28
99 49 28
99 50 28
102 50 28
102 54 31
101 51 29
101 52 30
100 53 30
103 53 30
106 56 32
100 50 28
103 55 31
100 51 29
102 55 31
99 50 28
104 55 31
103 54 31
102 54 31
101 50 28
102 52 30
101 52 30
106 56 32
104 54 30
102 53 30
106 56 32
105 55 31
104 55 31
104 54 31
105 55 32
103 54 31
105 56 32
103 54 31
103 53 30
103 54 31
99 155 0
95 153 0
93 152 0
97 157 0
98 156 0
95 155 0
93 152 0
99 159 0
98 159 0
94 152 0
102 165 0
99 160 0
101 163 0
101 165 0
96 160 0
99 163 0
103 166 0
99 161 0
97 160 0
101 165 0
97 160 0
98 160 0
101 167 0
104 168 0
103 167 0
101 166 0
101 165 0
103 167 0
98 162 0
102 167 0
100 164 0
101 166 0
101 166 0
100 164 0
103 165 0
98 163 0
97 161 0
98 162 0
97 161 0
96 162 0
102 165 0
99 161 0
101 165 0
96 160 0
98 161 0
99 163 0
102 166 0
97 161 0
96 160 0
94 158 0
93 154 0
94 155 0
94 154 0
98 160 0
94 156 0
96 159 0
94 154 0
95 157 0
94 156 0
93 155 0
94 155 0
95 156 0
83 142 0
94 155 0
95 157 0
92 152 0
95 155 0
94 156 0
88 145 0
91 152 0
94 156 0
91 152 0
92 151 0
85 145 0
93 156 0
92 152 0
87 147 0
90 150 0
90 151 0
85 145 0
87 144 0
83 142 0
87 146 0
85 143 0
84 142 0
88 149 0
80 139 0
82 139 0
79 136 0
80 139 0
77 136 0
71 123 0
81 142 0
82 139 0
73 125 0
71 123 0
75 127 0
72 125 0
79 134 0
79 136 0
72 125 0
71 126 0
67 123 0
73 127 0
68 119 0
68 119 0
55 98 0
61 112 0
66 115 0
62 111 0
63 111 0
60 102 0
53 96 0
52 93 0
54 100 23
72 127 47
60 121 37
75 132 48
62 125 39
72 132 41
76 135 52
78 143 52
77 134 48
75 129 49
74 132 50
72 129 54
82 143 57
76 135 52
74 131 55
80 139 61
78 139 56
73 127 58
77 135 58
83 142 65
76 132 58
78 135 59
78 131 63
85 145 68
79 137 57
83 142 61
87 144 68
79 136 60
84 143 67
90 150 68
76 134 61
88 147 70
82 141 64
87 146 71
86 145 72
82 139 69
77 129 61
81 137 65
77 131 63
75 128 60
86 143 71
78 133 66
80 137 64
81 136 66
76 131 62
73 127 65
75 130 64
80 134 67
78 131 66
76 128 67
73 124 62
72 123 61
66 114 56
74 123 63
60 108 51
67 115 56
67 115 55
62 110 52
58 101 52
57 98 49
63 108 52
53 95 47
64 109 54
47 82 42
47 82 39
46 86 41
56 94 47
41 75 35
55 91 46
49 86 55
30 61 53
31 64 70
33 66 77
34 68 80
36 71 84
31 67 71
35 70 84
36 71 86
32 68 73
37 73 89
33 69 77
34 67 77
37 72 88
36 69 87
38 74 88
34 68 78
37 74 86
35 70 79
38 72 92
33 67 75
38 74 88
36 70 86
34 68 81
34 66 81
38 72 90
38 72 90
39 74 94
33 65 78
35 67 80
31 60 72
34 64 70
34 63 66
44 71 52
49 76 43
39 62 34
60 92 51
53 77 43
54 81 44
55 79 45
65 98 55
62 99 54
53 82 44
61 94 52
69 104 59
72 107 60
59 83 47
76 115 65
68 101 57
72 109 60
63 91 52
72 110 62
72 113 64
73 104 58
73 111 63
74 102 57
73 107 60
78 114 64
86 131 74
83 127 72
84 125 71
77 117 66
84 131 74
79 116 65
77 108 60
86 127 72
76 111 63
84 122 70
81 114 65
82 115 65
86 123 69
86 123 70
78 114 64
86 125 72
91 127 72
79 112 63
82 113 63
86 121 68
73 102 57
82 118 67
74 101 57
82 114 64
73 97 54
75 97 54
79 108 60
78 103 57
75 106 59
68 85 46
78 97 54
78 100 56
78 98 55
87 114 63
78 100 56
81 104 58
74 97 53
72 84 45
75 93 52
72 88 48
80 99 55
69 90 50
73 88 49
68 68 37
59 43 23
59 22 12
62 28 15
61 28 15
62 26 14
70 30 17
62 26 14
65 30 16
70 33 18
74 33 18
78 34 19
68 30 16
71 32 18
69 35 19
79 37 20
71 31 17
76 36 20
78 36 20
80 38 21
78 36 20
78 39 22
78 38 22
81 38 21
79 39 22
85 40 22
84 41 23
86 43 24
89 42 24
83 41 23
81 36 20
84 39 22
89 40 23
87 41 23
90 44 25
85 42 24
85 41 23
92 46 26
95 45 25
86 39 21
81 40 22
92 44 25
86 42 23
91 46 26
95 44 25
92 44 25
91 45 25
94 47 26
97 47 27
90 43 24
96 49 28
96 49 28
89 45 25
98 47 27
97 49 28
96 47 27
90 44 25
95 46 26
96 49 27
94 46 26
96 46 26
97 47 27
96 48 27
94 47 26
94 46 26
98 51 29
98 47 27
92 43 24
97 48 27
100 51 29
90 43 24
95 49 28
97 48 27
96 49 27
101 50 28
99 51 29
98 50 29
98 52 30
98 50 28
103 53 30
97 47 27
100 50 28
100 51 29
101 54 30
100 47 27
98 52 29
101 54 30
102 54 30
99 52 29
101 52 30
101 51 29
99 52 30
103 53 30
103 54 31
98 50 28
102 53 30
103 54 31
103 52 29
103 52 30
102 52 29
103 53 30
103 52 29
105 55 31
100 52 30
102 53 30
104 53 30
103 54 31
105 55 32
104 56 32
100 53 30
102 54 31
105 53 30
105 56 32
104 54 31
103 56 32
105 56 32
96 149 0
103 156 0
100 159 0
107 164 0
98 157 0
99 161 0
96 157 0
95 155 0
96 157 0
94 157 0
101 165 0
98 160 0
99 161 0
94 157 0
98 158 0
100 163 0
97 160 0
97 160 0
99 162 0
99 162 0
96 159 0
99 162 0
97 160 0
102 164 0
101 164 0
94 157 0
98 162 0
102 167 0
95 160 0
98 162 0
96 160 0
99 163 0
102 167 0
103 168 0
99 163 0
99 163 0
97 160 0
98 163 0
97 161 0
100 165 0
95 159 0
102 166 0
99 164 0
100 165 0
96 159 0
96 160 0
94 158 0
94 157 0
99 163 0
95 157 0
95 156 0
95 156 0
90 152 0
91 154 0
95 157 0
97 159 0
89 150 0
93 155 0
93 155 0
92 154 0
94 156 0
94 155 0
87 146 0
91 154 0
93 155 0
91 151 0
88 148 0
91 154 0
90 152 0
95 156 0
97 160 0
87 146 0
87 146 0
90 150 0
90 151 0
86 146 0
87 146 0
86 148 0
80 138 0
81 139 0
89 151 0
85 145 0
88 147 0
82 139 0
82 139 0
80 135 0
85 142 0
85 145 0
85 147 0
83 143 0
83 141 0
78 134 0
74 129 0
79 136 0
82 139 0
75 127 0
75 130 0
81 136 0
73 129 0
73 127 0
75 127 0
70 123 0
66 120 0
64 115 0
61 109 0
62 109 0
61 110 0
65 111 0
63 112 0
53 99 0
59 108 0
46 91 0
55 104 14
56 108 30
62 117 40
73 131 53
65 121 43
67 125 41
71 131 46
70 129 44
73 135 45
70 129 45
70 129 48
74 133 49
73 130 51
79 138 57
71 127 51
67 126 51
81 139 55
72 131 51
81 145 59
77 135 59
75 130 58
78 139 57
84 142 64
84 144 60
72 129 55
84 142 66
73 130 56
80 138 63
86 145 68
75 131 60
83 141 64
84 142 65
78 134 60
82 137 64
75 130 62
79 136 64
80 136 66
81 136 70
71 122 61
85 142 71
80 137 68
84 140 71
81 138 69
75 130 59
80 136 66
78 129 66
78 132 68
66 114 51
82 138 68
72 124 60
69 120 61
75 126 64
69 122 58
71 119 58
73 125 58
73 122 58
66 113 56
73 123 61
64 113 52
72 121 59
63 112 51
60 105 48
69 118 61
63 106 52
59 106 46
56 99 48
58 99 44
54 92 45
44 80 36
48 88 41
48 84 39
47 81 39
40 72 34
42 73 35
44 77 48
34 65 63
38 71 71
29 62 66
34 69 78
35 67 86
32 63 75
35 69 83
34 65 78
31 65 70
32 66 75
32 66 74
33 65 79
35 66 85
35 68 84
34 68 80
32 65 71
37 71 89
34 70 79
34 65 81
34 67 79
35 65 81
32 63 73
31 62 76
30 59 71
29 56 66
33 59 52
42 68 50
39 59 33
40 66 35
46 73 39
43 67 37
36 56 29
62 99 55
58 90 49
56 89 49
57 85 47
48 76 42
58 91 50
62 92 51
52 81 45
64 96 53
66 104 59
73 95 52
81 122 69
72 105 59
66 95 53
63 92 52
63 92 51
74 113 64
68 104 59
81 120 67
81 118 67
73 113 64
76 114 64
74 114 66
73 110 63
71 105 59
75 108 61
80 114 65
78 117 66
79 120 67
79 117 67
87 125 70
76 107 61
88 121 69
82 125 71
82 117 66
86 122 70
84 120 68
88 120 67
80 110 61
83 117 66
81 116 66
79 110 62
82 114 64
81 111 62
77 102 57
77 111 64
84 110 62
87 124 70
84 109 62
82 105 57
76 102 57
81 105 59
82 112 62
79 101 55
76 101 56
78 104 58
80 111 61
71 97 54
69 84 46
73 96 53
78 92 52
76 99 54
72 91 50
74 89 49
54 69 37
69 82 45
71 87 48
58 61 33
63 38 21
66 31 17
68 31 17
65 29 16
63 27 15
54 24 13
69 28 15
68 31 17
66 31 17
68 31 17
65 26 14
71 31 17
77 37 21
78 34 18
74 34 19
77 36 20
79 38 21
75 34 19
77 37 20
79 38 21
84 39 21
80 39 22
84 42 24
84 40 22
83 37 21
80 37 21
93 44 25
85 43 24
85 42 23
88 42 24
89 45 25
83 40 22
87 43 24
85 39 22
88 42 24
83 40 23
89 43 24
84 37 21
86 41 23
91 44 25
90 42 24
90 44 25
88 44 25
91 46 26
94 45 25
92 45 25
97 48 27
92 46 26
94 47 27
93 44 25
89 43 25
93 47 27
94 46 26
92 45 25
91 46 26
96 48 27
94 47 26
96 46 26
92 43 24
94 47 27
94 47 27
92 44 25
97 48 27
98 49 28
91 44 25
98 50 28
94 47 26
98 48 28
94 48 27
98 50 28
98 50 28
97 50 28
101 51 29
100 50 29
99 48 27
100 50 28
97 50 28
97 49 28
99 50 28
101 51 29
100 49 28
103 55 31
97 48 27
101 53 30
102 53 30
101 50 28
101 51 29
99 50 28
101 52 30
102 53 30
103 54 30
104 53 30
101 53 30
102 51 29
104 54 31
101 53 30
103 54 30
102 53 30
103 53 30
103 54 31
102 52 30
104 53 30
100 51 29
104 55 31
101 51 29
103 54 31
102 52 30
105 54 31
104 54 30
105 57 33
106 55 31
105 57 33
105 57 32
94 148 0
100 153 0
101 154 0
98 156 0
96 153 0
96 155 0
91 149 0
99 160 0
94 154 0
97 157 0
94 155 0
97 158 0
99 160 0
97 159 0
94 154 0
97 159 0
95 156 0
99 163 0
98 161 0
99 163 0
99 160 0
97 160 0
100 163 0
94 156 0
97 158 0
96 158 0
99 162 0
96 159 0
99 163 0
101 165 0
100 164 0
102 166 0
102 165 0
100 162 0
93 156 0
98 162 0
98 164 0
98 162 0
97 162 0
96 161 0
96 158 0
97 160 0
102 166 0
99 160 0
94 156 0
98 161 0
98 161 0
98 161 0
96 158 0
94 157 0
94 155 0
93 156 0
95 158 0
94 156 0
89 149 0
91 152 0
95 158 0
89 150 0
97 159 0
88 150 0
96 160 0
96 160 0
87 147 0
94 156 0
92 155 0
87 147 0
88 150 0
91 152 0
89 147 0
92 154 0
88 148 0
88 148 0
88 147 0
90 152 0
86 147 0
87 147 0
84 143 0
87 147 0
86 145 0
85 145 0
83 146 0
83 142 0
86 146 0
79 139 0
84 142 0
79 136 0
79 138 0
80 139 0
77 132 0
79 134 0
83 141 0
76 132 0
78 136 0
68 121 0
74 129 0
76 130 0
71 124 0
71 122 0
68 122 0
67 118 0
71 121 0
66 115 0
64 114 0
55 104 0
64 113 0
48 93 0
57 104 0
59 106 0
49 92 0
50 89 0
45 86 0
43 91 23
64 120 42
53 109 28
69 129 47
73 132 50
62 119 37
72 129 51
67 124 44
69 129 47
70 125 53
71 128 51
76 135 53
69 127 49
67 120 49
69 126 48
78 141 55
68 124 47
64 119 43
70 124 55
85 145 67
74 130 50
83 141 62
82 139 62
74 127 58
71 127 52
75 130 59
82 141 59
79 136 60
88 148 73
82 140 67
69 120 57
84 142 69
77 131 58
79 135 62
91 150 73
72 128 57
82 139 69
84 145 71
79 133 67
79 136 66
83 140 67
79 133 57
90 150 75
81 135 66
71 123 58
80 137 66
79 134 67
81 137 68
82 137 66
76 128 61
72 122 62
71 122 60
73 123 59
78 130 66
71 119 56
65 112 54
67 116 55
63 109 53
64 110 57
57 99 51
67 113 56
67 115 51
61 105 48
64 111 50
62 105 51
54 95 46
60 101 46
56 98 47
55 96 49
53 92 43
54 92 48
50 89 47
54 91 41
48 84 42
43 76 40
51 87 43
43 75 37
28 55 26
34 58 30
38 64 43
29 57 45
31 62 59
29 58 52
36 66 67
32 63 62
33 64 77
31 65 68
34 66 82
34 63 84
31 62 73
34 67 79
30 56 72
27 60 58
29 57 59
30 56 53
25 52 54
33 59 64
27 51 46
28 46 27
36 59 31
47 76 42
49 74 40
51 80 44
47 74 40
48 72 39
32 55 27
49 77 43
53 84 47
46 66 36
60 95 53
59 92 51
59 86 49
63 98 54
63 95 53
63 91 50
61 90 49
78 115 65
65 99 54
69 110 62
71 107 59
49 75 42
77 117 66
79 126 71
77 112 63
73 107 59
71 104 58
81 122 70
81 120 68
81 116 66
69 101 58
78 110 62
76 101 56
70 107 61
75 113 64
85 128 73
79 113 65
79 115 65
86 117 65
83 123 70
79 114 65
81 114 65
85 124 70
91 131 75
81 119 68
76 105 59
82 121 69
80 117 66
86 121 68
82 119 68
82 117 67
76 110 63
81 118 67
76 112 64
75 106 60
83 121 68
77 109 62
76 102 56
80 105 60
79 106 59
80 109 61
78 101 56
78 103 58
79 106 59
69 78 43
68 83 46
61 71 38
75 97 54
70 90 50
74 88 48
65 73 39
71 88 48
65 73 39
64 80 44
64 77 42
63 75 40
60 53 26
63 77 42
55 47 26
56 23 12
53 18 9
62 25 14
65 25 13
58 26 14
63 25 14
62 26 14
67 28 15
68 31 17
70 32 18
76 33 18
69 32 17
71 32 17
75 35 20
76 36 20
73 33 18
77 36 20
87 42 23
77 36 20
79 34 19
79 37 21
84 39 22
83 40 22
79 37 21
72 32 18
85 40 23
89 44 24
90 43 24
85 39 22
90 44 24
87 43 24
89 44 25
83 38 21
88 43 24
86 43 24
89 42 23
87 41 23
93 45 25
86 43 24
94 45 25
90 42 24
86 42 23
88 43 24
88 43 24
88 44 25
93 44 24
91 45 25
94 45 25
96 48 27
92 43 24
92 47 27
95 48 28
89 44 25
89 42 24
95 46 26
99 48 27
95 47 27
92 47 26
95 46 26
94 46 26
92 46 26
101 53 30
95 46 26
98 49 27
96 46 26
97 48 27
100 50 28
97 48 27
97 48 27
96 47 27
102 51 29
96 47 27
97 49 28
96 49 28
101 49 28
94 47 27
101 51 29
98 50 28
101 51 29
99 48 27
99 48 27
101 50 28
102 51 29
100 51 29
100 51 29
101 52 30
101 53 30
99 51 29
100 53 30
100 49 28
98 50 28
101 52 30
99 50 28
103 53 30
101 51 29
102 52 29
101 51 29
102 52 30
100 50 28
104 54 31
103 53 30
102 51 29
100 51 29
102 53 30
100 51 29
105 55 31
101 53 30
106 56 32
105 56 32
104 55 32
104 56 32
93 148 0
97 153 0
102 155 0
96 153 0
102 154 0
98 152 0
91 147 0
93 151 0
95 155 0
88 145 0
98 158 0
98 158 0
92 150 0
93 155 0
97 158 0
96 158 0
96 157 0
95 157 0
98 160 0
96 158 0
101 164 0
93 156 0
93 153 0
98 160 0
95 154 0
98 160 0
93 156 0
98 163 0
99 162 0
95 157 0
99 161 0
99 165 0
91 154 0
98 160 0
100 164 0
102 168 0
97 161 0
96 160 0
93 158 0
99 162 0
98 162 0
94 156 0
96 160 0
97 159 0
100 164 0
97 159 0
93 156 0
93 157 0
98 163 0
91 153 0
95 159 0
96 156 0
98 161 0
95 158 0
95 157 0
97 161 0
91 153 0
88 149 0
92 153 0
91 154 0
92 154 0
94 159 0
89 149 0
90 151 0
90 153 0
89 151 0
90 153 0
89 151 0
92 152 0
89 151 0
82 141 0
92 152 0
91 152 0
91 153 0
86 146 0
81 139 0
87 147 0
85 146 0
82 143 0
79 139 0
87 146 0
85 144 0
84 142 0
80 137 0
78 137 0
83 141 0
82 141 0
75 133 0
81 139 0
74 130 0
74 129 0
79 135 0
76 132 0
70 123 0
69 117 0
66 118 0
66 118 0
66 114 0
64 112 0
70 120 0
80 134 0
54 101 0
67 115 0
56 101 0
51 94 0
47 87 0
46 86 0
44 84 0
47 86 0
39 85 14
58 116 35
59 112 34
64 120 39
59 116 33
68 126 45
62 116 35
65 121 46
75 135 51
60 114 38
69 126 48
70 126 46
69 126 54
59 112 43
74 135 53
69 122 50
71 129 48
72 127 55
68 124 49
77 135 60
69 127 47
82 142 65
87 150 67
79 134 55
69 126 50
75 133 61
79 138 65
77 131 54
70 122 54
84 143 63
86 147 68
91 153 71
82 139 64
81 138 65
73 127 53
93 152 77
81 140 69
80 137 67
88 147 73
79 135 66
83 141 70
70 125 59
82 139 67
81 137 70
78 134 68
84 140 69
75 128 62
79 132 68
75 128 61
76 129 66
81 135 62
71 123 60
67 117 60
72 124 60
72 122 58
73 126 63
72 123 61
79 130 66
72 122 59
78 130 66
64 109 55
68 115 59
64 110 54
68 114 58
65 109 53
64 108 53
52 91 45
67 114 59
62 110 55
57 99 48
61 102 52
48 84 45
54 95 46
59 100 51
45 82 37
51 88 43
49 84 42
51 88 44
40 73 36
48 85 38
33 59 32
39 67 33
35 65 31
30 55 28
38 67 33
37 63 35
30 51 25
41 69 37
31 56 28
35 58 32
39 66 38
44 73 40
35 60 36
38 61 33
43 70 37
33 55 29
36 57 31
36 60 34
36 62 34
37 67 36
49 80 44
40 66 36
42 73 39
45 73 41
51 78 42
55 87 48
52 80 43
54 85 46
42 66 36
59 89 51
56 86 48
60 92 51
64 101 57
52 77 44
60 96 54
64 101 56
57 85 46
69 106 58
67 100 56
69 107 60
60 94 52
69 108 61
65 96 53
76 110 62
70 103 58
76 117 67
75 110 64
64 99 56
72 108 62
63 94 52
81 123 69
79 116 65
77 110 62
83 124 71
80 121 68
84 126 70
74 108 61
75 111 64
81 120 68
81 124 70
78 112 63
89 130 74
81 111 62
79 116 65
75 107 61
79 113 64
76 112 64
78 103 58
85 121 68
89 125 70
85 117 66
72 103 57
82 122 68
83 107 60
74 107 60
76 98 54
77 108 60
71 99 56
81 102 57
81 116 65
88 120 67
78 103 58
71 91 51
81 101 57
81 108 61
72 88 49
66 86 47
68 89 48
74 101 57
66 80 44
74 95 51
76 95 53
69 91 50
71 88 48
58 68 36
67 85 47
67 75 40
60 68 37
62 68 36
69 82 44
61 51 27
53 51 27
51 20 10
58 23 12
64 27 15
53 25 13
60 26 14
59 27 15
63 28 15
68 28 15
74 31 17
73 33 18
76 36 20
72 30 16
72 31 16
72 31 17
77 37 20
74 35 19
85 39 22
81 38 21
80 35 19
77 35 20
78 34 19
74 36 20
81 38 21
82 38 21
83 39 22
87 40 23
87 41 23
83 37 21
84 38 21
85 41 23
83 40 23
81 37 21
90 40 23
93 46 26
89 43 24
89 43 24
87 40 22
88 41 23
94 47 27
91 44 25
92 44 25
89 39 22
89 44 25
89 40 22
88 42 23
88 42 24
89 44 25
94 47 27
88 41 23
96 50 28
96 46 26
90 44 25
89 44 25
94 47 27
94 48 27
93 43 25
95 46 26
97 50 28
89 42 24
96 48 27
98 49 28
98 48 27
99 51 29
98 47 26
95 46 26
97 48 27
97 49 28
97 49 28
96 49 28
96 48 27
98 49 28
99 50 28
99 48 27
95 46 26
98 48 27
99 48 27
99 49 28
101 50 29
96 47 27
98 49 28
103 53 30
101 53 30
98 50 29
99 51 29
95 49 28
103 52 30
95 49 28
96 50 28
98 47 26
101 52 30
101 51 29
104 52 30
103 53 30
104 52 29
101 52 30
103 52 30
101 52 29
104 54 31
101 50 28
102 54 31
103 53 30
102 52 30
102 54 31
102 52 30
104 53 30
106 57 32
104 54 31
104 54 31
107 56 32
85 129 0
89 144 0
94 144 0
93 146 0
93 143 0
98 149 0
99 154 0
93 147 0
90 147 0
97 158 0
89 146 0
94 153 0
97 157 0
95 156 0
92 150 0
96 156 0
92 151 0
93 152 0
96 158 0
91 153 0
97 160 0
90 149 0
93 153 0
98 161 0
97 161 0
99 162 0
97 159 0
95 158 0
97 160 0
94 155 0
96 159 0
95 157 0
95 159 0
97 157 0
98 162 0
92 155 0
94 158 0
102 165 0
94 157 0
95 159 0
94 157 0
95 159 0
100 164 0
96 159 0
95 158 0
94 157 0
97 159 0
98 160 0
95 157 0
95 156 0
97 159 0
95 158 0
91 155 0
92 154 0
100 164 0
91 152 0
88 148 0
90 151 0
92 154 0
93 154 0
89 152 0
86 149 0
89 149 0
90 152 0
86 147 0
88 148 0
88 149 0
89 149 0
88 148 0
86 144 0
88 147 0
84 146 0
87 147 0
82 141 0
86 146 0
88 147 0
81 139 0
83 143 0
82 142 0
85 144 0
79 139 0
79 138 0
79 138 0
73 129 0
74 132 0
79 136 0
70 126 0
72 129 0
77 135 0
69 123 0
76 134 0
79 132 0
76 130 0
69 124 0
65 118 0
67 116 0
66 119 0
64 112 0
66 117 0
64 117 0
60 110 0
54 100 0
60 108 0
55 101 0
41 78 0
52 93 0
49 91 11
46 91 22
55 109 34
47 99 20
57 108 37
57 109 37
69 128 40
64 118 41
62 118 41
55 108 32
62 118 32
63 118 40
73 132 52
64 123 41
78 137 58
63 118 44
73 130 54
70 132 49
78 135 55
75 133 55
81 144 61
81 138 60
78 137 57
78 137 58
80 136 58
79 138 63
84 141 66
74 130 57
77 132 66
75 131 57
83 145 62
82 138 67
79 135 61
80 139 64
79 133 69
85 143 66
76 132 60
80 137 67
83 141 68
82 138 67
77 133 59
82 140 64
78 134 66
78 133 58
80 140 63
85 144 71
78 131 68
78 130 68
70 123 58
74 127 62
85 141 74
85 141 71
78 132 60
74 127 61
74 125 62
79 133 68
73 122 59
74 124 63
71 121 63
69 119 55
82 136 70
68 119 57
68 116 59
74 125 61
67 113 59
71 121 63
60 103 54
64 111 59
63 107 53
63 110 53
62 106 56
53 92 47
64 109 53
67 112 57
52 92 47
55 95 48
48 88 46
48 83 40
55 91 44
47 84 40
49 85 44
46 78 39
42 77 38
53 86 43
34 70 31
32 65 29
51 86 46
37 65 33
48 81 42
32 58 29
39 69 36
45 76 40
29 52 27
37 63 32
39 66 35
35 60 32
55 89 49
41 70 37
50 83 45
41 69 40
41 67 36
46 76 42
45 73 40
44 70 38
37 61 31
52 83 46
49 75 41
51 83 46
65 99 55
59 87 49
53 79 43
57 81 45
56 88 48
59 93 53
69 109 61
53 80 46
67 106 59
52 80 43
70 103 57
65 104 59
56 91 52
69 100 56
71 112 62
69 99 56
60 85 47
69 98 56
80 117 66
68 104 58
67 101 55
74 111 62
78 113 65
79 117 66
73 106 60
82 117 66
79 123 71
70 103 58
78 114 65
79 119 68
81 122 70
79 117 66
80 116 66
76 109 62
89 131 74
82 122 70
79 111 64
84 123 70
83 121 69
79 116 66
78 110 62
87 128 72
81 115 65
78 118 67
74 105 60
86 124 70
84 124 71
81 114 64
77 112 64
87 115 64
76 109 61
75 102 57
79 110 62
83 116 65
73 95 54
76 102 57
67 84 47
76 105 58
79 105 59
75 101 55
77 112 62
70 90 50
66 83 45
65 78 43
68 86 47
71 94 52
66 84 46
72 96 53
63 83 45
74 91 50
63 76 42
69 85 46
61 71 38
60 75 40
63 82 45
65 74 41
52 53 28
64 73 39
55 57 31
53 22 11
55 24 13
65 28 15
66 29 16
59 25 13
67 29 16
63 26 14
66 29 16
69 32 18
66 28 15
70 31 17
69 30 16
64 27 14
68 28 15
76 36 20
76 34 19
78 36 20
72 30 17
73 31 17
72 33 18
81 38 21
79 34 18
84 42 23
78 33 18
86 40 22
82 39 22
84 41 23
82 36 20
82 39 22
79 40 22
83 38 21
81 36 20
85 39 22
87 40 22
86 40 23
84 38 21
87 42 24
89 44 25
89 42 24
89 42 24
88 40 22
90 44 25
94 46 26
94 45 25
93 45 25
83 40 23
94 43 24
88 40 22
98 47 27
93 44 25
95 46 26
94 44 25
93 44 25
91 45 25
95 46 26
98 48 27
90 42 23
94 44 25
96 48 27
99 48 27
93 44 25
96 46 26
94 45 25
97 48 27
97 49 27
97 48 27
96 47 26
99 49 28
99 51 28
97 48 27
100 52 29
97 49 28
95 46 26
98 50 29
95 47 26
99 50 29
101 52 29
99 52 30
96 45 25
98 49 28
96 46 26
101 50 28
96 47 27
99 49 28
99 51 29
99 51 29
102 53 30
99 50 29
105 54 30
101 51 29
102 51 29
101 51 29
103 53 30
103 51 29
102 53 30
102 52 30
101 53 30
104 52 30
104 53 30
100 52 29
104 53 30
105 55 31
106 57 33
104 54 31
105 56 32
106 54 31
108 56 32
93 146 0
89 136 0
88 140 0
89 142 0
88 138 0
89 143 0
91 145 0
89 143 0
91 148 0
90 147 0
91 149 0
89 147 0
91 150 0
91 150 0
99 163 0
89 149 0
94 154 0
95 155 0
98 159 0
92 150 0
99 162 0
95 157 0
94 152 0
92 151 0
94 152 0
93 153 0
96 157 0
95 157 0
99 162 0
95 159 0
94 157 0
91 153 0
91 152 0
89 150 0
93 155 0
91 154 0
96 158 0
92 153 0
94 157 0
95 157 0
92 154 0
97 161 0
93 154 0
95 156 0
91 153 0
88 149 0
91 153 0
92 156 0
94 157 0
92 154 0
96 159 0
97 160 0
94 158 0
94 157 0
94 155 0
86 148 0
90 151 0
93 156 0
93 155 0
93 154 0
93 155 0
90 152 0
88 149 0
88 149 0
87 147 0
86 147 0
87 148 0
85 147 0
83 142 0
86 146 0
82 141 0
87 147 0
86 145 0
86 144 0
83 141 0
80 140 0
78 135 0
86 145 0
83 140 0
77 136 0
80 135 0
84 143 0
69 123 0
74 128 0
84 142 0
79 134 0
72 126 0
75 131 0
78 131 0
62 113 0
75 132 0
69 121 0
69 123 0
70 121 0
71 123 0
67 118 0
55 104 0
65 119 0
59 107 0
61 109 0
55 105 0
51 96 0
51 92 0
47 89 0
36 78 11
48 96 26
50 105 25
52 106 30
58 110 38
62 114 40
58 113 32
55 111 35
61 114 41
68 123 44
72 132 44
62 121 40
68 123 41
67 122 46
68 126 44
71 126 49
70 127 47
67 124 48
74 134 50
79 136 59
67 124 47
75 133 55
77 135 55
78 137 57
72 126 54
78 136 59
77 133 57
77 134 60
80 138 61
89 148 70
83 139 65
78 135 58
79 135 63
76 131 59
84 142 64
86 144 66
83 140 68
76 130 63
76 131 59
81 138 63
82 137 65
75 132 59
81 140 62
88 145 74
76 131 65
89 147 78
87 146 72
75 130 64
71 121 58
75 130 63
81 136 69
80 134 65
83 138 72
73 126 63
77 133 66
76 127 63
76 128 61
77 131 65
76 129 66
71 122 60
77 130 65
66 113 56
67 114 58
70 120 59
78 129 61
70 118 59
54 98 46
57 100 43
65 111 56
71 122 60
63 107 56
64 110 57
57 100 51
68 114 56
49 93 40
58 100 47
68 112 60
60 103 53
66 109 56
41 75 42
54 94 49
49 86 43
60 100 54
58 98 50
46 83 43
57 97 50
55 93 51
52 86 46
50 85 46
49 81 43
38 69 33
37 67 35
45 77 40
39 68 33
45 76 39
36 62 32
51 86 44
41 70 36
52 83 45
52 85 46
51 84 44
53 85 48
38 62 34
50 80 45
49 82 43
58 92 51
45 72 38
46 70 37
50 79 41
45 75 41
47 78 44
55 89 51
48 78 44
63 101 56
62 101 57
64 98 54
72 109 60
58 95 53
68 101 56
48 80 45
53 85 47
65 99 56
65 101 56
76 115 64
68 102 58
75 115 65
77 114 65
67 103 59
71 107 61
69 103 58
69 102 57
72 105 59
58 91 51
76 115 66
77 120 67
71 112 63
79 116 67
89 137 77
79 118 67
81 120 68
79 118 67
80 122 69
83 119 67
81 116 65
77 113 63
77 113 63
82 120 69
87 132 75
86 121 68
81 118 66
89 129 74
84 130 75
84 120 69
78 119 67
85 124 71
83 115 66
79 117 65
82 118 68
90 129 72
82 114 66
82 120 68
83 120 67
79 107 59
79 107 62
81 105 58
77 105 59
74 101 57
75 109 60
77 101 56
83 111 62
72 93 53
70 95 54
78 106 59
75 106 58
78 97 54
76 98 54
71 91 50
69 89 49
76 84 45
76 97 54
69 88 49
66 74 40
59 71 38
62 75 41
66 76 41
54 56 30
59 70 37
54 65 35
52 56 30
51 54 30
49 46 24
46 29 15
53 22 11
57 23 12
64 27 14
65 26 14
67 27 15
63 27 15
61 25 13
70 28 15
70 33 18
70 30 16
79 37 20
73 33 18
79 34 18
76 36 20
74 32 17
81 34 19
72 32 18
78 37 21
88 41 23
75 33 18
76 33 18
83 37 21
76 35 20
82 39 21
82 39 22
82 38 22
82 36 20
86 41 23
90 41 23
82 37 21
90 43 24
89 42 24
86 40 23
93 44 25
88 41 23
93 45 25
87 41 23
90 43 24
88 40 22
89 43 24
93 47 27
89 42 23
90 43 24
88 39 22
89 43 24
88 42 23
92 44 25
94 45 25
89 42 24
92 45 26
89 43 24
92 43 24
92 43 24
93 48 27
95 46 26
96 47 27
94 45 25
94 46 26
91 44 25
94 46 26
93 46 26
97 46 26
96 48 27
98 50 28
98 49 28
96 45 26
96 49 28
100 50 28
97 50 28
98 48 27
97 49 28
96 48 27
100 51 29
101 52 29
98 46 26
96 49 27
98 48 27
101 50 28
99 48 27
98 49 28
101 50 28
101 49 27
98 50 28
101 50 28
102 51 29
100 51 29
102 52 29
100 51 29
103 52 29
100 49 28
101 54 30
100 52 29
104 51 29
102 51 29
100 51 29
102 52 29
102 53 30
100 51 29
103 52 30
104 53 30
104 54 31
102 53 30
105 55 32
104 55 31
85 129 0
94 136 0
89 138 0
82 133 0
93 144 0
85 138 0
96 149 0
86 138 0
89 143 0
88 139 0
88 143 0
90 147 0
95 155 0
89 147 0
88 146 0
96 155 0
94 154 0
88 146 0
92 152 0
91 151 0
88 147 0
94 153 0
92 153 0
92 152 0
85 141 0
92 152 0
95 156 0
92 151 0
93 153 0
93 154 0
93 155 0
94 155 0
93 154 0
91 152 0
92 155 0
94 156 0
92 155 0
91 154 0
93 154 0
88 148 0
94 155 0
98 160 0
94 156 0
94 156 0
92 156 0
91 154 0
91 153 0
93 155 0
85 147 0
90 153 0
91 151 0
89 151 0
90 153 0
91 151 0
91 152 0
91 151 0
87 147 0
94 155 0
89 150 0
86 147 0
86 145 0
91 152 0
83 139 0
87 147 0
87 147 0
87 144 0
83 141 0
87 146 0
85 145 0
80 135 0
84 144 0
84 142 0
79 136 0
81 140 0
78 136 0
81 140 0
79 135 0
79 135 0
79 137 0
73 129 0
74 128 0
72 130 0
75 130 0
73 130 0
81 138 0
74 129 0
82 140 0
66 117 0
63 116 0
63 115 0
68 119 0
63 114 0
61 110 0
64 115 0
62 116 0
62 107 0
57 106 0
51 95 0
59 107 0
54 98 0
45 86 0
34 70 0
49 94 0
55 99 36
55 108 37
52 102 29
57 111 36
56 110 35
55 104 31
54 108 37
57 112 36
56 112 33
62 121 42
60 113 32
58 116 34
70 126 52
74 133 48
65 118 44
67 123 39
69 127 45
72 129 53
76 132 53
75 130 58
84 146 61
72 129 51
83 143 63
72 131 51
80 136 62
80 137 58
84 145 59
76 130 56
75 129 59
81 139 63
80 138 59
77 135 59
82 141 63
75 128 58
78 136 61
83 143 63
82 139 62
82 141 63
80 136 66
84 139 66
87 144 72
83 141 68
85 140 70
87 146 72
75 132 63
81 138 67
79 133 68
85 142 71
81 135 69
85 141 66
84 144 70
83 140 69
82 139 68
71 122 62
74 124 62
84 140 72
79 133 64
76 127 68
71 122 58
69 119 59
76 128 65
73 123 58
64 112 50
73 125 62
72 122 61
64 111 55
75 128 70
68 116 62
64 110 54
63 110 55
67 116 57
72 120 64
59 103 48
63 107 55
65 111 57
60 106 52
58 101 51
62 105 53
60 103 51
54 95 48
70 115 61
57 100 49
54 93 48
56 94 51
67 112 59
62 104 55
51 89 48
51 86 42
46 79 44
56 94 49
54 95 48
48 80 43
39 72 38
52 83 46
43 79 40
50 86 45
52 86 47
56 92 50
52 86 46
40 67 36
44 75 41
57 95 52
49 83 45
50 83 47
50 86 48
49 81 45
49 81 45
62 98 55
57 94 52
54 86 48
60 96 53
55 87 48
67 107 58
51 83 46
54 92 50
63 99 55
63 98 55
64 95 51
64 96 55
62 96 53
67 105 58
62 92 51
71 110 63
69 110 63
72 108 60
68 102 58
69 106 61
73 112 62
69 105 59
71 112 65
81 123 68
64 97 56
83 128 73
75 113 64
81 123 70
77 112 63
79 112 63
84 122 70
80 117 66
79 114 64
79 119 68
81 119 67
76 112 63
86 128 73
80 115 65
87 132 75
85 128 72
76 110 62
81 116 64
87 130 73
87 126 72
77 115 66
87 130 74
77 114 66
77 114 65
83 115 65
81 115 65
85 119 68
82 113 65
77 111 63
81 118 67
82 110 62
79 112 64
84 111 63
84 111 63
81 112 63
89 121 68
79 105 59
74 96 54
69 97 53
74 104 59
67 90 52
79 96 54
76 101 57
75 92 51
74 98 54
74 105 59
72 96 52
74 89 49
72 82 45
77 94 51
74 89 48
68 87 48
59 71 38
70 83 44
69 86 47
63 71 39
58 72 39
53 59 33
58 72 39
41 45 25
49 51 28
39 36 17
46 45 24
52 31 16
48 21 11
55 24 13
58 24 13
59 24 12
61 22 12
69 30 16
66 25 13
71 30 16
68 31 17
70 31 17
69 29 16
79 36 20
64 26 14
76 32 17
71 32 18
77 35 19
72 35 19
79 36 20
82 37 21
75 33 18
74 33 18
78 37 20
80 36 20
82 37 20
87 40 22
87 40 22
84 39 22
90 44 25
86 40 22
83 40 22
84 36 20
91 43 24
82 37 20
82 37 20
84 40 22
85 38 21
90 44 25
86 40 22
90 44 24
92 48 27
92 45 25
95 48 26
89 41 23
89 41 23
93 47 27
96 46 26
90 41 23
92 45 25
94 47 26
94 45 25
91 44 25
95 48 27
95 47 27
95 46 26
94 45 25
95 47 26
97 46 26
96 46 25
96 48 27
99 49 28
94 46 26
95 48 27
101 48 27
91 43 24
97 47 27
95 44 25
96 48 27
97 47 26
101 49 27
97 46 26
96 49 28
98 48 27
99 47 27
102 51 29
96 47 26
101 51 29
99 45 26
98 48 28
99 50 28
95 47 26
103 52 30
99 50 29
102 51 29
99 51 29
101 48 27
98 48 27
99 51 29
104 52 30
97 49 28
100 50 28
97 50 28
101 54 30
104 54 31
104 55 31
104 55 31
104 52 29
102 52 29
104 53 30
102 51 29
104 55 32
104 52 30
102 52 30
94 151 53
90 133 0
88 132 0
91 142 0
89 140 0
83 134 0
93 147 0
92 140 0
84 136 0
85 137 0
89 143 0
91 147 0
88 146 0
89 145 0
90 146 0
95 155 0
87 144 0
92 150 0
88 145 0
87 144 0
89 147 0
87 144 0
89 147 0
91 151 0
93 154 0
93 152 0
90 149 0
95 157 0
94 158 0
92 153 0
93 152 0
92 154 0
95 155 0
90 150 0
88 146 0
89 148 0
93 154 0
94 154 0
93 152 0
93 153 0
91 152 0
94 158 0
85 143 0
91 150 0
92 156 0
85 145 0
85 143 0
91 150 0
94 156 0
85 145 0
90 149 0
93 154 0
83 141 0
86 147 0
88 147 0
82 139 0
88 146 0
85 148 0
80 139 0
84 143 0
85 146 0
87 146 0
84 144 0
86 142 0
88 150 0
83 142 0
78 137 0
77 132 0
85 144 0
74 132 0
84 145 0
75 130 0
85 143 0
82 140 0
78 135 0
75 133 0
72 128 0
73 130 0
78 133 0
80 134 0
74 129 0
67 119 0
74 126 0
66 116 0
69 120 0
70 126 0
74 127 0
67 120 0
66 117 0
66 114 0
62 114 0
70 121 0
61 109 0
54 102 0
62 109 0
54 95 0
54 100 0
60 101 0
42 79 0
40 81 11
38 83 16
44 92 19
50 96 24
41 92 19
58 115 34
48 102 27
52 102 36
60 117 36
57 110 34
68 127 44
47 102 24
60 114 42
67 125 39
60 117 36
75 135 51
70 128 42
63 120 45
72 128 47
73 131 45
72 125 52
71 128 47
75 130 56
77 139 54
74 132 56
74 132 50
73 129 52
79 137 63
69 124 51
80 138 62
71 128 48
79 137 60
77 133 59
94 157 74
80 138 62
85 147 70
84 142 63
80 137 67
77 130 62
74 127 58
81 136 64
83 141 69
83 140 69
87 145 69
82 138 66
81 138 61
83 140 67
87 145 73
83 142 69
83 141 63
87 145 77
77 130 64
85 143 74
81 136 72
78 130 65
78 130 60
74 130 59
86 143 71
79 133 64
74 127 65
83 138 70
76 131 66
79 132 71
75 128 64
66 114 56
81 135 66
77 126 66
80 133 69
71 119 61
69 117 60
70 121 62
67 115 56
72 120 58
76 128 65
74 127 68
66 111 54
66 112 61
69 119 60
71 120 64
57 102 51
66 113 57
63 107 56
69 115 58
64 107 57
61 105 53
58 100 53
61 103 55
55 98 49
67 113 62
56 96 50
54 95 46
66 109 54
50 86 45
58 99 53
63 104 57
52 88 47
53 90 49
47 85 45
68 111 59
60 99 55
48 82 46
41 69 38
56 90 49
57 95 51
46 77 44
51 84 46
44 76 43
48 83 45
48 83 42
63 102 56
58 94 51
56 89 49
61 94 52
51 86 48
61 102 56
62 100 56
58 93 50
56 89 47
64 97 54
66 107 60
59 93 52
62 100 57
59 92 51
62 95 54
70 104 59
63 102 57
69 105 59
63 94 53
69 97 53
57 88 49
79 119 67
64 97 53
83 126 72
68 104 57
76 112 62
68 104 58
72 107 59
78 117 67
82 120 68
79 120 68
73 113 63
81 120 68
85 132 75
78 113 64
83 124 70
85 125 71
76 111 62
79 115 65
77 115 65
80 118 66
91 131 75
83 121 69
85 124 71
74 112 63
81 121 71
83 120 69
82 116 65
80 118 67
82 121 67
83 120 68
83 121 69
82 119 68
84 118 67
84 121 68
77 110 62
90 130 73
77 113 64
85 119 68
84 115 66
88 128 74
84 121 68
81 99 55
77 108 60
75 100 56
79 105 59
70 94 53
71 93 51
75 91 50
74 91 51
73 94 53
67 87 48
73 86 46
71 90 49
68 92 51
66 73 37
66 72 39
74 88 49
70 81 43
77 102 56
68 80 42
61 73 40
69 89 49
55 61 32
64 68 36
50 53 27
49 52 28
48 54 28
50 53 28
55 65 35
49 39 19
48 53 28
50 22 11
46 18 9
51 20 10
59 24 12
61 25 14
61 19 10
60 27 14
61 22 12
73 32 17
68 31 17
73 31 17
72 31 17
73 31 17
75 33 18
77 36 20
77 35 19
81 39 22
67 28 15
77 33 18
81 37 21
80 37 20
83 36 20
84 39 21
87 42 24
83 38 21
86 42 23
83 38 21
82 35 19
82 36 20
84 38 21
85 39 21
86 39 22
89 44 24
87 41 23
88 39 22
88 39 22
90 43 24
90 43 24
88 41 23
89 44 25
91 42 24
92 44 24
86 41 23
79 35 20
94 44 25
92 44 25
90 43 24
91 42 23
89 43 24
100 49 28
96 47 26
88 43 24
95 45 25
96 46 26
95 44 24
88 42 23
94 46 26
95 45 25
97 46 26
93 44 25
100 48 27
94 45 25
94 46 26
93 43 24
95 47 26
94 47 26
99 48 27
99 49 28
96 47 27
95 45 25
94 46 26
99 49 28
99 47 27
100 50 28
98 46 26
98 50 28
98 48 27
98 51 29
96 46 26
100 50 28
97 47 27
102 52 29
97 48 27
99 48 27
97 49 28
102 52 29
102 53 30
103 52 29
103 53 30
99 51 28
101 51 29
101 52 30
105 56 32
102 50 29
103 52 30
100 50 28
103 51 29
104 53 30
100 53 30
102 97 56
120 194 104
116 184 95
105 164 70
94 142 41
85 131 0
88 138 0
88 136 0
82 133 0
91 145 0
82 133 0
85 140 0
84 136 0
80 135 0
86 138 0
84 137 0
89 148 0
86 141 0
90 147 0
83 139 0
87 143 0
91 149 0
81 134 0
87 146 0
83 138 0
91 149 0
83 140 0
90 151 0
86 146 0
91 151 0
86 146 0
83 141 0
94 154 0
88 147 0
91 150 0
88 146 0
91 151 0
89 148 0
89 151 0
86 146 0
88 147 0
89 148 0
89 150 0
96 158 0
87 146 0
82 141 0
89 150 0
91 152 0
86 146 0
89 149 0
86 145 0
90 151 0
87 148 0
81 138 0
78 138 0
88 148 0
89 149 0
88 147 0
84 144 0
85 145 0
88 148 0
87 150 0
84 145 0
84 142 0
88 146 0
75 131 0
81 140 0
86 144 0
86 146 0
84 142 0
78 137 0
82 140 0
77 133 0
81 139 0
80 137 0
75 133 0
81 138 0
73 131 0
80 134 0
75 131 0
76 132 0
74 127 0
72 129 0
69 122 0
64 113 0
67 121 0
71 123 0
62 113 0
64 114 0
59 107 0
61 112 0
65 115 0
58 104 0
53 97 0
58 105 0
42 85 0
44 82 0
49 91 11
45 84 16
56 106 36
47 99 28
47 95 27
54 107 31
50 105 25
53 105 30
56 111 33
61 120 40
54 108 34
61 118 36
69 124 38
67 123 47
76 133 51
68 126 39
65 122 44
69 125 40
77 136 48
70 128 50
66 122 45
71 131 47
77 136 48
76 136 51
78 137 49
78 134 57
82 143 62
78 134 61
70 126 43
77 138 58
80 137 62
82 142 60
77 134 56
79 137 65
69 125 50
80 137 62
86 146 68
87 146 71
80 136 63
83 143 64
86 146 69
88 149 73
78 136 63
87 145 68
75 130 60
85 144 66
83 138 66
82 139 73
83 141 70
81 137 64
85 143 68
85 143 74
81 136 66
84 143 74
81 138 71
80 136 64
86 143 69
82 140 64
87 145 69
81 137 69
75 129 63
84 140 73
75 128 63
78 129 69
75 129 65
80 134 69
86 143 69
73 124 63
75 125 67
64 115 55
77 131 67
81 135 70
74 126 65
64 109 57
67 114 59
73 122 63
75 126 67
69 117 61
72 120 62
75 122 64
66 114 57
80 133 70
73 124 66
62 108 57
67 115 56
53 93 46
68 113 59
66 111 61
70 118 62
63 107 56
59 101 50
59 100 53
70 116 63
64 107 59
59 99 53
55 93 49
55 91 49
57 97 49
69 109 58
54 92 48
43 80 42
42 73 37
55 91 48
61 101 58
66 106 55
47 77 39
46 80 44
51 85 48
61 97 55
52 91 52
58 95 53
59 96 54
57 91 50
66 108 58
54 89 49
72 114 63
63 102 56
53 81 45
70 110 62
49 80 45
69 106 59
62 95 52
63 103 59
71 115 65
61 95 55
70 115 66
78 117 66
71 108 62
65 102 60
77 121 69
74 114 66
67 107 61
75 115 65
73 113 61
70 109 61
75 115 65
77 116 66
64 98 55
79 123 69
76 114 65
73 103 59
79 118 67
76 116 66
71 104 59
81 120 67
81 122 68
78 113 64
80 121 68
88 127 71
82 115 66
75 109 63
83 122 70
75 110 62
75 107 59
81 117 66
84 120 68
84 121 69
79 119 67
82 118 66
91 135 77
93 139 80
82 117 67
82 124 71
81 117 66
88 127 73
83 121 69
79 110 62
85 123 69
81 117 67
87 118 66
76 105 60
87 126 72
80 111 63
74 101 56
85 123 69
78 105 59
74 91 52
82 114 64
82 115 65
82 111 62
72 92 52
78 95 52
71 97 54
76 92 52
83 112 62
72 93 50
70 94 51
71 95 52
73 92 51
72 91 51
81 110 60
68 86 48
61 69 36
71 83 45
61 77 42
74 87 47
61 73 39
61 70 37
63 72 39
59 71 37
55 67 36
57 73 39
43 49 27
52 59 31
38 40 20
44 50 26
41 33 17
45 27 15
53 20 10
60 22 12
64 27 15
59 23 12
56 22 12
69 30 16
73 35 19
67 28 15
67 30 15
79 36 20
68 28 15
75 32 17
72 30 16
67 28 15
77 33 18
81 37 21
76 33 18
81 37 20
82 39 22
78 37 21
77 33 18
83 38 21
85 41 23
81 39 22
84 40 22
85 39 22
86 37 21
82 37 21
82 37 20
88 43 24
83 37 21
85 41 23
88 43 24
87 35 19
86 40 22
89 40 22
88 41 23
90 42 24
84 37 20
93 45 25
88 41 23
88 43 25
93 45 25
90 40 22
97 47 26
91 43 24
92 41 23
91 41 23
94 46 25
92 42 23
90 42 23
93 44 25
96 46 25
94 44 25
89 41 23
90 43 24
95 45 25
95 47 26
92 45 25
92 43 24
99 49 27
93 45 25
94 45 25
94 44 24
98 50 28
94 47 26
94 47 27
96 50 28
98 48 27
100 49 27
102 52 29
101 51 29
94 45 25
95 46 26
100 51 29
99 48 27
95 47 26
98 48 27
102 52 29
100 47 27
101 51 29
99 49 28
101 50 28
97 47 26
101 52 30
101 55 31
102 51 29
101 51 29
103 50 29
102 53 30
101 53 30
101 52 30
101 87 50
107 131 75
110 158 91
122 188 108
120 194 104
119 193 103
118 192 102
115 188 98
104 166 82
98 158 66
91 143 41
96 141 0
84 126 0
82 132 0
89 138 0
86 136 0
83 134 0
86 142 0
83 137 0
92 148 0
85 139 0
82 138 0
84 140 0
84 138 0
92 151 0
84 139 0
86 143 0
87 144 0
81 137 0
85 139 0
87 142 0
85 140 0
84 143 0
88 145 0
85 146 0
91 152 0
89 147 0
90 150 0
88 149 0
87 143 0
91 152 0
88 149 0
87 147 0
86 144 0
85 143 0
87 146 0
88 147 0
83 140 0
83 139 0
85 145 0
89 150 0
82 139 0
85 143 0
84 142 0
85 146 0
89 150 0
87 146 0
90 151 0
88 147 0
84 146 0
86 144 0
81 141 0
84 143 0
84 143 0
79 137 0
81 137 0
75 132 0
81 137 0
80 135 0
82 138 0
80 137 0
82 141 0
81 137 0
76 134 0
84 141 0
79 134 0
77 132 0
73 126 0
68 123 0
75 127 0
72 130 0
68 120 0
74 131 0
69 120 0
63 115 0
72 122 0
72 129 0
68 120 0
66 119 0
73 126 0
63 115 0
61 106 0
48 91 0
48 89 0
50 96 0
50 94 0
56 98 0
45 87 0
48 92 19
47 96 16
47 97 23
52 107 28
57 109 34
51 103 29
58 113 29
46 94 28
49 100 29
58 105 36
65 125 34
64 123 36
64 118 42
66 123 42
61 119 42
68 126 39
73 128 53
70 127 46
73 131 45
69 126 42
74 133 52
70 129 51
66 123 44
70 127 48
82 143 60
81 141 60
76 132 53
78 138 51
78 138 57
78 132 59
78 135 55
74 133 54
80 140 59
70 127 51
84 145 66
83 141 68
83 142 64
77 136 62
81 141 62
79 136 66
80 138 62
92 153 73
84 139 63
89 151 70
84 140 68
74 128 57
80 142 61
84 141 72
80 139 65
79 137 68
84 142 70
79 135 68
78 133 62
86 143 71
77 132 63
80 134 65
93 154 80
93 155 79
75 128 65
82 139 67
80 133 66
76 128 67
75 126 63
81 138 70
80 133 68
83 137 72
89 146 75
72 123 60
80 132 68
70 123 57
77 131 70
67 116 61
73 124 64
77 130 70
84 141 74
73 124 64
77 130 66
80 133 73
71 119 60
78 130 67
78 131 68
75 127 64
74 125 64
75 122 68
64 111 51
70 120 62
65 109 58
72 122 62
48 88 42
70 116 61
72 119 64
64 106 55
65 110 57
67 113 58
65 106 58
63 108 58
69 114 61
62 104 58
47 83 43
63 107 56
53 92 49
62 103 55
59 98 54
67 109 60
53 93 51
55 93 50
66 109 60
59 96 53
65 108 60
59 96 54
61 101 57
64 105 54
48 84 46
62 105 58
68 110 62
68 109 58
59 96 54
63 101 56
70 112 64
62 98 55
67 110 63
70 109 62
62 102 57
60 92 52
62 101 58
67 108 61
67 109 61
69 109 63
67 108 61
69 110 62
64 104 58
60 98 56
70 113 64
74 111 63
76 116 65
59 95 54
70 105 57
73 116 66
81 123 68
75 112 63
73 114 66
76 113 64
84 125 71
79 121 69
80 123 69
70 113 63
73 110 63
76 110 63
86 129 73
76 113 63
76 120 68
83 121 69
88 129 73
79 115 65
91 139 79
89 129 73
84 125 72
76 108 62
78 109 62
83 128 72
86 127 72
82 112 63
77 106 59
87 129 73
81 120 69
88 124 71
82 118 67
83 124 69
90 133 77
83 118 67
84 119 66
82 117 66
79 105 60
86 122 68
85 126 72
83 115 66
78 109 62
80 111 62
85 116 66
73 95 54
72 88 48
74 101 56
79 111 63
72 94 52
73 95 53
86 116 65
69 87 48
71 94 52
83 113 63
84 107 59
72 101 57
63 74 41
73 94 51
66 79 42
76 102 55
75 95 52
70 93 51
51 52 27
63 79 44
70 78 43
61 66 34
57 70 38
63 74 40
57 69 37
56 66 35
48 47 24
48 51 28
43 45 24
43 40 21
41 41 21
41 40 21
39 25 13
57 32 17
53 21 11
52 18 9
58 23 12
64 27 15
65 24 12
60 23 12
68 30 16
70 29 15
72 33 18
77 37 21
76 33 18
80 34 19
79 34 19
74 34 18
77 34 19
77 34 19
78 33 18
80 36 19
73 29 16
87 40 22
83 37 20
79 36 20
77 36 20
82 35 20
80 35 19
83 36 20
84 40 22
87 41 23
84 38 21
88 40 22
87 40 22
84 42 23
87 39 21
85 37 21
89 42 24
88 39 21
93 43 24
88 41 23
87 42 23
86 38 20
90 41 23
86 40 22
87 39 21
89 40 22
90 41 23
88 39 22
92 45 25
91 43 24
92 45 25
95 45 25
96 45 25
93 45 25
94 44 25
94 45 25
94 47 26
96 47 26
95 42 23
92 43 24
96 44 25
95 47 27
96 45 25
95 46 26
92 44 25
96 44 25
95 46 26
94 44 25
96 47 27
95 43 24
99 48 27
96 44 25
94 43 24
99 48 27
101 48 27
97 47 26
103 52 30
99 50 28
101 52 29
98 46 26
96 48 27
101 49 28
101 52 29
100 49 28
103 52 29
105 53 30
105 54 31
103 54 30
99 71 41
104 121 69
113 161 93
120 186 107
120 185 106
117 181 104
119 181 104
118 192 104
120 194 107
120 194 108
119 193 105
120 194 104
117 191 101
115 188 96
108 177 87
99 158 69
94 147 45
86 134 0
77 129 0
85 135 0
85 135 0
85 135 0
82 134 0
83 132 0
87 142 0
81 133 0
84 140 0
85 139 0
82 135 0
86 142 0
88 148 0
81 133 0
91 150 0
85 141 0
82 139 0
84 139 0
84 142 0
88 147 0
82 139 0
84 140 0
86 145 0
85 146 0
87 145 0
87 148 0
80 135 0
86 143 0
85 142 0
85 141 0
87 145 0
81 137 0
91 151 0
83 141 0
79 137 0
85 143 0
81 137 0
85 143 0
85 143 0
88 148 0
87 148 0
88 149 0
79 132 0
82 139 0
79 135 0
81 139 0
81 138 0
77 136 0
78 133 0
79 134 0
85 143 0
76 132 0
77 134 0
80 137 0
77 135 0
76 131 0
71 127 0
76 131 0
79 132 0
70 125 0
76 131 0
77 135 0
69 123 0
69 123 0
73 127 0
69 123 0
65 116 0
62 115 0
65 115 0
67 122 0
61 111 0
51 98 0
59 107 0
56 107 0
56 101 0
51 94 0
57 102 0
47 88 0
52 96 0
40 85 0
43 85 16
47 94 16
48 101 28
44 90 25
46 102 19
45 102 22
54 105 28
50 102 32
50 106 23
56 106 36
54 105 38
58 114 38
63 118 41
70 127 44
66 124 48
65 127 37
63 119 38
63 119 40
66 121 45
69 125 44
66 124 47
78 137 52
66 124 44
72 131 46
77 132 49
77 136 57
71 130 49
77 134 54
85 144 65
80 138 56
77 133 52
80 139 59
77 136 57
81 137 60
77 136 59
83 138 62
77 133 63
85 147 63
83 141 65
84 143 65
81 138 67
85 144 73
84 145 66
81 140 64
84 140 66
84 142 63
91 152 76
86 143 72
83 141 68
84 140 65
82 141 67
93 154 76
82 139 63
88 146 71
80 136 68
85 146 73
84 140 71
78 133 63
85 143 72
80 135 70
82 138 69
80 136 66
81 135 71
93 155 77
82 139 69
87 145 76
74 127 66
86 142 76
85 143 69
83 142 72
88 145 75
78 131 69
76 128 63
74 125 67
81 137 69
82 139 72
67 115 60
87 142 76
71 122 65
84 139 75
63 111 59
70 120 63
72 121 61
77 126 65
75 126 64
70 117 62
79 131 70
70 118 61
66 110 58
67 114 60
66 111 58
69 117 62
66 112 60
62 104 56
71 120 61
64 110 55
59 104 55
65 108 57
75 124 69
66 112 61
63 106 54
60 101 55
60 102 58
62 103 57
62 100 56
64 100 55
65 105 57
61 102 56
68 112 63
71 118 65
60 103 56
60 100 54
56 93 52
53 87 49
70 115 62
61 98 56
68 112 63
69 110 60
68 109 62
65 109 62
66 109 61
64 104 57
73 118 65
60 95 52
69 108 60
73 115 63
68 111 63
66 102 58
78 122 70
73 108 62
68 107 60
74 118 67
75 116 64
80 125 72
73 117 66
62 94 54
67 105 60
80 127 72
75 118 67
74 115 66
73 113 64
81 128 72
79 120 68
78 119 69
73 116 64
78 115 65
71 107 62
87 134 78
79 121 67
81 123 70
83 128 73
90 139 81
79 119 68
82 123 71
79 118 68
83 123 68
76 112 63
93 138 78
93 138 79
81 127 72
83 125 71
79 115 65
79 108 62
86 132 76
83 125 72
86 126 71
82 117 67
89 127 73
85 127 73
87 120 68
80 107 61
84 123 70
86 117 66
82 120 68
80 117 66
87 117 67
79 113 63
87 123 69
79 106 59
78 109 62
79 113 63
77 104 59
82 108 62
80 115 65
81 108 61
78 109 62
76 102 55
79 110 61
85 116 65
87 118 66
77 107 59
78 104 57
70 94 53
81 104 56
75 95 52
71 86 48
72 95 52
70 87 49
70 94 52
67 78 42
63 75 41
66 83 46
65 80 43
63 77 42
62 64 33
63 78 42
64 76 41
61 76 41
63 74 39
65 67 35
58 66 36
50 51 28
57 64 34
60 70 38
47 44 22
41 47 25
44 53 28
35 26 13
52 21 12
59 26 14
63 25 14
61 26 14
64 26 14
70 31 17
68 29 15
62 26 14
65 29 16
73 30 16
68 29 16
71 28 15
73 30 17
71 30 16
78 34 18
80 34 19
78 33 18
71 28 15
76 33 18
84 36 19
81 35 20
80 34 19
83 38 21
80 35 19
84 39 22
85 39 21
85 37 20
86 41 23
85 39 22
89 40 22
85 38 21
79 34 19
85 37 20
86 40 22
90 41 22
89 45 25
88 43 24
88 40 22
94 45 25
88 39 21
85 39 22
94 44 24
93 43 24
94 46 26
87 40 22
89 37 21
92 45 25
97 48 27
94 42 24
91 41 23
96 44 25
92 43 24
90 42 24
92 44 25
93 45 26
91 42 23
96 46 25
98 47 27
95 46 26
93 42 23
96 48 27
92 45 25
93 45 25
92 45 25
95 46 26
94 45 25
96 49 28
97 46 26
95 46 26
100 49 28
95 44 25
101 50 28
92 42 24
99 51 29
99 47 26
98 48 27
98 49 28
101 48 27
100 51 29
103 52 30
100 52 29
102 90 51
104 121 69
111 161 93
118 173 99
119 184 106
120 186 107
117 174 100
121 178 102
118 180 104
120 186 107
119 193 104
120 193 103
118 192 101
115 188 99
118 192 103
116 190 100
117 191 99
115 189 97
119 193 99
118 191 98
115 187 97
104 167 76
89 143 54
84 135 30
74 123 0
77 125 0
81 128 0
86 137 0
80 129 0
79 131 0
84 141 0
82 137 0
74 123 0
80 133 0
80 133 0
82 135 0
80 133 0
87 141 0
84 142 0
83 140 0
80 135 0
82 137 0
83 140 0
87 144 0
83 139 0
90 151 0
82 138 0
83 141 0
85 143 0
75 129 0
86 144 0
86 144 0
79 136 0
85 142 0
84 142 0
77 136 0
76 130 0
84 144 0
80 137 0
78 134 0
84 145 0
79 137 0
78 134 0
78 135 0
75 132 0
79 139 0
72 126 0
81 137 0
82 139 0
81 136 0
78 134 0
77 131 0
76 131 0
85 143 0
76 131 0
70 125 0
70 127 0
70 126 0
69 123 0
75 130 0
68 120 0
70 122 0
71 126 0
67 119 0
65 115 0
70 118 0
60 115 0
62 112 0
61 113 0
52 99 0
61 109 0
55 99 0
59 108 0
58 107 0
49 96 0
52 94 0
38 75 0
47 91 11
38 80 25
46 96 16
44 92 25
52 101 34
43 95 21
60 117 38
48 104 11
47 104 28
55 108 32
57 114 31
63 118 38
64 122 42
61 119 38
65 125 37
70 131 46
68 128 42
68 128 43
64 121 39
80 139 56
65 124 43
73 130 52
72 131 48
72 129 47
84 146 61
72 128 51
81 141 59
80 139 60
65 122 41
73 132 53
81 141 58
84 145 64
88 146 69
69 127 49
80 137 65
75 131 50
79 134 64
89 149 65
80 138 60
86 146 70
89 150 73
78 137 63
83 141 68
82 141 69
90 151 77
75 128 60
87 144 66
86 145 68
83 142 72
73 126 63
84 142 69
81 137 70
87 146 73
86 144 70
80 136 69
83 140 70
87 147 73
84 144 66
89 150 75
90 150 78
85 142 71
75 128 64
84 142 76
83 140 75
92 153 79
80 135 69
82 139 69
82 137 72
77 133 65
77 135 66
85 143 71
77 130 66
81 137 69
77 128 65
80 135 67
73 123 66
83 142 69
83 137 71
85 142 76
82 138 69
67 117 62
73 122 64
69 118 57
84 137 69
80 132 69
77 129 67
77 128 67
72 123 61
68 114 61
73 124 65
65 116 60
75 124 66
76 125 66
76 127 66
68 115 60
75 125 65
69 115 62
66 113 60
73 122 68
75 127 68
58 100 50
69 117 60
63 110 57
72 116 59
67 112 60
64 111 58
70 118 63
66 110 60
73 118 66
72 119 64
61 104 58
53 91 46
68 112 59
76 123 66
64 107 59
67 109 63
59 98 53
64 105 56
78 128 72
56 94 53
64 106 61
66 109 62
71 114 64
70 116 66
71 116 64
66 108 63
74 120 65
73 119 69
71 111 62
64 103 57
76 117 64
67 105 61
72 115 64
76 117 67
68 108 62
77 122 67
76 119 66
70 109 60
78 118 68
79 120 67
80 124 71
74 119 67
75 119 67
76 115 65
75 117 66
84 124 70
86 134 77
83 126 72
82 120 68
85 129 73
71 110 63
89 131 74
80 124 71
81 122 70
85 126 72
88 134 77
80 125 72
82 125 71
84 125 72
81 119 69
88 132 74
85 130 73
81 126 72
89 129 74
86 129 73
77 108 63
88 130 73
91 132 76
89 133 76
79 123 71
85 126 72
87 131 75
81 116 67
80 118 67
87 123 69
88 125 70
85 125 72
88 127 72
79 114 65
92 134 76
82 115 67
79 111 62
86 122 69
83 119 67
77 104 59
79 102 57
77 112 64
79 113 64
79 103 57
86 115 65
80 110 61
74 100 58
79 98 53
87 118 66
73 95 53
77 100 56
85 104 58
81 104 58
79 110 61
75 99 55
78 95 53
60 69 38
78 102 57
72 84 45
76 94 53
71 92 51
70 83 45
75 92 50
64 68 36
68 85 46
63 72 38
60 70 38
63 69 36
65 74 39
58 68 37
50 58 31
61 76 41
58 69 37
53 66 36
50 50 28
51 52 27
38 41 21
51 61 33
48 50 26
48 50 26
40 20 9
54 29 15
52 19 10
57 21 11
59 23 12
55 19 10
71 31 17
61 25 13
75 33 18
73 31 17
69 28 15
64 25 13
76 33 18
72 30 16
70 28 15
74 30 16
72 33 18
75 33 18
83 37 20
82 34 19
75 31 17
84 41 23
75 30 15
81 34 19
83 39 21
84 37 21
82 37 21
85 38 21
86 40 22
83 35 19
89 42 23
82 38 21
87 39 22
87 40 22
85 40 22
86 37 20
82 37 21
88 39 22
86 39 22
89 42 23
88 43 24
89 40 22
86 41 23
90 42 23
94 48 27
92 44 25
94 46 26
91 42 24
89 43 24
90 41 23
95 46 26
91 39 22
95 47 27
91 42 24
91 41 23
89 40 22
92 44 24
94 42 23
95 45 25
95 47 27
95 47 27
89 41 23
97 46 26
100 48 27
94 43 23
96 43 24
98 46 26
97 48 27
97 47 26
101 50 28
103 51 29
100 48 27
99 49 28
100 51 29
104 82 47
97 100 57
109 150 86
114 164 94
118 169 97
115 172 99
117 168 97
119 180 103
114 170 98
120 184 106
117 181 105
118 179 103
119 182 104
116 174 100
117 191 102
118 192 101
113 188 95
118 192 99
117 190 99
115 189 94
119 193 103
118 191 98
116 189 98
118 190 99
117 189 101
114 189 96
116 190 99
116 190 99
114 185 93
101 163 75
91 148 53
80 128 28
70 117 0
72 118 0
82 138 0
73 124 0
75 122 0
78 129 0
78 132 0
77 128 0
77 130 0
84 140 0
80 133 0
76 131 0
86 144 0
81 136 0
74 131 0
82 137 0
86 142 0
77 133 0
83 141 0
76 130 0
81 137 0
83 141 0
79 135 0
79 136 0
81 138 0
81 138 0
86 142 0
80 136 0
81 138 0
81 135 0
79 138 0
72 128 0
71 126 0
81 140 0
73 128 0
82 136 0
74 127 0
74 129 0
67 121 0
73 123 0
71 126 0
75 131 0
75 130 0
75 130 0
69 123 0
64 114 0
69 121 0
76 130 0
68 120 0
70 122 0
68 121 0
70 120 0
63 113 0
68 120 0
65 115 0
66 120 0
60 110 0
58 109 0
57 103 0
64 118 0
51 99 0
58 109 0
45 91 0
50 97 0
49 93 0
48 92 11
37 84 12
43 89 19
41 90 25
45 94 26
50 99 28
59 110 34
50 104 30
54 108 29
51 109 16
51 107 23
66 123 44
67 127 45
63 117 38
56 110 26
56 112 30
73 133 42
62 119 39
65 121 41
70 129 41
73 132 49
70 130 41
70 126 44
76 134 50
72 129 50
74 131 49
74 133 51
77 133 54
75 134 53
68 124 43
80 141 63
77 137 55
78 140 56
75 136 55
82 140 66
80 139 55
84 142 66
84 145 59
79 138 60
77 136 54
89 150 70
80 139 63
86 148 64
85 143 67
80 137 59
90 151 67
84 141 67
83 143 67
88 148 72
87 148 74
88 148 73
85 143 70
83 143 64
80 137 65
92 154 67
91 154 77
81 140 67
82 142 69
85 145 67
87 149 70
89 150 75
83 141 70
82 138 63
81 138 67
89 147 78
79 135 69
91 152 80
81 136 73
88 147 78
85 143 73
87 146 73
87 145 73
86 143 74
76 129 65
84 142 78
83 138 68
88 144 71
76 129 69
81 136 74
81 135 70
80 135 73
80 134 68
78 130 66
79 130 69
79 132 68
74 126 65
76 129 68
72 124 62
83 138 71
77 132 69
67 115 59
81 136 73
67 113 56
76 127 69
81 133 71
73 123 66
74 121 66
70 120 62
81 134 71
75 124 69
75 124 68
72 121 63
68 114 60
72 121 67
76 126 67
80 127 67
74 123 66
63 107 57
69 116 61
66 111 61
59 100 56
65 106 58
62 104 56
77 126 69
76 126 69
67 112 60
74 117 63
69 114 63
70 115 63
72 117 65
66 107 59
73 120 66
68 112 60
66 110 61
69 115 65
65 106 58
73 118 66
67 103 58
74 120 68
71 110 61
78 121 66
67 107 60
69 106 59
73 118 67
66 105 58
80 123 70
67 103 58
74 117 68
74 116 67
72 112 64
72 112 63
72 111 61
80 122 69
82 128 73
81 125 70
77 119 68
74 114 66
78 122 70
78 121 69
77 119 68
80 128 72
80 128 75
85 131 73
80 124 68
91 144 82
71 113 64
86 129 73
80 117 66
91 133 75
89 125 71
83 120 68
81 125 72
87 124 69
89 135 77
85 133 76
85 127 72
78 117 67
85 124 70
88 130 75
89 136 78
81 123 69
80 118 68
83 122 69
85 125 72
87 126 72
90 134 76
88 130 74
93 139 79
95 135 76
87 127 72
85 123 69
83 120 67
77 106 60
85 123 70
88 132 76
87 128 73
92 135 76
79 117 65
79 114 64
80 112 63
83 116 66
81 115 66
84 113 64
89 121 69
86 115 65
82 113 64
82 114 64
78 101 57
90 122 69
84 116 66
82 109 61
79 99 55
74 94 52
75 92 51
82 105 58
76 90 50
69 93 50
72 91 49
80 109 60
78 92 51
71 93 51
72 86 48
73 85 47
72 94 51
71 84 45
75 86 47
63 75 41
68 81 43
62 75 40
59 67 36
65 74 39
64 84 45
56 61 32
60 74 40
51 52 27
48 57 31
45 51 28
57 64 34
57 73 39
48 61 32
48 42 22
40 47 26
40 28 14
40 34 18
56 32 17
62 27 15
65 28 15
65 28 15
66 24 13
65 26 14
67 27 14
67 27 14
71 29 16
71 31 16
72 29 16
71 29 15
73 33 18
74 30 16
80 34 19
76 32 17
78 36 20
77 34 19
85 40 22
87 37 20
83 38 21
83 39 22
83 38 21
81 33 18
81 35 19
81 32 17
83 35 19
85 37 20
85 39 21
87 37 20
85 38 21
85 38 21
86 41 22
86 43 24
87 40 22
87 41 23
85 39 21
90 42 23
94 45 25
89 40 22
87 41 23
90 41 23
92 45 25
90 42 24
89 39 22
93 43 24
90 42 24
93 43 24
94 42 23
88 41 23
95 44 24
88 41 23
90 41 23
91 41 23
92 44 25
95 47 26
94 44 24
91 43 24
93 44 25
93 40 22
97 46 26
97 46 26
96 45 25
98 46 26
99 49 28
98 72 41
101 104 59
106 133 76
106 148 84
114 170 98
115 172 99
115 172 99
114 168 96
119 178 102
116 174 100
117 174 100
117 182 105
118 173 99
118 177 102
115 176 102
120 179 103
116 176 101
116 173 99
119 193 102
116 190 99
116 190 101
116 189 98
117 191 99
115 188 99
113 187 95
117 191 102
117 190 99
115 187 95
114 187 95
116 190 93
116 189 100
115 188 97
115 188 94
113 185 90
114 187 95
113 186 93
103 173 80
103 170 75
89 149 57
90 148 51
79 133 25
77 124 0
75 124 0
74 124 0
76 128 0
80 132 0
73 124 0
78 130 0
79 134 0
80 132 0
77 134 0
79 131 0
82 135 0
76 128 0
80 134 0
82 138 0
77 131 0
81 136 0
82 137 0
76 128 0
57 102 0
77 132 0
75 129 0
79 133 0
81 135 0
74 129 0
68 119 0
73 128 0
76 132 0
75 129 0
73 129 0
79 130 0
75 129 0
72 124 0
75 131 0
72 125 0
70 122 0
65 116 0
75 127 0
68 119 0
78 133 0
64 117 0
69 125 0
64 114 0
66 115 0
60 110 0
68 118 0
64 118 0
56 103 0
55 102 0
50 95 0
60 108 0
55 102 0
51 98 0
51 92 0
56 105 11
47 92 11
52 100 19
56 103 32
46 100 28
50 101 28
53 101 36
52 109 30
54 105 29
61 111 38
48 97 30
57 110 36
56 113 26
67 124 39
63 116 42
52 110 22
58 114 37
65 122 41
64 120 37
67 126 38
62 115 35
61 120 31
74 136 48
68 129 39
73 130 49
73 134 46
85 143 60
70 132 42
71 132 47
80 140 61
79 138 53
72 128 52
78 134 51
77 134 50
76 136 54
77 135 53
81 143 61
73 134 50
84 142 60
81 140 54
77 137 56
73 130 55
82 141 59
79 138 58
91 154 67
84 145 62
85 147 66
84 145 67
77 133 60
79 137 65
92 155 75
88 148 69
85 144 68
88 150 70
83 143 66
89 151 75
85 142 67
91 151 70
86 144 73
91 152 77
83 141 66
87 148 75
88 146 76
78 134 64
82 141 71
90 150 75
92 154 82
87 149 74
79 135 70
83 141 73
84 144 73
86 145 70
87 147 78
88 146 79
88 147 75
82 137 69
87 146 76
85 143 74
81 138 70
85 142 75
86 144 71
91 151 81
84 141 73
90 147 79
83 140 72
82 136 74
79 135 69
78 131 70
87 145 75
81 136 75
85 141 77
80 136 69
79 133 72
80 135 71
81 135 72
80 135 70
69 119 58
79 132 70
75 126 61
84 136 75
77 129 68
72 124 66
70 122 64
76 123 68
85 139 78
68 114 63
74 123 67
68 118 64
83 136 74
69 118 61
76 127 67
69 113 62
70 120 66
79 129 66
76 127 68
76 123 68
77 126 71
70 116 65
70 115 61
71 119 65
75 127 69
73 119 67
69 112 62
74 121 64
67 113 61
75 126 71
81 132 74
71 113 62
70 115 63
73 115 65
76 124 70
69 111 62
69 114 66
78 126 69
72 119 65
77 126 71
71 114 63
84 129 73
78 125 70
73 115 65
77 115 66
76 119 67
67 107 60
80 130 74
79 132 75
76 114 65
85 135 76
77 121 67
82 126 70
75 119 69
78 120 68
83 133 75
82 129 75
85 135 76
89 139 78
82 128 73
77 116 66
86 137 78
82 129 74
86 132 74
83 127 73
84 129 75
80 124 70
88 139 81
83 124 71
82 125 72
87 131 74
83 128 73
86 132 75
85 128 74
83 123 70
87 126 73
85 128 73
83 127 73
86 129 74
84 127 71
92 135 77
91 136 78
83 125 71
82 124 71
89 126 70
84 124 70
86 130 74
86 128 74
82 121 68
86 127 71
91 129 73
82 113 64
86 123 71
92 135 77
88 129 73
84 118 67
86 124 72
84 123 69
80 114 64
77 110 62
89 128 74
91 129 73
80 112 63
82 112 62
82 111 60
88 118 66
84 112 63
87 120 67
88 124 70
80 108 60
81 116 65
87 112 63
75 95 53
80 99 55
83 111 61
83 113 63
77 101 56
85 107 59
79 105 58
75 91 49
78 101 56
79 97 54
77 96 53
78 88 48
72 99 54
67 89 49
69 81 43
64 74 39
75 94 51
65 77 42
66 80 43
68 74 39
74 87 47
66 79 42
57 58 30
59 67 35
57 57 31
53 59 31
54 63 33
54 60 31
50 50 27
47 43 21
50 52 27
49 47 24
53 61 33
52 62 33
49 54 29
39 26 13
55 36 19
57 30 16
60 23 12
62 23 12
63 24 13
65 26 14
60 26 13
71 30 16
71 31 17
70 30 16
66 24 13
75 32 17
68 29 15
73 28 15
70 31 17
77 34 18
77 33 18
83 36 20
82 33 18
79 33 18
79 36 20
84 36 20
83 36 20
81 35 19
79 35 19
78 31 17
88 40 22
82 39 21
87 39 22
91 41 22
87 38 21
85 38 21
86 37 20
92 42 23
90 41 23
89 41 23
90 43 23
88 40 22
84 36 19
89 42 23
90 39 22
92 39 22
82 35 19
91 42 23
90 41 23
93 42 23
89 41 23
92 41 23
94 44 25
94 45 25
98 47 26
95 44 24
94 45 25
94 44 25
95 45 25
91 41 23
89 51 29
100 90 51
102 130 74
106 140 80
107 145 82
117 167 95
115 158 90
116 169 97
116 171 98
111 159 90
117 171 99
116 172 98
113 169 97
117 168 97
119 177 102
116 167 96
118 175 100
117 176 100
119 178 102
115 171 98
116 173 100
117 175 100
119 178 102
117 190 95
116 190 96
114 188 95
116 190 99
114 188 97
113 186 90
113 186 96
114 187 92
113 186 92
115 188 97
112 186 93
115 187 98
114 188 94
115 188 94
113 188 96
114 189 95
112 186 92
110 184 88
109 182 87
109 182 86
109 181 90
105 178 80
109 183 87
109 180 85
105 174 75
98 164 67
86 146 54
84 140 42
79 136 22
72 123 0
77 130 0
66 119 0
80 131 0
76 129 0
72 125 0
71 123 0
80 136 0
65 112 0
77 130 0
71 123 0
74 128 0
77 133 0
68 120 0
72 124 0
71 123 0
70 122 0
67 117 0
71 125 0
71 121 0
61 106 0
76 132 0
74 126 0
71 123 0
74 128 0
64 112 0
63 114 0
69 118 0
76 128 0
67 119 0
68 122 0
67 117 0
63 113 0
59 108 0
66 116 0
62 112 0
58 108 0
62 112 0
55 102 0
50 94 0
57 102 0
50 91 0
56 102 11
60 108 0
58 111 11
54 111 22
42 90 11
62 118 38
49 99 25
49 107 25
48 101 25
47 100 23
53 110 25
49 106 29
51 107 28
51 108 28
55 112 34
65 121 45
64 119 37
54 105 29
63 122 32
56 115 34
62 121 36
71 130 44
71 133 45
72 134 43
73 135 51
69 130 43
65 125 41
69 128 41
74 132 45
78 139 47
69 127 46
76 137 56
79 140 52
81 142 52
79 141 48
78 138 52
81 141 60
73 134 53
74 133 55
81 140 60
81 140 57
78 139 54
78 134 57
76 135 54
80 140 57
90 151 75
76 135 54
86 151 64
89 150 69
83 143 63
86 147 68
71 125 54
75 130 58
91 153 76
81 139 66
84 142 68
84 143 70
90 150 77
82 142 69
89 151 71
84 141 67
86 145 72
87 146 68
85 142 66
95 156 73
79 134 62
85 142 66
94 154 82
87 146 74
90 148 73
84 142 71
88 147 76
88 147 71
91 151 78
85 145 70
97 161 79
88 147 73
85 144 71
83 138 71
88 146 77
90 150 76
88 149 75
84 140 74
82 139 73
82 139 71
83 141 71
88 145 77
85 142 77
89 149 75
82 137 74
85 142 77
87 143 74
83 139 70
86 143 77
87 142 76
82 136 70
79 134 72
80 133 74
79 134 69
81 136 74
87 142 74
83 138 76
85 140 71
76 129 70
78 126 70
83 138 74
84 137 75
78 129 68
82 138 72
71 121 67
74 125 68
72 122 67
77 132 67
75 127 68
71 121 66
78 131 71
75 123 67
72 122 63
82 135 73
72 118 64
85 137 76
75 126 71
75 122 65
76 124 68
65 112 63
65 104 57
81 131 73
71 120 68
74 121 67
81 131 76
76 121 66
81 130 71
71 117 65
72 117 65
80 129 74
74 123 67
81 131 74
80 129 73
74 119 68
70 118 68
77 120 69
67 112 62
75 116 66
83 128 72
76 123 69
77 125 68
69 114 63
81 130 74
74 118 67
77 125 71
81 125 71
80 124 70
81 129 73
86 133 76
73 115 65
73 117 67
81 123 69
85 134 77
85 132 74
82 126 73
85 125 71
90 140 80
78 123 71
90 139 79
78 124 70
82 123 71
82 121 70
86 131 75
82 118 66
89 134 77
84 130 75
80 123 72
80 120 69
88 136 77
82 120 69
82 122 69
91 136 79
87 135 78
87 137 79
84 128 73
85 127 74
91 131 76
93 138 79
83 124 71
88 128 74
92 135 78
90 122 70
94 134 76
90 134 77
85 126 73
87 135 78
88 130 74
80 118 66
90 128 74
83 118 68
87 123 70
77 109 61
88 122 70
83 120 70
94 136 76
84 119 67
88 131 75
88 124 70
82 123 70
90 122 69
82 107 61
86 122 68
83 120 67
90 128 73
79 107 61
85 109 61
90 125 71
73 101 57
82 112 63
78 97 54
79 110 61
79 103 57
80 107 59
76 99 55
77 102 57
80 107 60
74 100 55
78 107 60
86 112 62
81 103 58
64 73 40
79 105 57
77 95 53
79 96 53
76 104 58
63 71 36
68 75 39
71 90 50
66 82 44
69 85 48
67 78 42
67 79 43
69 89 48
63 64 33
65 61 33
65 68 36
64 67 36
62 73 40
60 65 34
60 69 37
46 56 30
62 79 43
56 62 31
58 64 33
55 53 27
58 62 32
65 74 39
58 64 33
56 47 25
47 22 9
46 20 9
55 30 16
64 42 23
68 28 15
66 27 14
76 30 16
71 27 14
73 31 17
72 29 16
70 30 16
74 31 16
74 30 16
71 26 14
75 32 17
80 33 18
73 34 19
80 32 18
76 32 17
74 31 17
82 35 19
78 34 18
78 34 19
78 34 18
86 39 21
80 36 20
88 42 23
84 37 20
85 40 22
90 41 22
86 36 20
85 39 21
85 36 20
92 43 24
87 40 22
87 40 22
89 38 21
91 42 23
87 36 20
89 40 22
88 39 22
91 44 24
96 45 25
90 39 22
95 44 24
90 46 26
86 48 27
93 86 49
97 101 57
102 121 68
102 133 76
107 145 82
109 160 91
113 160 92
115 163 93
114 168 96
112 159 91
114 161 92
111 166 95
113 161 93
115 167 96
114 165 95
114 166 95
113 169 97
115 166 95
116 171 98
116 172 98
117 173 99
114 165 94
114 166 95
117 173 99
116 172 99
119 180 103
117 180 104
116 164 95
119 193 106
116 189 96
118 191 99
115 189 97
117 191 99
117 190 98
115 188 95
115 188 97
117 190 93
114 187 96
110 182 90
115 187 95
117 191 101
115 189 97
114 188 93
113 185 90
111 183 88
115 187 93
112 185 90
108 183 88
110 182 83
108 180 84
107 180 83
114 187 90
108 179 82
108 179 84
105 177 76
111 184 89
103 175 75
109 180 81
98 165 72
96 161 68
85 147 53
86 148 52
83 138 44
82 139 49
74 126 16
63 111 11
69 119 0
66 114 0
66 113 0
68 118 0
71 122 0
72 124 0
71 123 0
72 121 0
73 127 0
71 122 0
68 117 0
62 112 0
63 113 0
66 116 0
63 113 0
69 123 0
62 111 0
56 101 0
64 114 0
57 102 0
58 109 0
59 106 0
51 96 0
66 117 0
61 109 16
61 108 19
52 95 11
60 115 22
50 99 19
61 115 28
55 108 32
60 120 34
58 114 34
59 112 30
59 121 34
57 116 32
54 110 32
60 117 32
54 112 32
54 112 28
57 115 32
66 121 44
53 113 32
62 121 38
53 107 37
62 122 36
60 119 37
63 118 37
66 122 45
70 128 40
68 126 41
69 126 43
67 124 39
77 137 50
71 132 45
69 127 39
73 135 50
74 132 47
68 123 47
72 132 45
66 124 44
80 140 55
67 128 38
77 136 57
83 145 53
74 133 45
73 130 49
77 136 51
78 138 56
78 138 55
83 144 58
77 137 54
80 143 61
82 142 58
87 146 59
87 147 65
86 145 67
88 150 66
79 136 59
90 152 68
81 142 57
82 140 63
85 143 68
83 145 60
94 155 77
84 143 68
84 140 62
77 136 60
97 159 77
86 146 69
85 145 69
85 144 69
91 150 75
90 153 73
91 151 77
91 154 78
85 146 72
89 150 76
82 141 68
85 144 68
95 157 81
88 150 78
90 150 77
90 146 74
89 148 72
91 152 78
87 148 70
84 141 73
81 139 72
91 151 80
91 151 82
88 147 75
77 132 71
86 144 75
87 146 76
83 141 72
76 130 68
90 149 78
92 153 75
83 139 68
85 141 73
89 147 78
90 148 79
92 150 81
84 140 70
81 135 74
83 139 71
86 144 73
82 137 71
78 133 66
89 148 76
81 134 72
81 133 66
76 128 66
87 142 77
86 144 80
84 141 75
75 127 68
78 130 70
81 136 72
81 135 75
82 135 72
77 126 70
83 138 73
78 130 68
76 128 70
75 127 67
72 119 61
81 135 71
76 127 70
67 115 64
81 133 72
77 128 70
80 131 68
76 123 70
74 123 67
78 129 71
76 128 69
72 119 65
77 125 68
80 132 72
77 124 69
73 120 67
77 123 70
77 127 72
73 120 66
76 121 67
79 124 69
78 127 70
74 120 67
78 128 73
67 108 58
88 141 78
75 122 70
70 117 65
81 131 74
78 119 69
82 130 73
76 124 69
80 123 71
82 130 75
77 124 70
83 128 73
77 122 68
82 124 71
79 132 76
75 122 70
85 133 75
74 117 66
86 131 76
86 138 79
80 126 72
90 135 77
79 118 67
85 130 75
76 117 67
79 124 70
80 129 73
87 134 77
81 121 70
88 135 78
92 142 82
83 131 75
78 117 66
89 135 78
94 148 84
84 119 67
87 132 75
88 135 79
84 127 73
87 131 74
85 129 72
87 133 76
88 136 79
87 129 73
92 138 78
91 134 76
86 133 77
85 120 69
89 134 78
95 146 85
87 134 76
92 141 80
92 135 78
89 127 73
84 124 70
84 129 73
89 126 70
89 131 74
82 118 66
92 129 73
88 134 76
93 132 76
88 123 69
87 123 71
85 125 71
81 114 65
86 126 72
85 122 68
81 108 61
78 109 62
93 125 70
84 116 65
80 106 59
94 134 77
89 110 61
86 120 68
82 113 64
90 121 67
86 114 62
79 106 59
86 118 65
79 103 58
87 118 66
83 105 57
78 95 53
76 98 54
75 103 56
74 99 54
66 76 40
79 95 53
78 98 54
79 102 56
79 102 56
75 92 50
74 83 46
71 92 50
64 77 42
77 92 50
62 65 34
72 89 49
70 80 41
71 88 48
77 86 46
70 98 54
59 69 38
64 72 39
65 71 38
68 79 43
58 63 32
55 63 33
66 66 35
56 60 32
60 75 40
57 61 31
54 59 31
54 62 33
60 72 38
57 66 35
58 65 34
58 66 35
56 59 31
54 49 25
57 46 23
54 42 22
64 54 28
66 43 23
60 46 25
68 35 19
64 31 16
70 29 16
70 29 15
72 29 16
78 36 20
74 32 17
77 35 19
71 30 16
75 34 18
73 28 15
81 33 18
74 33 18
76 35 19
77 33 18
80 33 18
79 34 19
80 35 19
85 39 21
79 33 18
93 42 23
83 38 20
82 35 19
82 37 20
86 39 21
85 39 22
82 50 28
87 52 28
90 73 40
89 85 47
93 93 52
94 103 58
97 109 60
101 136 76
103 132 75
110 157 89
101 138 78
111 146 83
108 151 85
113 158 90
111 163 93
112 160 91
110 148 84
107 151 86
112 161 92
113 160 91
113 158 90
114 165 95
113 164 94
114 164 94
114 169 96
114 164 95
115 162 93
112 158 90
113 167 96
116 170 97
115 167 96
118 177 101
119 171 97
116 177 101
119 178 102
114 168 96
116 176 101
117 176 101
118 191 100
115 188 94
117 191 99
112 185 95
117 189 99
117 189 97
116 189 95
116 190 97
114 188 97
111 184 88
107 180 87
110 183 86
109 182 89
112 185 92
111 183 92
113 187 93
111 183 89
108 182 84
110 182 88
110 180 87
105 178 82
111 183 88
109 180 80
110 182 82
105 178 80
105 177 75
111 185 90
105 178 79
105 178 80
111 183 79
101 172 79
105 178 76
100 173 61
103 175 75
101 170 72
101 172 67
101 173 75
95 165 66
97 169 65
98 169 66
93 160 61
90 157 62
86 151 53
86 150 48
78 140 51
80 140 47
78 142 45
73 132 41
81 142 49
76 132 39
68 128 39
84 144 51
66 125 30
77 138 48
73 131 41
73 135 39
70 131 44
80 144 48
69 127 39
72 137 37
63 130 36
74 139 42
65 128 39
65 128 34
70 135 39
63 124 34
64 130 39
72 134 41
75 135 47
61 120 30
61 121 36
54 116 30
62 120 32
64 123 36
48 108 19
64 125 32
52 105 28
58 119 34
62 117 30
62 124 41
59 122 31
66 127 43
62 121 32
69 128 43
70 133 44
68 130 38
67 128 43
69 129 44
73 133 43
76 138 55
64 124 42
63 121 38
76 136 52
75 137 53
78 136 51
73 134 48
75 137 53
82 145 56
80 144 60
76 138 50
73 133 44
80 143 59
75 138 51
78 139 57
77 136 55
81 140 60
81 142 57
87 148 67
84 150 60
86 148 66
85 146 59
86 147 62
89 150 66
85 149 66
89 152 67
90 151 71
87 149 68
80 136 61
77 138 58
83 142 62
89 150 65
82 142 60
88 150 71
92 152 66
88 150 69
83 143 67
91 151 71
83 145 62
87 147 70
93 155 74
93 154 78
93 158 77
88 151 76
90 148 73
91 152 77
94 156 78
93 154 78
81 140 68
89 150 71
86 148 72
87 147 72
93 154 80
88 148 76
92 152 76
86 144 73
86 145 75
93 155 79
90 152 75
90 150 77
92 153 79
91 150 80
83 140 71
87 146 71
82 138 70
85 141 75
89 149 75
87 145 78
90 147 81
90 148 80
78 135 71
86 141 73
80 135 70
90 150 78
87 144 79
82 136 75
84 139 76
88 145 76
80 135 74
88 147 78
84 140 71
90 149 78
78 132 70
86 146 76
77 129 71
79 131 67
86 142 78
79 134 75
66 115 62
77 132 71
82 136 71
81 132 68
85 140 75
79 133 70
80 134 69
77 129 68
78 132 70
74 124 66
79 133 70
80 131 72
79 132 72
75 126 68
76 124 70
75 123 67
73 122 66
78 130 71
76 126 72
79 134 70
81 134 75
76 128 69
74 123 69
78 132 73
74 119 68
81 129 72
77 126 70
74 122 68
74 118 67
78 124 69
82 131 73
77 125 69
75 116 63
71 120 67
71 114 64
78 126 70
84 134 77
82 128 71
78 128 73
72 114 63
83 131 74
84 131 74
76 121 68
71 109 62
88 134 77
90 145 82
78 123 71
82 130 74
91 142 82
83 133 74
84 136 76
84 129 74
81 126 72
79 119 70
86 124 70
77 118 66
93 142 81
82 128 73
84 135 76
87 137 78
85 130 75
86 128 74
91 142 80
79 123 69
86 129 73
83 130 75
86 132 76
89 140 80
91 144 82
91 135 76
84 129 74
93 140 80
91 144 82
83 128 73
90 143 80
86 129 73
86 130 74
86 131 75
88 135 78
91 140 80
85 122 69
89 132 74
88 128 73
86 123 71
91 138 79
92 138 80
87 127 73
85 123 71
88 128 73
89 130 74
86 125 72
87 124 70
91 134 76
91 126 71
91 130 74
87 119 68
89 127 72
84 123 72
82 118 67
91 131 75
86 123 69
87 126 72
82 113 64
87 121 68
94 129 73
86 121 69
85 121 68
86 118 66
87 119 67
83 105 59
81 113 63
78 95 52
89 126 71
76 99 56
88 121 68
79 101 55
79 101 57
87 112 63
79 98 54
78 90 49
81 107 58
83 111 62
76 104 59
74 85 45
72 76 41
72 80 43
71 90 49
74 91 51
70 92 50
75 91 49
70 84 44
73 87 48
81 101 56
69 82 44
73 93 51
65 77 41
64 78 41
67 85 46
54 48 23
57 58 30
71 81 43
66 75 39
68 82 45
63 71 37
71 82 44
62 74 39
60 64 34
64 74 39
61 69 37
63 67 36
76 94 51
67 77 41
57 56 30
66 78 42
54 52 24
70 81 44
64 77 40
60 69 36
78 100 54
68 75 40
70 87 47
68 77 40
73 80 43
72 80 43
73 74 40
81 86 46
82 90 49
74 78 43
76 76 41
82 79 43
73 81 44
73 75 40
74 64 34
74 57 30
80 89 49
85 86 47
82 85 47
87 94 51
78 87 48
83 88 48
89 95 52
94 111 61
95 120 67
98 117 65
96 128 72
100 129 71
97 123 68
101 134 75
106 150 84
106 147 83
106 144 81
105 136 77
100 127 70
107 138 77
109 148 83
112 144 81
107 146 82
107 149 84
111 151 85
106 145 82
109 155 89
109 155 88
113 158 90
111 156 89
110 151 85
108 154 88
114 164 94
109 152 87
115 168 96
113 156 88
112 155 89
114 169 97
111 161 92
109 162 93
116 173 99
116 166 95
113 164 94
111 168 97
114 164 94
115 169 97
116 167 95
113 165 95
117 171 98
115 189 97
115 189 99
116 191 99
116 189 92
116 189 93
113 187 93
114 188 92
116 188 95
114 188 95
111 184 93
112 184 95
115 188 94
110 182 86
108 181 87
111 185 90
107 180 83
115 187 95
108 181 81
111 183 85
115 188 97
112 185 90
106 179 80
110 184 87
107 176 82
107 178 77
108 181 81
107 180 78
101 173 75
108 180 79
102 173 75
104 177 75
101 173 74
97 170 67
106 178 79
103 174 69
103 177 77
102 174 72
104 177 71
99 169 70
91 161 61
95 167 61
89 161 59
90 157 61
95 163 61
95 165 58
97 167 68
92 165 58
92 164 68
85 153 56
79 149 52
89 157 57
78 149 45
90 158 63
75 142 44
83 149 49
81 147 51
78 144 53
78 145 47
70 134 48
75 141 44
76 137 45
74 137 47
81 147 50
75 135 44
68 128 42
67 128 39
68 130 39
73 137 52
63 124 37
66 128 30
68 128 39
69 132 42
64 124 38
62 125 37
74 136 45
56 116 29
63 122 38
68 131 44
52 112 30
63 122 40
68 129 42
67 131 40
69 129 40
65 128 40
76 140 49
73 136 45
75 135 50
74 135 53
70 132 43
77 138 53
75 137 51
75 136 49
76 139 47
74 133 44
82 143 55
86 149 59
72 131 45
85 153 58
85 152 61
72 133 53
84 143 62
82 142 57
78 143 51
80 141 58
86 146 60
90 153 72
78 139 57
83 144 64
81 142 60
87 150 63
88 151 72
88 152 64
85 144 68
84 144 66
91 154 74
86 146 65
92 154 75
86 148 70
88 150 68
90 151 72
84 143 66
82 142 64
95 159 81
83 146 68
97 161 74
96 160 77
98 163 80
92 154 75
93 155 77
90 150 72
88 148 75
89 149 75
88 149 69
90 150 73
96 157 78
90 152 76
94 156 82
92 151 78
93 155 80
86 145 71
83 141 72
91 152 78
95 154 80
89 150 76
84 143 70
86 145 76
85 143 73
87 146 73
90 150 78
95 157 81
92 151 80
90 148 78
90 151 82
91 152 82
89 147 75
76 128 62
79 137 71
94 155 86
89 149 76
88 147 78
82 141 74
90 150 76
87 143 76
86 143 75
76 132 68
86 142 75
81 136 73
85 140 75
81 135 74
83 138 75
89 148 78
79 134 73
90 147 80
80 134 73
85 142 81
79 132 69
87 142 73
82 134 71
89 148 82
87 143 79
78 131 72
78 131 69
78 129 71
86 138 77
75 126 66
76 128 66
80 133 75
90 148 77
74 125 68
84 140 77
85 141 79
84 137 74
87 141 79
84 137 77
81 134 74
82 132 74
85 137 76
80 130 75
74 126 66
79 130 71
80 132 72
85 137 78
83 136 75
78 129 70
80 133 74
70 111 58
72 117 67
77 128 74
82 133 75
78 124 70
81 130 72
85 134 76
77 122 66
89 141 81
87 137 78
78 125 71
85 132 75
81 128 73
79 127 72
81 126 73
75 120 69
80 131 76
86 133 75
80 126 71
82 129 74
88 137 77
82 130 73
84 132 75
91 145 81
87 137 78
78 126 72
91 137 78
80 122 69
83 133 78
83 133 77
87 136 77
89 136 77
82 130 72
87 129 76
92 138 78
87 136 78
96 151 87
83 121 69
97 147 84
88 134 78
90 135 77
84 120 69
88 137 79
88 134 77
84 129 75
98 149 85
88 130 77
89 140 81
97 142 81
94 143 81
92 142 81
90 136 77
94 146 83
89 124 70
89 134 78
88 132 76
94 137 79
91 142 83
90 131 75
86 131 75
89 129 75
85 124 71
87 123 69
88 135 77
90 132 76
96 138 78
95 138 79
91 124 70
81 117 67
85 123 71
89 129 74
88 128 74
93 135 76
84 115 65
95 135 77
89 120 67
86 115 66
82 115 65
90 125 70
85 112 63
91 120 67
89 119 66
88 122 70
87 110 62
84 114 64
82 106 59
85 116 64
86 116 66
87 112 62
82 98 54
78 102 57
88 115 63
84 115 64
90 123 69
79 101 57
84 99 55
85 104 58
79 95 54
79 95 52
71 83 45
78 98 54
75 88 48
83 107 59
72 85 46
80 100 55
78 84 45
76 89 48
74 93 50
79 92 50
77 92 50
68 83 45
63 75 41
74 89 47
64 82 45
68 80 42
70 73 38
74 88 47
71 81 43
66 78 42
59 69 37
68 78 43
61 70 38
66 74 39
65 72 38
66 71 38
65 78 42
64 79 43
59 63 31
68 81 44
71 78 41
67 74 39
66 70 38
65 76 40
71 84 46
78 94 51
77 89 49
73 73 39
74 85 46
81 100 54
72 75 40
77 92 50
85 106 58
74 89 48
80 93 50
87 107 59
84 97 53
86 102 55
88 105 58
85 100 54
90 111 61
87 110 59
91 106 58
90 106 58
95 123 68
94 120 67
93 115 63
97 121 66
101 129 72
101 130 73
100 130 73
97 119 66
93 117 64
103 137 77
104 135 76
102 138 77
109 146 81
102 137 77
109 153 87
105 141 79
104 141 80
102 134 76
110 152 86
109 157 89
105 140 79
109 152 85
108 155 88
113 162 92
107 148 84
108 145 82
111 163 93
116 165 94
111 158 90
113 160 91
109 156 89
114 163 93
114 165 94
113 162 92
112 158 90
113 167 95
115 170 98
118 171 97
117 171 98
114 172 99
116 171 99
117 174 100
114 187 93
114 186 89
115 189 95
114 188 93
113 187 92
114 186 91
113 186 89
114 188 96
113 187 92
111 184 90
111 183 88
111 181 85
114 187 90
108 180 86
111 184 89
107 180 87
112 185 89
106 178 80
111 184 89
112 184 85
107 179 84
113 185 87
99 170 71
108 180 84
109 181 81
104 175 77
104 177 75
103 176 80
100 173 72
99 172 75
101 172 70
100 171 75
103 175 71
98 171 68
98 168 68
99 168 66
97 167 66
102 174 75
92 164 63
95 166 68
96 166 66
96 168 74
97 167 67
85 154 53
91 162 53
92 160 67
83 154 60
84 153 49
87 156 54
84 153 56
85 154 62
86 155 56
83 151 54
77 142 45
79 145 52
81 149 50
76 142 44
84 150 52
74 138 48
78 143 48
78 148 48
77 142 48
70 133 39
74 136 41
69 131 36
68 135 38
68 138 41
70 128 41
67 131 38
64 126 39
64 125 38
65 123 36
69 128 45
67 129 42
70 135 36
64 126 39
71 135 41
75 137 48
63 126 38
76 135 47
76 137 48
72 132 41
80 141 52
71 133 51
70 132 44
75 143 44
77 139 48
79 143 47
78 138 52
74 135 49
77 139 50
83 149 54
83 141 56
87 151 60
76 140 48
79 138 56
81 144 61
88 150 63
77 139 52
81 145 57
86 146 56
79 142 55
85 148 62
86 149 59
79 139 61
81 141 55
82 140 58
85 146 64
84 145 65
83 144 60
77 138 61
84 147 61
84 142 68
86 147 67
87 151 60
88 149 68
89 152 70
87 151 69
90 149 68
85 146 66
90 155 70
92 157 71
85 143 70
89 150 74
90 151 72
91 150 75
88 149 72
92 154 76
93 157 76
95 158 78
90 152 77
88 150 76
90 151 74
91 151 79
97 163 82
89 149 73
96 158 80
91 154 79
86 146 71
87 144 72
91 149 75
89 148 75
89 148 76
91 148 75
86 146 75
85 144 74
93 155 83
86 146 74
86 145 76
89 147 74
89 150 78
93 155 82
97 160 83
90 150 78
84 139 74
90 148 79
85 142 75
91 151 81
86 142 73
86 144 78
84 140 76
87 144 73
91 152 82
88 146 80
84 141 75
81 137 68
93 153 82
85 139 76
85 142 75
87 142 77
85 143 76
83 140 74
88 145 76
73 127 68
84 141 74
84 137 74
89 147 76
88 144 78
81 136 72
76 128 70
82 135 75
84 140 77
78 133 70
81 136 74
78 129 72
84 138 77
85 136 77
74 126 68
85 138 78
81 136 76
81 130 71
87 142 79
81 130 71
87 141 78
85 139 76
77 128 67
79 132 73
80 133 74
79 129 70
80 136 77
78 128 70
75 122 70
79 132 73
73 121 67
72 120 68
84 135 76
76 129 74
78 124 67
81 131 75
83 133 77
82 134 76
81 128 73
76 123 71
84 133 77
85 135 78
75 122 69
85 133 77
86 139 78
82 128 73
85 134 76
78 122 70
88 137 78
81 128 73
75 122 69
82 129 73
82 127 73
84 135 78
89 143 80
84 134 78
73 119 68
90 141 79
90 135 78
88 141 81
85 134 77
75 120 68
92 145 84
85 130 74
82 126 71
84 130 74
95 147 85
84 127 72
89 137 78
86 133 78
85 129 75
83 132 76
91 143 83
89 138 80
88 140 80
94 144 82
91 139 80
85 127 73
92 136 78
93 144 83
87 127 72
86 133 76
92 137 80
89 130 75
92 133 77
88 135 77
96 145 82
94 143 82
98 147 84
92 138 80
92 140 80
87 128 72
92 141 81
88 128 72
87 129 74
89 126 72
90 130 75
96 141 79
92 128 74
97 134 75
83 120 69
90 124 71
93 133 75
89 129 73
90 127 71
93 134 76
97 141 81
95 137 78
89 122 68
88 127 71
83 113 63
95 134 76
97 130 73
86 116 66
90 127 72
82 108 61
92 126 72
87 109 60
87 116 65
88 123 69
83 112 64
87 117 66
84 110 61
87 117 65
93 129 71
84 108 60
79 103 57
88 109 59
84 105 58
84 109 61
73 94 53
84 102 56
82 101 56
74 89 48
81 104 58
85 111 62
80 97 53
81 105 58
82 98 54
73 81 44
75 87 47
77 97 53
78 94 51
76 96 53
71 79 43
75 92 50
62 65 34
69 79 41
77 80 42
75 94 51
68 77 41
77 94 52
71 80 44
75 96 52
76 88 47
73 87 47
73 81 44
67 75 40
74 88 47
68 73 40
69 81 44
77 87 47
76 92 49
75 88 47
66 77 40
75 93 51
80 94 51
79 95 51
81 101 55
67 74 39
86 110 60
84 101 55
78 94 51
81 99 54
87 113 61
85 105 57
82 102 56
86 100 54
84 94 51
85 102 56
86 101 54
89 110 60
86 108 59
84 101 55
94 123 68
90 112 61
101 135 75
94 126 70
97 121 66
97 124 68
95 118 65
103 134 75
93 114 63
107 150 84
102 123 69
103 140 79
98 127 71
101 127 71
99 128 71
104 141 79
108 150 85
101 132 74
112 153 86
110 149 85
107 154 87
108 149 83
107 139 78
107 144 81
110 151 86
107 153 86
110 146 83
108 150 85
112 161 91
112 158 90
114 162 92
115 161 91
109 153 87
113 161 92
113 164 93
114 159 91
111 163 93
112 165 94
114 160 91
112 165 95
115 169 97
113 161 92
115 170 97
111 185 95
116 189 97
114 187 97
114 188 96
114 188 95
114 186 90
112 185 89
111 184 87
112 183 92
112 185 90
110 183 90
112 184 89
113 185 90
112 185 92
111 184 89
111 184 89
107 180 78
110 180 84
110 181 83
108 181 80
108 180 82
104 177 84
112 185 87
105 177 83
105 177 80
106 179 83
106 178 78
100 172 73
103 175 77
102 174 68
99 171 61
100 170 68
101 172 67
95 167 67
102 170 71
92 162 63
92 163 64
93 165 59
100 171 68
97 170 65
89 156 58
95 166 68
96 165 66
92 160 64
95 166 61
95 168 57
87 158 51
87 155 52
82 150 53
85 154 51
82 151 56
85 152 49
79 144 49
79 146 47
77 144 41
74 143 47
85 148 51
71 135 39
81 148 52
67 132 36
76 142 44
68 130 41
80 144 49
73 139 47
70 137 37
77 141 52
76 141 47
70 134 41
67 129 40
75 138 45
70 130 41
76 136 44
64 127 32
73 137 45
69 136 39
73 135 46
68 133 39
77 139 48
64 125 38
71 136 45
72 139 41
75 138 49
77 141 50
76 136 49
81 145 56
76 136 51
82 148 49
76 140 44
85 147 60
82 143 52
84 148 60
86 151 58
81 148 56
80 144 56
90 155 64
72 128 51
80 139 53
74 134 47
85 145 59
86 148 57
81 143 57
82 141 59
86 148 64
94 160 77
84 147 57
90 154 67
91 155 70
90 150 69
89 152 67
88 149 66
84 147 65
89 156 66
83 141 63
86 149 63
90 151 74
82 142 63
87 149 71
83 144 62
85 148 68
88 149 70
86 148 66
90 153 75
86 145 72
90 150 76
90 150 74
92 152 75
88 153 71
93 153 79
88 150 72
99 164 83
87 146 73
86 143 74
89 148 76
91 153 80
96 160 84
86 145 73
89 150 72
85 144 71
84 142 73
98 162 83
91 151 78
95 156 82
88 147 76
94 156 79
96 159 84
93 153 79
92 151 81
97 159 85
92 153 80
89 147 77
94 155 82
87 145 78
95 155 82
91 151 81
95 157 85
90 152 78
92 153 82
94 154 79
92 151 81
85 144 78
93 150 80
95 158 85
88 145 79
89 145 75
87 144 78
87 144 78
92 150 79
90 149 79
86 143 77
84 142 76
93 151 80
87 144 78
82 138 74
84 138 75
81 138 75
91 149 80
92 150 82
93 151 82
90 149 82
85 141 78
91 148 80
78 131 72
84 141 75
82 134 73
82 137 73
78 129 70
84 141 72
79 132 71
86 143 77
80 135 75
87 143 79
83 137 75
79 131 70
85 138 76
78 125 69
85 139 79
87 139 79
88 142 80
88 142 80
86 140 77
88 141 81
73 123 70
88 143 80
85 135 75
80 132 76
75 125 70
77 125 67
83 132 75
83 136 76
86 139 78
83 132 75
79 131 76
83 136 77
92 143 81
87 138 73
82 132 75
81 129 72
83 131 76
82 130 74
85 138 78
87 134 77
87 140 79
84 138 78
85 137 77
81 129 75
82 127 72
87 137 79
79 125 70
86 137 79
92 146 80
88 141 81
88 138 79
84 129 72
83 130 74
88 136 77
81 129 73
91 139 81
87 132 76
84 125 74
87 137 79
88 136 77
86 133 75
98 148 84
88 130 75
99 152 87
90 138 79
94 142 81
89 137 79
87 134 77
96 146 84
85 131 77
92 140 80
96 147 84
88 135 79
92 138 78
92 141 81
93 141 80
99 149 85
95 142 81
95 143 83
83 128 74
88 130 75
92 139 80
96 141 80
90 133 76
92 138 80
92 136 77
91 133 78
98 141 80
92 136 78
92 132 75
93 136 78
93 138 79
93 132 75
94 135 77
92 130 75
89 130 74
87 129 74
89 131 75
89 118 68
82 115 66
91 131 75
88 126 71
84 112 64
87 124 71
76 104 61
90 121 67
89 125 71
87 125 72
95 126 72
86 118 66
88 113 64
79 111 62
85 113 63
84 108 60
80 97 55
91 122 68
92 124 70
87 113 62
82 108 60
89 124 69
86 109 62
88 118 65
82 104 59
85 107 60
92 116 65
80 108 60
83 113 63
86 109 61
83 108 60
80 97 53
77 94 51
88 108 60
75 86 48
76 95 51
76 95 53
78 100 55
83 101 56
74 83 45
68 78 40
84 110 61
80 93 50
73 85 46
69 71 37
70 87 47
74 87 46
72 87 47
73 76 41
77 86 46
75 87 47
77 84 45
71 80 41
75 85 46
68 67 35
75 78 42
70 75 40
77 90 48
79 93 51
79 94 51
73 87 47
68 69 36
79 95 51
81 90 48
75 80 43
84 99 54
88 109 60
84 101 55
78 80 43
86 100 54
83 95 52
81 89 48
82 91 49
91 112 61
79 95 51
92 113 62
87 102 55
95 120 66
92 105 57
94 117 64
97 131 72
99 118 65
93 119 66
93 110 61
94 116 64
101 122 68
97 128 72
94 119 66
100 124 69
102 133 74
92 111 60
99 117 64
101 130 73
109 140 79
104 142 80
103 130 72
101 130 72
108 146 82
108 145 81
108 150 85
108 147 83
111 149 84
108 140 79
110 146 82
110 150 85
105 145 82
110 155 88
113 164 94
114 165 94
111 150 85
111 158 90
109 151 86
110 150 85
113 162 92
115 169 96
114 171 98
112 157 89
117 170 97
116 167 95
113 159 91
114 166 94
111 184 93
117 190 96
110 185 90
112 186 89
115 186 92
112 185 87
112 184 93
107 180 80
110 182 88
103 176 78
114 186 92
106 179 85
110 184 88
111 183 84
105 177 78
107 181 85
106 179 78
113 186 89
103 174 78
109 182 84
106 177 78
101 174 68
98 168 70
101 172 73
102 173 65
106 177 78
97 170 66
100 172 75
105 177 76
104 176 78
103 172 72
99 172 67
105 177 75
95 168 69
96 166 65
94 166 66
95 166 66
95 167 56
91 162 64
93 163 65
85 156 57
89 160 51
89 157 57
88 159 58
89 161 56
88 160 54
91 159 62
89 158 58
91 161 60
80 147 51
86 156 56
80 149 48
83 150 53
75 140 47
78 146 54
82 150 50
78 143 41
69 132 38
76 144 42
76 144 48
79 145 50
77 144 47
82 148 52
71 137 41
75 142 52
70 137 34
83 150 59
77 141 47
76 140 49
77 141 48
69 133 44
74 138 43
76 141 48
72 137 41
81 148 53
81 143 56
80 144 54
78 146 52
70 132 43
77 143 52
77 141 50
77 141 44
77 140 50
77 140 46
82 146 59
84 148 60
82 146 60
79 145 50
74 134 46
82 147 56
85 150 61
93 162 69
89 152 57
85 148 60
85 149 55
88 153 63
83 148 58
77 139 53
88 150 60
87 147 65
78 141 57
81 141 55
88 149 68
81 143 62
84 148 60
88 149 68
92 156 71
90 154 69
86 150 61
90 155 69
89 152 70
88 153 69
93 155 76
88 150 70
92 153 75
90 154 69
87 150 65
88 147 70
84 143 64
88 149 71
94 159 76
95 157 73
93 156 80
83 144 67
92 154 79
97 160 78
95 159 79
93 158 80
91 151 73
93 156 73
88 148 80
98 164 82
88 149 73
96 159 83
90 149 76
96 158 82
97 159 84
88 149 78
89 146 69
94 155 79
92 152 80
87 146 73
96 158 87
94 155 79
91 151 80
90 149 76
94 155 82
89 146 76
89 149 80
94 155 82
88 145 78
82 138 72
91 152 80
87 143 78
101 165 89
85 142 77
88 147 78
82 139 72
91 148 78
81 135 75
88 142 79
89 146 80
83 139 76
93 155 84
87 144 75
85 142 78
85 142 76
76 132 68
86 144 78
90 147 79
92 152 84
91 146 83
87 144 80
92 148 80
90 146 81
87 144 74
81 133 75
90 148 76
88 145 80
84 139 75
87 147 79
91 146 80
91 151 86
91 145 79
80 133 74
87 143 77
87 142 78
83 136 77
80 133 72
91 149 80
80 132 73
90 144 81
88 142 78
91 150 84
87 142 81
86 140 78
84 141 78
89 144 81
79 131 74
79 129 73
84 136 76
70 114 64
83 135 76
83 137 75
83 135 77
86 139 78
89 137 77
79 128 73
83 133 74
83 134 77
86 138 78
88 138 79
92 147 82
89 143 81
81 131 72
89 139 78
92 148 82
83 133 74
85 139 80
85 134 76
89 146 83
87 139 80
83 131 75
79 131 72
88 141 81
87 134 76
83 131 75
91 146 83
80 124 73
90 144 81
86 135 76
83 130 75
85 134 76
85 133 76
86 129 75
91 141 80
84 135 77
91 147 83
87 132 74
89 137 79
87 133 75
90 141 82
93 143 81
88 135 77
92 140 80
85 130 74
92 140 80
97 149 86
96 148 82
94 144 82
97 147 84
97 153 87
95 142 80
89 133 75
95 146 83
94 138 81
86 130 73
96 149 86
90 134 77
97 145 83
93 137 78
91 143 82
92 142 80
92 145 84
93 142 81
92 135 76
92 141 80
96 141 81
86 129 74
88 124 72
89 127 73
86 116 66
93 142 82
91 130 75
96 147 83
97 145 83
94 138 80
92 134 77
91 133 76
93 132 76
91 134 76
89 125 71
94 139 80
80 102 58
93 134 75
87 120 67
89 122 69
88 125 70
91 130 73
90 129 74
90 121 69
90 121 68
90 118 67
97 128 73
89 122 70
92 122 68
88 127 72
91 125 70
83 110 62
92 117 66
89 116 66
80 102 56
83 110 61
84 104 58
83 111 61
78 97 53
87 116 64
82 99 54
84 110 61
90 109 60
87 107 60
87 113 63
79 101 55
81 102 57
84 93 50
82 100 54
80 103 57
79 97 53
81 92 50
75 85 46
78 95 52
80 95 52
80 91 49
72 83 44
72 87 47
76 90 49
79 98 52
86 94 51
79 94 52
77 86 46
84 98 53
78 96 52
77 84 45
71 81 43
79 88 48
72 81 43
80 91 50
80 92 49
80 102 56
73 87 47
83 94 51
69 67 35
83 110 60
81 100 55
82 89 48
75 94 51
85 103 56
81 99 54
78 89 47
86 105 57
89 109 60
81 91 49
83 102 56
81 93 50
87 101 55
89 107 58
91 116 64
93 122 68
90 113 62
95 117 65
96 117 64
94 122 68
94 120 66
99 123 69
93 115 63
98 129 72
103 135 75
100 136 76
97 124 68
101 136 76
103 131 73
107 143 80
104 144 82
106 141 79
103 143 80
104 128 72
103 139 78
112 153 87
107 146 82
106 141 79
110 159 90
108 146 82
109 153 86
107 154 87
106 151 86
108 150 85
110 148 84
114 156 89
115 163 93
112 159 90
112 151 86
111 152 86
116 167 95
111 153 87
113 168 96
114 157 89
111 164 93
114 172 99
117 171 98
111 160 91
111 184 90
112 185 93
115 188 90
113 186 89
113 186 90
108 181 85
112 183 86
107 181 89
113 185 87
111 184 84
106 179 80
110 183 87
110 183 87
106 178 83
111 183 87
106 178 83
107 179 78
109 183 85
108 180 80
103 174 76
100 170 72
102 174 76
104 178 75
102 174 69
101 172 73
105 176 75
103 172 79
102 172 73
102 175 77
102 171 77
95 168 65
99 172 67
99 170 72
92 166 62
90 162 61
91 164 61
96 164 68
93 163 62
101 172 75
98 167 68
94 163 65
97 169 66
84 155 51
92 162 59
86 154 48
89 161 61
91 162 62
91 161 59
83 154 53
88 157 53
77 144 45
78 150 49
80 146 51
79 146 51
82 148 53
81 148 42
80 151 47
76 145 45
73 142 39
86 152 57
80 147 56
80 146 51
69 137 44
77 140 49
76 141 49
78 142 47
70 136 39
78 146 48
75 139 47
83 150 56
72 136 39
78 144 50
79 143 50
77 140 52
74 140 36
83 149 57
84 148 54
85 148 53
80 142 50
74 139 47
89 152 60
80 144 43
85 150 62
83 146 61
87 154 63
92 158 61
76 139 57
87 152 63
88 153 65
83 146 58
83 148 62
87 151 64
84 148 54
88 151 65
90 154 67
90 154 71
88 151 63
86 152 64
89 155 67
89 151 70
83 147 61
88 150 68
92 156 69
87 150 67
84 147 61
92 156 71
91 156 71
94 159 68
90 155 72
91 150 74
88 147 65
89 152 72
91 154 73
89 153 67
89 149 74
87 149 67
93 158 71
90 152 78
87 148 70
93 156 73
91 156 69
90 153 74
85 143 73
96 160 78
97 160 83
84 144 73
89 152 74
93 154 74
94 156 79
92 154 77
93 154 79
91 151 76
95 158 78
95 159 79
94 156 82
84 144 72
94 155 80
94 156 83
86 143 73
86 145 75
89 148 76
94 156 81
81 138 72
86 142 71
93 155 77
89 148 79
80 135 70
87 146 78
92 154 84
90 150 80
91 154 82
99 164 87
85 142 76
92 154 81
90 152 78
89 148 77
87 146 76
91 152 82
91 152 83
93 153 84
88 146 77
89 149 80
90 149 78
92 154 83
92 152 79
90 148 83
84 141 78
91 149 77
87 145 80
91 151 81
84 140 75
80 137 76
91 150 82
87 142 76
90 146 79
90 147 75
93 153 86
82 136 73
88 144 80
87 144 78
87 144 80
93 154 82
77 128 69
84 139 77
88 143 79
84 140 78
87 142 77
91 143 82
89 146 77
86 142 77
87 144 82
84 140 77
91 149 85
95 152 84
79 132 72
84 135 76
86 141 81
82 135 76
92 150 84
88 144 80
86 140 79
87 141 78
77 126 69
89 142 79
88 144 80
85 137 77
87 140 78
84 134 76
85 137 74
84 133 75
92 145 82
85 137 75
81 133 77
85 134 76
85 137 78
91 145 83
78 126 72
92 145 82
86 137 78
83 128 71
92 145 81
79 129 72
82 131 74
85 131 75
84 131 73
90 139 79
86 134 76
84 135 76
86 138 78
94 146 84
85 129 72
92 148 84
92 146 84
83 130 75
88 136 80
94 145 82
87 134 77
87 138 78
92 140 81
90 134 77
95 142 82
91 140 80
95 145 83
90 141 80
93 141 79
90 140 80
91 144 84
86 132 74
93 141 81
93 142 82
97 144 83
84 125 72
94 144 82
91 139 79
92 138 79
95 145 83
96 144 82
94 140 80
90 127 73
86 122 71
86 126 72
95 146 84
97 141 81
94 137 77
91 132 76
91 134 77
95 135 77
98 149 85
93 137 78
90 136 77
96 143 83
89 132 75
95 139 79
95 137 79
91 136 79
93 130 74
97 134 75
95 136 77
91 128 73
88 122 70
81 106 61
88 114 65
94 139 80
91 136 78
99 140 78
90 125 70
93 134 76
90 133 75
85 121 68
90 117 66
93 129 74
86 120 69
92 124 70
92 127 71
89 123 70
87 121 68
92 127 72
86 110 62
84 103 57
83 113 65
87 114 63
80 99 55
91 119 66
93 121 69
80 101 55
92 119 67
86 118 65
88 118 67
87 112 63
81 105 58
82 100 57
88 122 67
90 111 62
84 109 61
78 96 52
81 90 50
77 88 48
85 103 56
84 107 59
87 109 60
78 93 51
81 99 54
78 89 47
81 95 52
79 106 59
86 101 54
78 93 51
76 96 53
77 93 51
85 104 56
81 98 54
79 94 51
79 96 53
79 98 54
76 88 47
85 101 55
78 87 46
73 80 43
88 114 61
80 86 47
83 100 54
82 96 53
81 97 53
83 105 57
82 101 55
79 89 48
79 96 52
85 105 57
94 115 63
83 95 52
86 105 57
87 102 55
85 106 57
84 103 56
81 101 55
91 114 63
95 118 65
91 118 65
90 115 64
85 94 51
95 124 69
94 118 65
100 129 71
94 119 66
97 130 72
95 117 64
99 122 68
103 138 77
98 132 74
97 125 69
97 125 69
100 131 73
99 126 69
105 140 78
106 143 80
106 138 77
103 137 76
100 130 73
102 131 73
111 154 87
107 147 83
110 154 86
106 146 82
108 142 80
107 146 82
106 139 78
105 146 82
108 145 82
111 149 84
110 153 87
109 152 86
112 155 88
110 151 85
114 165 94
110 161 91
110 159 91
113 163 93
112 157 90
114 161 92
112 158 90
114 186 88
112 185 90
117 190 95
112 185 93
112 185 93
112 184 87
110 183 87
112 184 87
110 183 90
111 184 84
114 187 90
103 177 83
110 184 87
108 181 80
105 176 78
107 178 80
108 180 82
107 179 80
104 174 80
102 176 74
106 178 74
107 179 80
102 173 74
101 175 73
103 175 77
103 175 73
96 167 66
99 169 75
99 172 67
97 170 68
97 167 70
97 170 70
97 169 68
94 166 63
99 168 67
97 167 67
90 161 58
92 164 62
88 156 58
92 161 63
92 164 58
86 154 53
90 157 61
89 159 58
88 158 58
86 155 57
88 157 54
83 151 49
83 150 47
82 153 51
75 144 42
87 154 53
89 159 59
79 142 44
74 141 39
83 151 53
82 148 51
79 145 52
81 148 49
83 150 51
72 139 42
85 153 57
82 145 57
80 146 51
87 152 53
79 143 53
76 146 39
77 140 47
77 142 49
76 143 45
82 143 54
76 142 55
72 138 44
84 149 60
86 156 58
82 148 57
79 144 51
81 146 51
90 156 58
84 149 56
85 152 56
84 148 54
88 151 58
78 142 55
82 149 54
79 145 58
87 152 64
84 148 56
74 134 46
80 141 57
87 150 64
90 156 69
80 142 60
81 143 58
87 152 63
92 156 64
85 148 60
90 155 62
83 143 58
88 151 70
88 152 70
90 154 69
93 159 71
88 149 73
94 158 73
89 152 66
88 149 67
88 149 65
87 152 70
92 155 66
89 152 71
85 146 66
89 150 68
86 149 71
88 150 67
97 160 77
91 156 71
89 150 74
92 154 76
89 150 73
96 158 75
88 150 76
101 168 87
93 156 76
91 151 75
89 150 71
92 156 76
91 153 78
96 160 84
94 158 79
88 147 79
94 156 80
94 157 79
92 152 81
95 157 80
93 154 82
94 155 81
92 153 77
92 152 79
92 153 82
97 160 81
94 154 82
99 164 85
89 148 73
99 160 89
91 153 78
91 152 78
93 155 80
92 152 81
90 150 78
93 151 80
95 156 85
95 158 84
93 152 79
93 150 82
88 150 76
90 148 81
88 147 80
92 152 81
93 151 80
92 154 83
90 149 80
92 152 81
95 154 82
90 148 83
94 155 85
92 151 84
92 152 78
92 152 83
86 144 78
86 144 73
91 148 84
87 140 77
95 155 86
87 143 79
89 149 80
85 143 80
85 140 78
82 137 74
90 149 78
88 145 82
92 152 83
89 144 80
94 152 83
92 145 83
86 141 79
83 137 75
87 142 80
86 144 80
86 140 81
85 140 77
78 129 73
87 139 74
86 140 74
87 137 76
92 148 83
83 136 76
89 145 81
91 146 83
89 140 81
83 131 72
83 135 78
88 144 83
85 135 76
87 139 75
93 151 84
86 142 80
79 128 71
86 138 78
78 128 73
81 132 77
85 141 79
82 132 75
90 140 81
86 139 78
90 143 81
88 141 82
83 134 76
86 137 78
84 134 76
90 139 80
93 147 83
87 142 82
84 132 75
84 133 76
89 142 80
88 139 79
91 143 81
93 144 82
80 124 72
92 137 79
83 134 78
84 127 74
87 137 78
90 146 84
88 142 82
94 143 81
92 143 82
85 135 79
92 146 84
94 145 83
98 153 87
92 142 81
92 140 80
88 136 77
90 143 81
95 147 86
93 139 79
94 141 80
100 151 86
91 137 78
90 137 78
88 133 78
93 140 80
99 154 88
84 126 73
87 129 73
96 151 87
92 142 81
97 140 80
92 135 78
93 136 78
92 141 80
97 138 80
94 137 78
95 140 79
91 139 79
94 138 78
96 147 85
97 147 84
89 134 76
86 126 72
91 137 78
87 129 73
92 140 81
99 147 84
93 139 80
94 137 78
89 126 72
92 130 75
96 139 80
91 134 76
90 128 72
92 130 74
99 139 77
91 131 74
92 133 76
90 128 74
85 120 67
94 136 75
85 123 71
91 129 73
95 134 76
90 110 61
87 113 64
85 111 62
96 128 71
96 130 74
90 120 67
86 120 66
93 127 72
97 128 72
85 115 65
96 126 71
91 117 65
93 119 68
86 115 65
94 128 72
87 110 63
87 116 65
92 117 65
85 111 63
88 116 64
84 102 56
83 105 57
86 105 58
86 106 59
86 118 65
85 102 56
85 106 59
87 106 59
85 110 60
77 96 52
86 108 59
79 86 47
90 111 61
76 87 47
86 106 58
83 110 61
82 101 56
78 85 45
71 93 49
82 98 54
81 99 54
76 89 48
83 96 52
81 102 56
78 88 48
81 96 51
79 99 54
85 104 57
85 103 57
73 88 47
83 104 57
85 106 57
84 102 56
83 93 50
76 87 47
90 111 61
88 100 55
87 106 58
92 117 65
83 89 48
88 101 55
80 90 49
90 118 65
91 115 63
92 115 63
97 118 65
87 103 57
92 121 67
97 122 67
94 114 62
98 122 68
94 121 67
101 134 74
91 115 63
99 123 69
94 118 65
105 135 75
100 132 73
92 117 64
102 138 78
107 147 82
101 133 75
105 124 70
104 135 76
104 135 75
98 124 69
100 123 69
102 131 73
104 135 76
108 146 82
103 139 79
108 151 85
107 147 83
110 152 86
104 126 70
112 160 91
109 151 85
109 154 87
112 155 88
110 154 87
109 150 85
111 158 90
109 146 82
117 167 95
113 154 87
109 158 90
110 154 87
111 183 90
111 184 86
109 181 79
109 183 85
110 183 87
101 174 81
110 183 84
109 182 79
111 184 84
113 185 87
109 182 87
107 179 83
110 183 87
106 176 82
103 174 81
105 176 76
106 177 76
103 175 80
102 174 76
108 179 87
103 174 72
101 174 72
97 169 69
107 177 78
103 175 78
100 173 75
103 174 80
97 169 69
100 173 70
100 171 70
99 170 67
97 169 60
98 168 69
87 158 48
94 166 60
92 162 68
90 163 58
89 159 58
92 164 63
94 162 62
90 163 60
98 168 62
88 158 58
81 148 47
88 156 56
85 154 57
93 161 61
87 155 54
77 145 51
88 158 60
87 155 56
89 157 62
82 152 51
90 158 59
90 155 60
82 148 48
76 140 47
80 145 60
85 151 52
80 148 50
85 147 59
80 147 51
74 140 45
93 161 66
84 151 55
84 151 49
80 145 46
74 141 44
83 148 48
83 149 55
83 147 53
87 152 61
84 153 51
78 144 41
78 145 52
81 146 58
84 147 60
93 159 68
84 148 58
85 147 61
81 148 55
85 152 61
91 160 68
83 147 57
86 154 65
91 159 58
87 151 64
82 146 52
95 158 71
87 150 52
91 156 67
89 156 63
84 147 59
94 157 69
84 147 56
89 150 63
89 154 64
94 155 67
94 162 73
91 154 71
96 161 75
88 151 65
84 146 62
89 153 66
90 152 68
91 155 69
92 153 77
94 155 76
80 139 61
91 152 72
96 160 78
89 151 70
94 157 77
87 151 72
95 159 79
92 153 74
92 154 76
91 152 74
89 152 74
91 152 75
99 165 82
88 153 71
99 161 83
89 152 72
90 151 76
91 153 78
96 160 78
96 159 77
98 164 86
94 157 74
95 157 81
92 151 80
94 156 78
92 153 81
89 150 76
93 151 78
97 161 84
93 154 78
89 150 76
89 149 76
96 156 83
88 148 78
96 159 83
88 147 77
96 161 85
93 154 80
89 150 79
94 156 80
95 159 82
94 157 80
87 146 79
98 161 83
90 150 83
92 150 82
91 151 79
96 159 87
89 146 81
92 151 83
80 134 73
94 153 81
100 165 88
95 159 86
93 153 80
87 145 78
87 145 81
86 142 75
94 155 83
90 149 81
96 157 85
83 138 74
92 152 81
82 138 74
91 149 79
90 152 85
92 151 83
96 158 88
94 155 87
92 150 82
96 154 86
95 153 88
88 147 82
98 160 89
90 151 81
93 149 83
90 147 83
92 151 86
91 147 80
87 145 77
87 145 79
89 147 81
86 145 79
89 146 83
97 157 88
91 146 80
90 147 84
91 144 81
89 146 83
86 139 78
92 147 84
89 147 83
88 142 81
89 145 81
93 149 86
81 131 71
88 142 81
91 146 82
88 139 79
91 149 84
83 137 76
87 143 80
88 141 81
86 140 79
89 140 79
92 141 81
89 144 82
90 139 81
90 146 83
94 152 87
79 129 71
85 134 77
92 146 86
90 142 82
92 146 83
84 132 76
77 125 72
92 147 85
89 144 83
96 148 85
99 154 89
90 145 83
96 150 87
86 136 75
90 144 82
98 153 88
88 138 80
95 144 82
94 148 85
85 138 79
98 155 88
86 133 77
95 150 86
94 148 85
91 146 85
85 130 75
89 140 80
95 147 84
89 137 78
93 145 83
90 135 77
96 151 88
91 142 82
92 135 78
94 144 83
98 150 85
96 149 86
95 142 81
90 138 80
98 150 87
89 127 73
94 144 83
101 154 88
92 139 81
93 145 83
97 142 81
89 134 78
90 130 75
96 140 80
96 144 82
92 137 79
92 135 79
94 138 78
93 138 81
96 141 82
90 134 77
90 132 75
94 135 76
92 129 73
104 151 85
90 127 72
96 138 78
91 137 78
98 142 82
92 132 76
98 141 81
97 140 81
91 133 76
88 124 68
92 129 75
87 127 73
85 120 69
86 115 66
97 135 76
88 119 67
95 141 80
97 141 81
96 132 75
93 127 72
95 131 73
95 128 73
92 125 71
95 126 71
89 123 69
93 126 71
92 125 71
87 116 66
95 126 70
97 134 76
82 110 63
84 113 63
86 115 64
91 121 68
97 123 69
89 111 62
81 103 57
89 111 63
90 116 64
88 117 65
89 119 66
81 92 50
80 96 54
90 118 66
85 109 61
89 120 67
84 105 58
80 96 53
85 95 52
89 111 62
88 115 64
83 100 54
86 98 54
82 103 57
82 101 56
85 100 54
86 99 53
84 99 54
83 94 51
84 91 50
81 92 50
75 74 40
82 98 53
87 115 64
79 88 48
85 103 56
81 96 52
78 94 52
86 106 59
83 101 55
90 112 61
85 100 54
85 104 56
89 106 58
80 97 52
91 113 62
89 118 64
92 108 59
90 106 58
95 127 70
91 109 60
95 121 67
92 115 63
88 107 59
91 111 61
94 113 63
92 121 67
94 122 68
91 109 60
104 133 74
96 124 69
99 122 68
99 132 73
99 123 68
100 119 66
102 125 70
104 133 74
101 128 71
102 122 67
96 123 68
101 136 76
107 144 80
107 146 82
102 131 73
102 130 72
105 136 76
106 143 81
107 150 84
105 136 76
106 148 83
111 148 83
110 147 83
107 143 81
107 150 85
115 159 90
108 144 81
110 156 89
114 164 93
109 149 84
110 150 85
109 154 87
112 159 91
109 153 87
113 186 90
107 180 85
108 180 84
108 180 87
112 185 87
107 181 82
109 182 84
106 178 85
111 184 80
108 180 84
109 181 84
105 176 79
106 177 80
105 178 84
103 176 80
109 181 83
101 171 64
101 174 69
110 183 87
94 166 62
101 173 75
99 170 71
107 178 80
104 176 74
102 174 71
103 174 73
94 166 62
100 171 64
96 167 66
94 163 67
95 167 70
93 165 63
98 169 70
100 171 72
90 161 58
99 171 69
93 163 67
85 155 56
95 165 63
96 167 60
92 163 63
88 159 63
93 161 64
91 162 63
83 151 49
94 163 63
85 155 53
88 158 57
89 157 62
91 161 62
83 150 53
84 154 53
83 149 54
93 164 70
84 154 55
89 155 53
85 153 51
81 149 48
88 156 60
83 151 56
80 145 49
79 148 52
87 154 56
89 155 59
87 153 52
89 158 60
83 152 53
84 153 58
93 159 65
80 145 51
86 151 55
89 157 63
80 144 53
86 150 55
87 151 60
80 144 48
89 155 59
87 152 64
93 161 65
95 163 70
77 137 46
89 152 60
83 148 65
90 156 62
88 152 68
87 150 60
94 160 64
93 159 71
83 146 58
90 153 63
88 152 62
90 156 67
89 154 62
87 149 63
98 164 76
86 150 63
85 148 62
88 152 67
88 150 66
91 157 67
91 156 69
91 154 72
90 155 66
92 158 72
84 144 65
87 149 60
94 157 72
92 154 71
93 158 72
87 151 68
92 154 69
88 151 66
94 158 75
88 149 63
91 152 72
87 148 76
98 162 80
92 155 76
97 161 81
89 152 75
91 153 81
94 157 80
93 156 73
96 160 80
94 158 82
99 163 85
97 161 83
90 153 75
91 154 77
89 150 78
99 161 83
86 146 76
98 161 82
94 157 82
97 162 81
98 164 86
94 154 82
95 156 80
94 158 81
98 161 85
98 162 87
91 152 79
91 154 82
94 157 84
93 152 81
97 161 85
94 155 85
87 147 74
88 150 80
93 153 82
91 153 78
98 162 86
92 154 80
85 143 79
102 168 90
94 157 83
90 150 81
91 151 80
96 156 81
94 155 82
93 156 82
90 147 81
97 158 87
94 153 83
94 157 87
84 141 75
88 145 79
90 149 77
91 151 83
91 149 83
88 147 79
91 150 80
96 158 85
96 159 86
84 140 75
88 147 78
88 144 79
90 149 85
89 148 81
79 136 73
95 154 85
88 143 79
85 139 75
92 152 83
86 145 84
87 143 78
87 144 82
90 146 82
80 134 76
84 140 78
92 150 84
93 147 81
89 147 83
89 147 84
85 137 75
97 155 87
90 145 83
86 140 78
89 146 79
81 135 78
83 139 78
86 140 75
83 138 76
87 143 79
88 141 80
88 144 80
87 142 80
89 146 82
89 142 81
82 133 74
84 134 75
85 135 77
89 145 81
84 135 77
87 139 78
91 141 82
84 138 80
88 139 77
83 135 77
89 141 82
88 141 79
87 138 79
87 139 80
89 143 82
85 135 77
89 135 76
90 143 81
94 149 84
91 140 80
95 154 89
91 142 80
93 144 82
95 153 88
95 148 87
99 155 88
95 152 89
92 148 83
91 142 81
89 140 80
94 144 81
90 141 81
93 145 84
97 149 85
95 146 85
93 145 82
92 142 81
97 147 84
94 144 82
100 153 88
90 137 77
90 142 81
91 145 84
94 147 85
95 144 82
95 145 85
98 151 85
94 144 81
95 149 84
99 146 83
93 141 81
94 144 83
95 143 81
96 140 80
94 139 79
96 146 84
98 142 83
97 147 84
94 142 81
92 144 83
100 148 85
95 145 83
91 138 80
86 127 72
95 145 83
91 137 79
96 148 84
95 140 80
97 142 81
82 128 73
95 137 79
95 140 79
91 126 72
97 141 80
92 133 76
97 140 79
94 136 76
87 120 70
96 135 78
96 139 79
95 136 77
95 137 78
91 128 72
98 138 78
93 128 73
93 135 77
97 138 78
97 139 80
88 124 71
98 134 75
95 127 71
90 128 72
88 112 64
90 122 67
94 130 74
93 124 70
91 125 70
91 114 62
93 128 71
90 127 72
92 110 61
83 107 61
90 117 65
90 122 69
89 119 66
88 113 63
90 111 62
94 132 74
91 121 67
86 109 60
94 127 71
85 104 58
88 107 58
92 123 69
81 99 54
94 124 67
84 95 52
86 102 55
90 105 58
88 113 61
87 104 57
92 111 60
90 107 58
87 107 58
85 106 59
92 115 63
85 107 59
83 92 49
88 106 58
83 108 59
79 98 54
86 106 57
82 101 55
90 110 61
86 102 56
89 107 59
81 99 53
89 107 59
82 94 50
85 97 51
85 101 55
86 99 53
85 97 53
88 104 58
98 111 61
105 139 77
91 114 62
94 112 61
85 99 54
90 104 57
85 90 49
88 104 56
92 108 59
97 122 68
95 124 69
92 118 65
98 125 69
94 118 65
104 137 76
98 124 67
96 125 69
94 117 64
101 133 75
103 138 77
99 126 70
99 135 76
106 139 78
100 124 69
99 125 69
104 139 78
107 140 79
105 142 80
106 137 77
103 135 76
108 148 84
108 152 86
107 141 79
105 146 83
110 146 83
111 149 84
110 149 84
112 148 83
107 142 80
108 149 84
114 161 92
112 158 90
109 148 84
112 156 89
114 156 89
112 159 90
110 150 85
110 183 87
105 176 83
112 184 87
113 184 90
106 178 83
116 189 92
109 182 87
107 178 80
112 184 86
106 178 82
110 183 84
105 178 80
103 174 79
104 175 73
106 179 79
103 175 77
96 170 65
100 170 73
105 177 80
101 172 73
105 178 75
106 177 79
97 171 70
102 171 76
102 171 75
98 169 70
98 172 71
93 163 62
101 171 76
96 168 65
97 170 68
98 165 69
92 164 65
97 170 72
94 164 66
92 163 60
92 163 60
94 165 65
100 170 66
91 160 60
96 168 63
86 153 54
84 152 53
92 163 67
80 148 52
92 163 62
78 146 48
85 153 56
86 155 58
79 147 51
83 150 53
90 157 62
86 154 56
86 153 61
88 156 53
79 146 45
91 157 57
88 153 62
82 150 50
94 160 67
86 151 56
86 151 50
90 157 65
89 156 64
87 154 54
82 148 55
91 158 62
87 152 55
85 151 56
86 149 55
90 156 64
85 149 62
96 161 62
83 150 56
88 153 55
86 150 52
84 147 57
82 146 56
89 155 65
94 159 65
89 157 63
86 150 63
91 157 65
77 142 58
93 158 69
87 149 63
94 160 65
88 152 63
90 154 66
94 161 72
92 158 66
95 162 72
95 159 73
90 156 62
95 160 73
91 158 68
91 155 70
89 150 68
91 158 73
93 156 71
90 148 65
91 155 66
94 155 69
102 168 84
86 145 66
101 169 77
90 153 65
95 158 76
95 159 78
95 160 77
95 161 71
93 155 72
88 149 71
99 165 84
92 155 76
99 165 81
97 160 80
87 147 67
92 155 71
95 161 79
93 155 77
92 152 78
95 158 76
94 159 77
97 161 75
100 164 85
101 166 86
98 162 80
99 163 83
92 153 79
94 157 82
93 157 78
99 163 83
100 165 89
87 148 73
103 169 90
97 159 83
95 158 84
96 158 82
94 155 73
99 160 82
93 156 79
96 159 84
92 153 82
95 157 84
89 150 83
92 150 79
97 162 83
92 155 81
96 160 86
94 156 80
92 153 85
92 153 81
87 146 79
93 154 82
93 156 84
100 163 88
100 163 88
97 157 85
89 147 81
96 159 84
96 159 86
94 155 84
91 151 81
91 149 80
102 165 92
90 147 80
92 150 84
90 146 78
90 151 82
92 153 82
88 148 81
88 147 81
90 150 81
90 149 82
88 146 78
90 148 81
87 144 80
92 150 84
93 153 88
91 147 78
92 150 84
86 142 79
91 153 85
91 148 79
84 139 79
89 146 84
92 150 81
87 141 79
99 160 90
86 140 80
95 157 89
86 140 78
96 156 88
88 144 82
97 156 88
92 145 82
89 143 77
91 149 85
88 144 79
88 146 82
92 145 84
89 141 79
93 149 83
91 148 83
90 147 82
91 145 82
86 143 80
88 143 80
85 139 78
97 157 90
89 148 84
92 148 84
88 141 81
87 142 80
90 142 79
83 133 77
96 155 85
92 148 81
97 155 87
95 148 83
93 148 83
89 142 81
83 136 79
93 147 84
94 146 83
94 150 85
86 137 80
89 144 81
92 145 84
86 136 77
92 141 81
93 145 82
90 140 82
96 150 86
90 145 82
90 146 82
89 136 77
89 135 78
89 138 80
97 152 86
93 146 85
94 149 86
96 149 87
91 139 80
87 135 78
88 136 77
89 131 73
98 147 84
100 156 91
100 157 90
95 146 83
94 144 83
93 146 83
97 145 83
97 147 84
93 143 81
98 151 87
97 141 81
94 142 80
95 144 80
99 149 86
95 143 83
98 150 87
96 140 79
89 135 77
97 142 82
94 137 77
97 146 84
99 149 84
104 151 87
98 145 82
90 132 76
90 137 80
94 140 81
100 147 85
96 141 81
101 151 86
98 144 82
93 134 77
97 146 84
97 144 83
92 136 78
91 128 73
96 140 80
104 146 82
92 132 75
95 138 79
96 138 78
90 125 72
96 125 70
92 125 69
97 134 75
97 139 79
91 129 74
92 122 67
87 121 68
94 129 74
92 126 72
93 123 69
95 133 75
88 104 59
94 131 74
92 124 70
88 116 65
93 126 71
95 124 69
85 115 63
95 128 72
93 130 73
97 133 75
86 114 64
88 122 69
96 127 71
90 114 64
82 103 58
91 113 63
92 126 71
88 116 65
92 116 65
88 111 61
84 104 58
91 110 61
87 103 56
85 101 56
85 105 57
92 115 64
84 108 59
87 104 56
97 122 67
88 111 62
91 110 60
78 87 48
84 98 53
84 105 58
87 111 61
95 121 66
91 118 65
85 102 56
76 92 49
84 94 51
88 111 61
90 116 64
86 103 56
82 94 51
88 116 64
95 118 65
87 101 56
82 97 53
85 102 55
89 110 61
81 90 48
86 107 58
88 110 60
93 118 65
99 134 75
93 115 63
88 105 58
91 108 59
87 112 61
94 111 61
92 114 63
99 128 70
98 126 70
100 131 73
95 117 64
101 127 70
97 119 66
96 124 69
96 123 67
101 122 68
97 122 67
96 121 67
100 134 75
102 132 74
107 145 81
99 127 70
99 129 72
106 145 82
101 130 73
101 118 65
105 140 78
108 146 82
102 132 74
103 132 74
106 144 81
105 142 80
107 136 77
104 140 79
111 155 87
109 146 82
107 140 78
109 155 88
106 141 80
110 156 89
111 154 88
113 161 92
112 159 90
112 152 86
113 162 92
106 178 77
109 182 87
108 180 82
109 183 85
105 177 80
107 179 82
104 178 76
106 178 80
107 179 81
108 179 81
112 184 88
107 180 84
105 176 80
104 177 77
104 176 70
106 177 80
106 176 80
101 170 72
99 170 70
107 179 74
105 176 75
106 175 73
99 171 72
97 169 73
100 171 67
98 171 67
101 172 74
99 171 75
99 170 69
96 167 69
101 171 69
98 171 67
94 165 65
95 165 64
97 165 68
93 166 62
91 162 64
94 164 64
91 161 61
90 159 60
94 165 60
89 158 56
91 163 59
93 162 63
92 162 62
94 164 62
91 161 64
92 162 68
85 154 62
90 155 57
88 156 57
92 161 62
94 164 67
87 157 58
88 157 51
94 162 63
88 160 55
91 158 66
89 157 63
90 158 60
87 155 59
83 150 53
87 155 66
90 157 66
94 160 65
84 152 57
94 162 67
82 148 55
93 161 67
88 156 64
90 158 62
87 154 55
90 156 66
84 149 59
94 161 65
87 151 65
94 161 68
95 160 69
84 142 60
80 148 53
94 159 69
94 161 69
85 148 53
92 157 66
88 150 64
96 164 71
89 153 62
90 155 71
94 161 71
91 157 71
83 146 62
81 144 65
87 149 62
90 153 67
95 159 73
98 161 76
94 157 74
89 152 64
95 159 76
94 158 69
90 153 72
96 163 78
96 160 73
95 160 76
92 156 75
92 156 79
93 157 78
87 150 67
96 162 80
96 161 76
97 163 82
94 158 76
90 153 74
94 159 77
94 158 79
97 161 83
98 162 82
93 157 80
97 162 84
100 165 80
99 165 85
94 156 77
96 162 81
97 160 84
90 153 76
92 154 78
90 152 77
94 156 82
95 159 84
91 153 79
90 151 79
97 160 80
96 160 82
93 154 80
101 166 88
93 156 83
92 154 77
97 161 81
93 155 80
98 163 86
92 154 81
96 161 82
95 159 85
91 153 85
93 152 79
95 158 83
94 155 82
89 151 78
95 156 84
98 163 87
97 158 84
86 144 79
95 157 85
93 153 83
100 163 90
92 151 81
94 153 80
96 158 86
90 147 80
98 158 85
96 159 87
91 150 78
99 163 90
90 148 83
86 142 76
94 156 81
94 151 81
89 144 81
94 156 87
83 138 74
92 151 82
90 149 81
96 156 85
93 154 86
89 146 81
92 151 83
88 145 83
92 151 86
88 148 82
85 142 73
88 145 83
90 150 83
92 149 82
96 157 84
94 155 89
83 140 77
92 150 83
85 142 78
92 150 82
82 134 74
89 147 82
88 144 81
95 155 83
88 142 78
88 142 79
83 139 76
90 143 78
86 139 80
94 151 85
89 144 80
91 149 83
93 148 82
87 143 80
88 144 80
88 145 84
94 153 86
87 141 82
90 147 82
89 147 82
84 135 76
86 137 77
104 165 92
90 138 76
83 132 75
93 147 81
87 145 83
85 139 79
94 151 86
84 136 77
91 146 84
93 149 85
96 154 89
95 154 87
88 139 80
92 146 83
97 157 90
95 149 86
92 145 82
94 151 85
91 147 84
99 158 91
85 135 77
88 139 81
92 142 81
83 135 79
89 136 79
88 135 76
86 137 78
98 152 87
92 139 78
103 161 93
100 151 86
95 145 82
92 139 81
94 146 84
95 145 82
97 149 85
97 150 86
95 147 84
91 145 83
97 147 84
95 140 80
90 134 76
98 153 87
95 145 83
93 143 80
103 152 87
94 146 85
97 152 87
94 138 79
96 151 88
93 146 82
96 143 82
97 145 82
92 143 82
97 148 88
99 141 81
92 142 80
89 128 73
98 147 85
97 145 81
95 141 81
92 136 78
98 146 84
99 144 82
100 147 83
90 133 76
97 144 84
104 153 88
97 144 83
97 136 77
97 146 84
91 127 73
93 130 74
97 143 82
98 148 85
88 125 71
91 134 77
98 139 80
91 131 75
97 138 79
92 130 73
94 134 77
94 135 77
96 131 74
93 135 78
99 142 82
95 138 78
94 132 76
94 125 71
96 136 77
90 114 65
94 124 70
95 126 71
91 120 68
101 139 79
97 132 74
82 111 63
94 120 67
90 123 70
92 126 69
93 125 71
93 124 68
81 113 63
94 121 69
88 118 66
84 109 61
91 117 65
88 113 63
93 123 69
85 112 62
94 115 64
91 119 66
91 115 64
89 118 66
90 122 69
88 118 66
93 115 64
88 109 60
92 107 59
90 117 66
89 109 61
93 123 68
91 111 60
88 104 58
86 108 60
92 117 65
88 111 61
92 110 60
92 111 60
85 97 52
91 119 66
94 114 63
93 115 61
87 102 56
87 104 57
87 102 56
94 118 65
95 117 62
99 125 69
95 121 67
95 113 63
93 120 66
87 102 56
91 111 62
91 115 63
81 103 57
95 107 59
95 113 63
96 127 71
96 126 70
91 105 57
97 127 71
88 116 64
95 116 64
87 98 53
98 125 69
97 120 67
102 133 74
100 126 70
95 121 67
102 136 75
96 124 69
101 123 68
97 128 72
100 131 73
102 132 74
104 142 79
102 134 74
98 124 68
105 136 76
105 142 80
103 133 74
110 140 79
105 143 80
108 137 77
105 141 80
104 143 80
107 148 83
108 151 85
107 153 86
110 148 83
110 151 85
109 153 87
112 147 83
111 150 85
111 155 87
109 154 87
112 156 88
112 162 92
108 181 83
110 182 85
109 181 83
108 180 84
107 180 84
107 179 82
108 180 87
107 179 79
108 179 80
102 173 74
103 177 78
106 177 75
108 179 85
100 174 69
98 171 71
102 174 77
104 176 77
105 178 80
107 179 73
101 172 73
103 175 73
96 168 67
104 176 77
99 171 68
99 169 70
102 172 80
95 169 65
101 172 75
98 167 70
98 169 69
99 170 68
96 167 68
96 165 64
98 169 72
96 168 62
97 167 70
93 164 59
98 167 68
96 169 64
90 160 57
92 163 63
83 151 51
92 159 59
89 159 61
91 162 60
90 159 60
91 158 58
89 156 63
89 152 55
92 160 66
90 157 59
89 156 66
84 154 56
99 168 73
89 153 53
90 159 61
86 155 57
91 158 58
89 157 63
85 152 57
95 163 71
96 164 60
87 154 64
95 162 61
88 155 56
92 159 64
91 156 63
87 151 63
88 151 64
89 157 66
93 159 71
94 161 69
95 163 68
91 155 59
90 154 71
89 157 60
90 155 60
90 157 65
99 164 71
91 156 65
92 157 63
90 155 67
95 162 74
92 157 66
98 164 71
90 154 66
97 162 72
90 153 70
98 161 79
92 156 68
90 152 70
87 152 69
91 153 67
84 144 66
96 162 73
84 146 59
91 155 71
96 160 76
95 162 73
93 157 75
92 156 77
95 159 80
93 159 76
95 160 80
90 153 72
96 163 78
95 159 84
89 150 74
97 162 78
98 166 80
94 157 84
91 153 76
92 156 72
95 159 80
90 155 74
97 162 81
94 157 79
98 164 80
97 161 80
97 161 78
96 159 77
97 162 77
96 158 81
93 155 80
98 162 84
103 170 85
100 164 86
101 165 86
98 160 84
98 162 87
101 165 91
101 163 85
93 154 84
93 155 83
100 164 85
103 168 86
90 147 78
97 162 83
98 160 85
105 169 88
89 148 78
94 154 82
94 156 82
92 156 85
96 159 85
89 146 79
95 160 85
91 152 83
95 156 84
99 163 88
94 156 83
89 148 76
99 163 88
97 161 86
87 145 76
100 158 87
88 148 81
100 166 91
98 158 88
96 156 83
101 164 89
96 154 87
90 149 82
96 157 84
97 160 87
91 149 83
95 155 84
95 156 85
83 137 75
98 162 86
92 152 76
94 154 84
89 147 78
86 141 79
94 155 88
91 148 80
88 147 81
96 156 87
87 144 75
92 150 82
89 146 79
87 146 80
100 164 91
92 150 83
85 144 80
90 148 82
96 155 86
83 136 76
88 143 82
91 144 81
90 148 84
88 145 83
96 154 84
94 152 83
98 159 90
88 140 79
92 148 82
81 133 75
90 145 81
94 150 83
90 147 85
91 148 82
88 141 81
90 146 82
83 138 75
94 147 82
94 149 84
90 143 83
87 140 81
97 156 89
83 136 78
88 140 82
92 150 85
96 156 85
98 153 87
85 137 76
91 150 84
91 144 84
97 151 87
94 150 84
95 154 88
92 148 84
91 141 81
88 139 78
100 159 91
92 144 82
90 144 84
95 152 89
99 154 87
94 148 83
88 142 82
87 136 77
97 149 86
99 157 89
100 159 91
93 148 83
97 152 86
95 151 87
96 146 85
92 149 86
95 151 86
101 162 93
93 143 81
92 142 83
94 145 83
91 146 83
98 154 88
94 145 84
89 141 79
92 142 81
99 153 89
99 154 89
93 141 83
92 145 83
90 143 82
93 142 82
94 148 85
96 144 84
97 147 83
93 141 81
94 144 82
94 148 86
97 147 85
98 149 85
96 154 87
94 147 85
98 149 86
100 153 88
105 159 93
102 148 85
98 146 84
93 144 82
100 149 85
96 143 82
99 149 86
99 144 83
92 137 79
94 143 82
99 144 82
101 144 82
97 147 84
98 148 86
94 137 78
100 147 84
97 133 76
90 126 71
96 138 79
92 135 77
96 136 77
93 132 76
95 139 81
94 140 80
97 143 81
97 139 79
99 145 81
99 139 78
91 133 76
98 135 76
94 145 83
99 134 75
97 132 76
95 136 78
92 130 73
95 132 74
88 118 67
95 140 80
91 123 69
95 136 77
90 118 68
95 124 70
93 121 68
92 124 70
93 125 71
94 133 76
95 135 75
97 121 67
99 134 76
93 129 73
88 114 64
95 137 77
95 127 70
92 127 72
94 129 73
94 119 67
91 112 62
96 121 68
93 116 65
89 116 64
97 121 67
94 127 71
93 125 69
91 109 60
88 109 60
91 114 63
88 108 60
89 112 61
97 126 70
92 111 60
94 124 69
87 110 61
90 113 63
95 129 72
100 140 77
85 100 55
91 106 59
89 116 64
92 115 63
91 117 65
92 121 68
95 114 63
91 110 61
93 114 62
89 109 59
95 120 66
95 123 69
94 115 64
90 120 67
95 114 62
94 115 63
91 102 55
99 126 70
88 108 60
102 140 78
97 120 66
98 129 71
92 111 61
95 113 62
97 123 68
97 129 71
100 135 76
94 120 66
94 115 64
97 124 69
100 130 73
99 126 69
99 133 74
98 133 74
98 131 73
104 139 77
102 137 77
103 145 82
102 135 75
106 142 80
107 145 81
107 144 81
103 143 81
107 147 82
97 126 69
108 137 77
103 134 74
101 138 78
108 156 88
111 153 86
105 147 83
104 147 83
112 155 88
106 144 81
107 151 86
111 149 84
112 155 88
109 181 83
106 178 84
109 181 85
109 181 88
107 181 82
107 180 84
109 181 86
106 178 80
101 172 77
107 180 82
102 173 74
104 175 82
104 178 75
104 176 76
101 176 74
104 176 76
102 174 74
100 172 64
98 170 73
103 174 73
104 174 73
103 174 73
96 167 66
99 168 67
97 167 66
102 174 80
95 164 64
99 168 69
95 163 63
97 167 67
98 170 70
99 169 68
94 164 58
94 165 66
92 163 59
96 168 62
100 170 67
96 167 64
97 167 66
94 161 62
95 165 70
86 155 61
94 162 68
91 161 62
94 162 61
86 154 59
95 166 68
89 157 61
94 162 65
97 164 68
94 163 66
87 156 60
93 163 64
94 162 65
95 163 68
88 155 58
91 160 67
89 157 62
96 166 64
90 157 54
91 159 66
99 165 65
87 151 57
93 161 66
85 151 58
87 152 61
95 160 69
91 159 60
99 168 75
93 164 60
95 162 71
95 164 70
91 159 69
92 158 68
97 163 71
93 159 64
90 158 68
89 151 61
86 152 60
95 161 67
93 159 74
97 161 73
94 159 73
94 157 74
95 161 69
104 170 78
92 158 64
83 147 60
91 153 69
93 155 73
97 163 75
92 160 70
91 156 69
99 166 79
99 165 77
98 165 79
97 161 76
89 154 68
102 170 85
96 161 76
95 160 77
93 153 77
97 162 77
97 160 83
99 164 78
94 159 77
96 159 83
90 155 73
98 164 82
96 161 82
95 158 78
98 161 86
94 157 70
96 159 80
97 160 77
96 159 79
97 159 84
99 163 83
96 159 77
96 158 78
99 165 85
97 159 79
90 153 79
101 167 85
96 160 82
97 159 83
100 164 84
92 154 80
95 160 84
98 163 88
101 165 86
102 169 91
97 163 83
88 148 76
94 158 78
100 166 86
91 153 84
92 153 83
92 152 81
96 162 82
99 164 88
98 161 83
93 156 81
91 152 79
92 152 78
94 157 84
95 159 88
99 157 83
96 160 86
91 152 80
91 151 81
103 168 92
103 169 93
99 164 89
103 166 91
92 153 83
90 149 84
93 152 83
97 159 87
97 159 88
101 165 88
87 148 77
92 149 80
94 155 87
89 146 83
98 162 90
93 150 84
92 152 83
96 156 86
93 154 85
94 154 86
90 148 83
96 158 88
88 145 80
96 159 89
88 146 80
86 142 81
93 153 87
93 154 81
95 157 87
86 143 76
91 150 84
91 144 81
94 154 86
93 151 85
92 154 87
96 155 86
97 159 88
91 150 81
89 146 80
98 158 88
93 155 87
98 154 87
91 150 84
91 148 83
91 144 83
97 155 86
92 147 82
96 155 89
88 140 77
93 150 84
91 150 85
92 147 83
96 157 89
89 145 82
93 151 82
94 155 89
95 156 86
91 146 85
90 145 81
92 148 84
90 144 80
86 136 77
90 146 83
85 140 78
84 137 77
91 146 82
88 142 80
91 146 81
93 148 84
92 146 83
90 145 83
94 149 83
95 149 84
94 148 83
91 147 84
89 141 79
97 149 86
91 146 84
92 147 84
91 146 84
100 160 92
97 150 85
95 149 86
94 150 86
90 137 79
97 152 86
94 146 84
98 153 89
96 151 87
88 138 79
95 149 86
102 160 92
98 151 86
93 146 83
97 154 89
99 155 90
91 147 83
93 148 85
96 150 86
96 152 86
88 136 79
97 153 88
103 160 93
95 146 83
92 140 79
99 149 86
98 152 88
99 154 88
100 146 84
96 146 84
96 149 84
95 146 82
96 148 85
100 150 85
100 150 86
95 142 82
102 161 93
93 138 79
98 145 83
93 140 80
99 150 86
89 136 78
99 145 84
95 137 79
105 160 91
96 141 82
99 142 80
94 137 79
100 147 85
97 148 86
99 146 82
99 145 84
99 149 85
91 133 73
101 148 85
100 146 83
93 137 78
100 148 85
100 142 82
100 148 84
99 146 82
93 129 73
94 137 78
95 135 78
93 136 78
94 131 76
97 135 78
94 131 75
96 141 81
95 133 77
96 137 78
96 142 81
97 131 74
97 132 73
98 136 78
96 131 75
93 118 67
95 133 76
92 121 68
100 133 75
98 131 75
87 120 67
96 124 70
97 126 71
94 127 72
97 139 78
99 140 79
93 132 72
91 113 63
94 130 73
100 138 78
94 127 70
98 131 74
90 116 66
93 114 62
94 126 71
88 109 60
96 133 73
96 133 74
91 124 68
95 123 69
95 115 63
88 112 63
96 123 69
93 119 65
89 107 59
96 123 69
88 105 58
96 120 66
91 105 57
90 110 61
91 114 63
90 113 62
85 105 58
98 131 73
88 105 58
94 119 67
98 119 67
92 119 66
98 124 67
92 113 61
90 109 60
91 110 59
97 126 70
96 118 66
92 113 62
92 121 67
97 123 68
93 113 63
91 113 62
93 115 63
87 115 64
95 118 66
97 126 70
94 120 66
100 124 69
96 122 67
92 116 63
93 115 63
96 123 68
95 121 67
98 122 67
104 145 81
99 127 70
97 121 68
100 136 75
94 114 62
104 128 71
101 130 73
105 133 74
105 130 73
101 136 76
100 135 75
100 125 69
104 146 82
106 146 83
104 140 79
107 144 80
110 141 80
112 155 88
107 149 83
107 141 79
101 137 77
109 153 87
108 153 86
106 143 81
107 144 82
103 142 80
111 148 83
109 181 84
106 177 77
106 178 80
107 178 85
108 179 83
110 183 84
107 178 81
110 183 85
108 180 85
104 176 74
108 180 83
103 175 75
103 175 77
102 174 75
102 173 80
95 167 69
101 174 69
101 171 77
101 173 77
102 173 73
105 178 75
104 176 80
99 170 69
97 167 68
104 178 79
99 171 72
100 172 70
95 166 66
95 165 69
95 167 67
92 162 65
96 167 65
92 162 63
94 165 60
96 168 63
98 169 68
94 162 61
92 162 68
100 170 67
90 157 63
101 172 75
94 163 63
89 158 60
95 163 69
88 159 64
97 166 67
87 157 60
94 161 65
88 159 57
98 166 64
91 158 59
96 164 64
96 164 68
87 155 57
90 158 60
90 161 59
89 157 54
93 161 66
94 162 64
91 161 60
94 161 62
91 157 62
95 164 66
96 165 71
90 156 65
92 157 63
95 162 65
95 163 71
87 152 63
88 156 61
93 158 70
88 152 59
89 155 63
93 158 72
92 156 69
95 158 69
95 160 68
92 158 67
98 163 68
97 165 77
94 161 74
89 152 66
96 160 69
92 159 70
93 157 67
97 162 71
96 162 73
91 155 72
90 156 68
90 157 70
97 160 77
99 165 78
91 154 70
99 163 79
92 157 75
95 157 78
106 175 85
97 162 82
100 165 75
101 166 80
99 164 72
100 165 84
96 161 79
94 159 73
93 155 76
97 160 80
103 169 90
93 157 79
101 166 79
103 171 83
101 166 83
96 160 82
99 163 79
93 157 80
97 161 78
90 155 80
94 154 79
91 154 79
99 165 84
92 151 76
94 155 78
91 154 76
97 159 85
99 163 87
92 153 77
94 157 77
98 159 89
102 165 89
98 163 82
95 157 80
101 166 89
95 158 82
98 162 81
98 163 89
94 158 84
97 160 86
102 166 87
98 160 88
87 145 76
98 160 84
93 154 78
96 159 84
94 157 84
101 162 87
93 153 84
102 166 91
93 156 82
93 155 83
93 155 78
99 163 89
102 166 90
98 161 86
96 159 85
102 168 93
90 151 80
96 157 87
94 154 83
94 156 85
96 157 86
95 158 86
94 156 83
87 147 80
93 153 83
88 147 79
92 151 83
97 156 88
89 148 79
93 153 84
86 141 76
93 155 86
94 155 86
98 161 90
88 147 83
94 154 88
97 159 87
99 160 87
93 156 79
94 155 87
94 155 88
81 135 71
91 150 82
90 148 82
90 149 81
97 160 89
89 144 79
95 152 84
104 167 93
98 157 88
92 147 83
88 145 80
99 161 88
94 152 84
96 156 86
85 142 75
90 146 80
95 155 88
86 141 79
92 150 83
90 145 84
88 144 82
93 151 83
96 158 89
97 153 85
93 154 87
95 155 88
93 151 86
91 149 86
95 152 86
100 160 92
89 144 82
98 153 88
98 153 87
93 150 86
84 139 78
99 160 90
95 151 87
95 153 87
87 145 82
93 146 85
94 152 89
90 143 82
95 153 89
85 135 77
95 152 86
99 155 90
87 138 79
96 150 86
97 157 90
95 153 85
93 148 85
96 151 86
102 161 92
101 161 93
87 135 77
96 150 87
95 143 81
92 146 82
86 141 79
100 161 93
97 150 88
96 152 84
94 142 81
98 155 90
91 135 78
94 151 86
93 143 82
97 154 89
98 158 92
98 155 90
104 162 93
97 154 88
103 159 90
101 158 92
98 149 85
98 151 86
95 144 82
98 145 84
95 141 81
100 154 88
96 142 81
98 147 85
98 145 84
104 157 90
96 147 84
97 151 86
96 145 82
101 154 88
100 152 87
91 142 81
99 147 85
98 151 88
98 141 81
95 142 81
94 140 81
103 155 90
106 159 89
100 147 85
98 149 86
98 146 85
101 153 88
102 153 89
99 149 86
102 149 85
95 137 77
95 147 85
99 145 84
98 145 84
98 142 83
100 148 85
98 141 81
101 140 79
101 146 84
92 137 78
96 141 81
94 138 80
102 144 82
99 145 83
90 121 68
103 149 84
98 140 80
92 131 75
97 140 81
101 145 82
97 137 78
97 139 79
99 140 80
95 138 78
101 142 80
99 139 80
99 135 76
93 130 74
93 126 72
97 135 76
97 139 80
97 132 75
95 136 76
95 132 75
96 125 71
89 112 63
97 127 72
96 131 74
101 145 82
101 135 76
90 116 64
96 133 75
98 131 74
98 131 73
87 110 62
95 125 70
92 123 69
94 127 71
89 117 65
94 124 70
98 125 71
100 128 70
92 112 62
96 126 70
93 109 60
95 115 64
91 114 64
92 118 65
90 113 64
95 123 67
91 117 66
96 124 69
96 129 71
96 119 67
97 124 69
95 121 66
100 136 76
96 125 70
98 126 70
100 128 71
93 123 69
101 137 77
97 122 68
93 123 67
95 122 67
91 117 65
99 133 74
97 132 73
102 134 75
91 110 60
94 116 63
99 123 69
94 121 68
93 114 63
99 133 75
98 125 69
98 127 70
94 117 65
102 135 75
97 124 69
103 134 75
103 139 78
105 141 79
100 131 73
95 127 71
104 139 77
100 128 72
103 137 76
105 136 77
105 141 80
104 134 75
106 145 82
96 123 69
107 142 80
98 126 69
104 132 74
111 144 81
108 140 78
103 133 75
110 153 86
110 139 78
108 146 82
107 148 84
108 149 84
104 140 79
110 152 86
107 148 84
111 185 88
107 179 81
107 180 81
105 178 83
103 176 80
108 180 78
107 178 83
104 177 75
105 175 76
110 182 85
108 178 84
105 176 76
98 171 68
108 180 80
105 179 80
96 168 71
105 179 78
100 170 69
99 170 68
103 178 75
96 167 66
102 171 71
98 168 66
97 170 72
99 169 73
99 172 73
96 168 60
100 169 74
97 165 66
93 162 63
102 172 75
95 165 65
100 172 74
96 164 64
94 165 68
99 172 64
94 164 66
94 165 66
89 158 60
97 166 65
97 170 69
96 166 66
97 166 67
91 159 64
99 168 71
92 160 61
94 160 70
92 161 66
88 156 61
95 166 67
90 156 66
94 160 64
94 160 68
92 160 63
89 158 61
95 162 69
90 159 56
92 160 61
91 159 66
97 164 67
94 161 63
99 167 74
93 164 66
90 159 68
93 160 63
93 162 64
90 156 61
95 159 71
95 163 64
98 166 67
94 159 71
87 151 65
96 162 61
90 160 63
100 168 77
92 159 67
93 157 67
100 167 78
97 164 75
97 161 73
97 166 74
86 147 67
92 157 74
98 164 75
103 172 78
99 164 76
94 157 76
92 157 74
98 163 77
97 164 78
92 157 73
100 163 79
93 159 73
96 162 75
95 161 76
98 165 80
96 162 77
98 163 78
94 162 75
94 160 78
95 159 74
101 168 87
100 165 82
102 168 86
101 169 84
99 165 82
96 159 77
96 162 76
94 157 74
93 156 82
93 156 75
100 164 83
101 168 84
91 155 78
100 164 85
102 168 87
98 162 81
96 162 82
98 164 82
99 162 85
99 165 86
105 172 96
92 153 79
99 162 88
94 156 84
96 158 85
101 166 91
96 160 84
98 160 81
98 164 82
97 161 85
94 154 82
97 162 86
97 163 86
97 160 86
98 161 84
93 155 80
97 163 88
101 164 89
94 156 79
99 163 89
104 170 92
96 156 84
96 156 86
97 159 83
93 155 84
96 160 81
94 158 83
98 162 89
93 154 84
96 158 89
95 157 85
97 161 85
94 157 83
100 164 88
98 160 85
97 160 86
94 155 85
93 152 83
96 157 86
93 153 83
100 166 92
98 160 85
95 156 85
90 149 81
89 147 79
86 143 74
101 162 89
97 158 89
93 156 88
99 161 90
97 159 85
96 156 84
89 147 82
97 160 88
96 158 89
90 149 82
93 152 85
93 152 85
99 162 92
96 156 89
92 152 83
91 150 84
98 158 89
96 156 87
95 154 84
88 144 79
95 156 87
98 157 90
94 154 88
96 157 89
86 143 82
85 138 76
90 149 84
91 147 83
91 147 85
92 153 84
92 150 85
93 153 84
91 149 85
90 148 83
90 147 83
97 159 88
97 157 89
94 152 85
94 154 87
97 156 86
90 147 85
93 148 84
94 153 88
96 155 86
96 152 83
88 140 79
93 150 85
95 150 85
92 148 84
101 159 90
90 143 81
102 159 92
99 155 87
96 153 88
92 145 83
93 145 83
95 148 84
86 132 75
102 162 94
95 150 86
98 154 87
95 153 87
95 149 85
96 154 87
93 144 83
92 145 80
99 151 87
90 143 80
98 152 86
90 141 80
97 148 84
101 161 92
98 153 87
100 155 90
93 147 83
93 143 83
92 147 85
99 155 88
97 148 86
95 145 83
95 146 85
92 138 79
96 148 85
98 151 86
101 155 89
103 158 92
96 148 84
99 149 85
95 147 85
99 152 88
93 142 81
97 148 85
92 144 82
93 147 84
100 150 87
92 139 81
98 151 86
101 148 84
100 153 88
95 144 81
104 158 91
98 154 89
95 144 82
92 132 75
95 136 76
93 150 87
100 148 83
103 159 90
99 147 85
96 140 81
96 146 84
92 138 80
101 153 88
101 152 86
94 139 80
92 130 74
103 151 87
101 152 88
94 132 76
95 137 77
101 148 85
97 143 82
101 146 83
97 142 81
99 148 86
101 152 87
99 143 82
97 138 79
102 151 86
101 146 84
101 143 83
100 139 78
95 139 80
99 136 77
98 134 76
92 129 74
94 138 80
95 138 79
96 131 74
97 134 76
100 147 83
100 138 79
98 140 80
100 142 80
92 118 68
92 119 68
103 138 80
94 124 71
92 127 73
100 135 77
94 131 73
93 122 70
94 128 73
98 137 78
90 117 66
101 142 80
90 121 67
97 129 73
96 124 70
96 131 74
100 132 74
91 119 65
97 128 72
94 130 73
93 122 69
92 120 68
92 117 64
96 125 70
96 131 74
92 119 66
91 118 66
98 132 73
95 131 72
96 134 75
98 124 69
91 127 71
91 112 62
97 132 72
91 112 63
95 116 64
97 125 69
93 114 63
97 127 70
97 120 67
95 123 69
99 128 71
96 119 66
93 114 63
94 119 65
98 123 68
92 116 64
98 126 70
98 125 69
97 122 68
94 116 64
96 121 66
92 116 64
99 135 75
102 124 69
102 128 71
101 127 72
97 124 67
96 124 69
97 128 72
95 127 71
93 111 59
102 132 74
101 128 71
96 114 63
106 137 77
93 120 66
100 124 69
100 133 75
101 132 74
103 134 75
104 139 77
96 119 66
98 128 72
105 138 77
107 148 83
108 146 82
101 135 76
107 140 78
107 147 83
111 148 84
109 156 88
107 148 84
105 143 80
106 149 84
104 142 79
104 143 80
111 159 90
106 155 88
106 176 81
109 180 86
104 175 80
108 180 79
103 174 78
109 182 83
103 175 73
100 172 71
108 180 82
105 177 75
100 171 74
107 178 74
105 178 79
106 177 77
97 170 64
103 174 69
101 174 75
104 175 78
104 176 75
104 175 75
100 172 71
102 172 68
100 171 73
105 173 75
100 171 74
102 172 72
100 172 71
95 167 69
96 167 68
98 167 69
98 166 71
93 164 67
97 168 69
103 172 76
89 157 60
94 165 63
96 168 71
93 163 69
96 164 72
91 161 62
97 163 68
92 158 66
94 163 62
88 157 57
97 168 70
97 168 74
96 162 67
92 159 64
99 169 66
96 163 69
96 164 63
98 165 69
95 164 67
95 163 72
98 166 67
98 166 63
93 162 67
92 159 65
95 160 67
99 166 70
93 159 61
97 165 72
88 154 62
96 164 70
92 158 70
94 157 70
90 155 64
98 166 75
96 162 76
100 169 78
91 155 67
94 161 73
93 160 70
92 156 68
96 160 71
95 158 70
94 160 69
94 160 70
100 165 76
97 161 78
94 158 66
95 162 71
95 157 74
95 161 76
91 154 68
99 163 76
97 165 78
100 167 75
96 163 73
101 167 79
92 157 69
100 168 79
99 165 80
97 164 79
101 167 80
99 163 77
93 159 70
97 161 74
102 169 83
93 157 76
98 163 79
96 161 80
99 165 81
101 168 78
98 164 80
101 168 82
104 171 85
97 160 82
98 163 76
93 156 75
89 151 75
101 165 89
101 166 85
98 162 83
104 169 84
93 156 76
96 160 83
103 171 88
95 159 81
100 165 83
94 159 82
98 161 84
104 168 90
98 163 85
95 157 81
103 167 85
86 145 69
94 159 84
102 169 86
104 171 94
98 160 88
97 161 88
96 157 80
95 157 83
102 166 88
95 159 86
92 155 80
99 162 89
94 156 84
97 161 85
99 163 85
94 154 80
101 165 89
95 156 82
95 155 84
98 162 86
93 154 82
97 157 84
96 155 85
98 160 89
94 157 80
96 159 84
104 170 92
97 158 83
96 158 85
100 166 91
96 156 83
102 166 92
95 157 86
99 163 89
84 141 77
98 160 88
100 165 90
95 156 88
93 155 86
98 161 89
91 151 84
98 160 87
97 160 85
93 154 83
101 163 89
100 162 90
95 154 89
96 158 91
93 152 83
95 155 85
88 147 84
94 154 86
96 157 88
95 155 83
91 149 82
93 152 85
94 154 84
93 151 82
102 168 95
101 166 94
91 151 84
96 158 90
94 151 87
96 158 88
97 154 87
93 152 86
95 156 83
98 159 91
87 145 84
99 159 89
94 151 84
95 154 87
96 155 86
101 161 91
91 146 84
94 151 86
89 146 84
98 159 89
93 151 86
92 149 83
90 147 83
93 147 83
91 149 83
88 143 81
93 148 84
94 152 83
95 152 86
94 147 83
95 154 89
100 157 89
96 155 88
92 148 83
96 150 87
94 152 86
94 148 85
94 149 86
94 151 86
95 152 87
94 144 83
90 145 85
89 144 82
103 161 91
96 153 87
95 151 85
94 154 90
102 160 90
92 141 81
98 160 93
93 146 83
90 141 83
94 149 85
97 154 86
95 156 89
96 150 86
96 148 83
96 150 85
96 149 86
104 162 94
97 149 86
98 149 87
97 154 88
100 152 85
100 155 85
93 139 80
101 156 89
101 154 88
101 157 89
94 147 84
96 150 86
91 143 82
98 146 84
97 152 89
89 139 80
102 154 89
99 149 85
104 157 90
98 147 85
100 155 90
99 151 88
96 151 88
98 149 85
101 155 90
97 145 82
94 143 82
108 164 93
95 144 84
103 157 89
99 149 85
94 144 83
99 148 85
94 142 81
96 145 83
99 145 84
102 151 85
97 141 81
100 153 89
100 153 89
95 144 82
93 133 77
101 151 87
100 150 86
102 143 82
102 150 87
102 144 82
104 152 87
100 145 82
98 146 84
97 138 80
100 142 81
97 148 86
97 133 74
96 145 83
97 139 78
92 128 74
100 137 78
94 131 74
98 146 83
97 138 80
95 137 77
102 142 80
95 127 71
97 132 76
98 142 81
93 130 73
98 134 75
91 124 69
97 137 78
89 122 69
93 128 72
98 142 82
98 136 76
98 139 79
107 146 83
100 135 77
96 134 76
97 140 79
91 125 70
98 136 78
96 130 74
87 119 66
98 130 73
97 131 73
99 133 76
101 138 77
94 126 71
97 134 76
94 121 68
92 121 68
98 132 74
103 140 79
92 119 67
97 132 74
95 123 69
87 102 56
97 126 71
94 118 66
98 131 73
93 126 70
95 130 72
89 109 60
96 121 67
87 110 60
90 112 62
102 131 73
101 128 72
101 134 75
96 120 65
94 121 67
91 110 59
99 129 71
95 121 68
100 129 73
91 118 66
95 130 73
96 124 69
100 128 71
97 125 70
95 123 68
95 120 66
98 125 70
99 129 71
99 133 74
102 136 76
96 127 71
99 125 69
100 130 73
95 124 69
95 120 66
97 133 74
93 118 66
93 115 63
95 122 68
96 122 67
104 132 74
110 151 85
104 143 80
105 137 77
97 121 66
99 134 75
100 128 71
100 130 73
105 133 74
105 144 81
104 135 76
106 139 78
109 152 86
106 140 79
104 148 82
110 158 89
107 139 78
109 145 82
106 148 83
108 148 84
105 137 77
104 175 79
102 174 76
106 177 82
107 179 80
104 176 77
108 180 81
105 178 77
104 175 72
101 172 76
101 172 72
103 176 74
104 175 75
108 178 79
104 174 78
103 175 80
99 171 70
101 171 72
101 173 73
99 170 70
101 169 74
104 174 77
99 170 67
100 171 70
97 168 60
103 175 74
98 166 64
101 172 75
92 161 66
96 163 60
96 168 71
98 170 70
99 169 71
97 166 73
102 175 79
95 164 66
102 172 72
103 174 78
90 159 62
89 159 58
100 169 77
93 162 60
99 168 71
95 165 71
102 172 70
98 168 69
98 165 70
95 166 67
92 159 54
102 170 70
87 152 61
90 156 59
101 168 74
93 162 68
87 151 57
96 163 69
95 162 70
97 165 74
90 159 67
94 161 66
94 161 64
91 157 65
98 170 75
96 159 69
100 170 73
96 164 69
94 162 67
100 169 75
97 164 70
96 164 76
98 165 72
95 164 74
99 164 77
96 167 74
99 166 78
104 174 79
93 158 70
91 159 69
97 162 76
93 160 75
93 158 71
99 166 73
95 160 75
98 164 74
97 163 74
89 151 68
93 157 75
94 160 75
97 164 77
95 162 76
97 165 72
103 168 83
99 166 81
92 155 73
92 152 74
94 160 75
90 156 72
92 154 79
104 172 89
103 170 86
96 160 73
89 153 65
100 166 81
93 158 77
99 162 82
102 169 83
101 167 81
97 163 77
94 156 80
106 174 86
105 172 89
93 154 75
97 162 84
98 161 82
99 164 88
91 152 79
91 154 79
101 166 89
94 155 83
102 167 82
101 168 86
102 166 82
105 172 91
95 159 84
99 163 83
97 161 87
101 166 89
102 168 86
97 160 83
97 159 84
100 165 87
100 165 85
100 165 88
101 162 87
99 162 87
93 153 81
101 164 92
100 164 87
98 162 91
94 154 82
99 163 86
105 170 90
97 160 86
100 165 90
96 160 84
96 158 87
96 160 87
97 160 85
98 164 91
98 162 89
103 170 94
95 158 86
99 162 86
98 161 89
89 149 77
98 159 87
94 158 88
95 156 83
99 161 89
95 158 85
98 161 89
97 158 86
96 159 89
94 153 82
93 153 84
100 162 93
93 152 86
94 157 87
100 162 91
95 157 83
92 151 83
95 156 88
94 154 86
88 146 81
92 153 85
97 158 88
95 157 90
98 155 85
95 154 88
95 156 86
96 157 87
93 153 83
96 156 84
95 154 83
94 155 85
96 156 88
94 152 85
91 153 83
91 152 87
97 158 87
94 149 84
97 155 87
91 151 82
98 158 89
88 143 79
100 163 93
96 156 87
98 160 89
96 152 89
89 145 83
89 144 81
98 157 89
90 148 84
93 153 84
93 149 82
100 156 89
85 138 80
93 151 86
90 148 82
103 168 95
92 150 82
93 153 86
98 156 88
92 148 83
90 147 80
94 150 85
89 147 83
92 149 86
94 153 86
98 159 92
97 152 87
97 154 87
98 157 91
87 141 79
94 154 87
94 149 84
91 150 86
96 154 89
96 153 88
100 151 88
100 154 88
99 156 92
95 154 88
99 154 89
94 153 86
100 160 91
94 147 84
101 157 90
99 159 92
97 156 88
106 166 96
97 152 88
99 158 92
100 161 94
99 153 89
89 141 81
88 137 77
98 150 87
98 153 87
102 159 90
101 158 91
102 160 92
99 152 87
98 151 87
97 151 86
95 150 85
97 152 88
101 155 89
93 147 85
93 140 81
99 150 87
97 148 86
98 152 88
97 147 84
88 129 73
100 149 86
99 154 88
102 152 88
100 156 90
97 148 84
103 160 93
97 154 89
103 155 90
99 143 80
106 165 94
96 147 85
101 150 88
103 154 89
96 137 78
101 157 92
98 146 83
99 147 86
104 157 91
96 144 82
98 145 84
100 147 85
97 153 88
102 150 86
104 156 88
95 146 84
103 150 87
105 159 92
97 137 79
101 151 87
97 137 79
99 140 80
94 135 77
104 155 88
101 144 82
98 146 84
101 147 84
94 140 81
93 134 76
89 126 72
97 139 79
95 137 77
101 144 82
97 142 81
93 128 73
101 144 83
104 147 85
94 128 72
100 144 83
96 133 75
98 141 78
99 136 76
94 126 71
92 121 67
97 132 75
102 131 73
101 133 76
93 122 69
97 130 74
97 138 77
98 135 76
98 141 80
100 132 74
99 139 79
106 143 81
100 140 78
96 125 70
97 135 77
97 127 71
93 125 70
92 125 71
104 142 80
103 133 75
96 128 71
95 123 69
99 131 74
100 139 79
97 128 72
101 135 77
96 123 69
93 119 67
98 127 71
90 117 66
98 132 74
96 123 69
94 121 68
92 122 67
95 128 70
100 121 68
95 125 70
96 123 69
95 130 72
95 123 69
96 122 69
95 127 71
99 127 71
99 128 72
98 122 68
88 111 62
99 127 70
100 136 75
100 128 71
94 127 70
97 122 68
95 121 67
95 123 69
96 128 71
102 132 74
102 130 72
105 138 77
99 134 74
99 126 71
101 131 73
96 130 72
103 134 75
100 133 74
98 123 69
101 131 73
103 139 79
100 129 71
100 137 77
101 142 79
103 138 78
106 136 77
103 133 74
107 146 83
104 141 79
102 129 73
107 148 83
110 151 85
107 146 82
105 137 77
109 147 82
99 128 71
110 149 84
104 136 77
109 144 81
103 175 78
106 179 81
103 175 80
107 178 84
106 179 78
105 177 76
106 177 78
104 175 77
106 177 81
106 179 78
104 178 76
103 174 78
102 172 76
101 171 71
102 174 74
106 178 77
98 165 71
101 174 73
99 170 74
102 174 78
107 180 82
104 174 78
98 170 71
98 168 70
100 171 71
100 169 72
96 166 65
95 167 65
92 159 70
98 167 67
102 174 73
103 175 77
99 172 69
87 158 59
101 170 75
96 165 64
99 170 71
95 165 62
93 164 67
102 171 77
98 170 69
97 166 71
95 162 68
89 158 60
92 163 64
99 167 71
94 164 67
92 157 64
98 165 73
98 166 73
94 164 65
96 166 70
97 165 67
92 161 68
96 165 74
96 164 70
93 160 69
97 165 73
94 161 63
91 160 68
94 162 67
97 165 68
99 167 73
95 164 68
96 164 69
92 160 68
105 175 76
101 169 74
91 159 66
99 169 70
96 163 74
94 160 68
99 167 77
99 165 73
100 164 76
103 174 81
94 157 71
101 167 82
95 162 73
99 164 80
100 167 80
101 167 80
98 166 78
89 153 67
93 160 76
97 162 73
85 149 62
100 167 78
98 165 80
96 164 74
93 159 74
102 170 82
99 166 76
102 170 79
95 157 74
98 163 80
102 168 82
98 163 81
94 158 78
96 160 81
97 161 84
97 164 81
102 168 87
102 169 86
93 155 76
94 160 79
96 163 80
96 162 83
98 164 83
104 168 85
95 161 85
94 157 77
100 165 87
99 164 88
98 159 82
99 165 84
100 168 83
97 162 85
97 160 85
101 165 82
94 156 82
100 165 79
102 168 85
102 168 91
92 155 82
96 159 82
100 165 86
102 167 86
101 167 87
100 161 87
100 165 89
97 160 84
99 164 90
98 164 86
100 164 87
95 157 88
94 156 80
98 160 84
97 161 87
95 157 86
98 162 90
95 155 83
101 166 89
95 157 83
92 152 82
102 166 89
99 161 85
97 163 85
101 164 88
96 156 84
98 160 86
98 161 88
100 162 87
95 157 86
95 155 83
96 159 84
100 162 86
97 161 90
96 156 85
101 165 91
100 157 87
98 159 88
103 169 93
96 156 85
101 165 92
97 160 89
93 152 86
93 154 88
100 163 91
99 162 87
97 160 87
91 149 82
89 148 83
99 160 91
92 149 82
95 154 85
93 150 85
94 153 88
98 158 90
97 160 90
96 156 87
95 156 88
95 152 85
93 152 84
90 149 85
93 150 84
101 164 92
92 150 85
94 151 84
108 173 98
97 157 89
100 161 91
93 150 83
97 157 85
96 155 89
95 151 87
92 152 84
97 157 89
91 150 83
98 161 89
93 148 85
99 161 94
88 143 77
100 164 95
93 151 88
93 146 84
90 144 81
91 150 85
92 151 85
99 161 91
96 150 85
97 158 90
85 135 77
90 145 83
98 157 89
94 151 88
99 161 93
102 165 95
97 151 87
90 142 79
94 148 85
95 155 89
99 158 87
100 159 90
94 148 85
94 150 86
92 150 87
98 157 88
96 151 87
90 146 84
93 148 84
98 156 88
100 152 88
100 152 88
100 158 92
92 151 86
98 151 88
93 149 84
97 155 90
97 154 88
91 143 82
104 164 93
99 155 89
95 152 89
91 145 84
98 150 85
100 158 89
103 160 90
99 158 90
95 144 84
95 148 86
99 160 93
94 150 87
100 153 87
99 155 90
104 162 93
94 143 84
96 144 83
96 147 84
100 161 91
103 156 90
98 153 88
98 152 86
95 147 83
105 166 95
98 146 83
95 146 84
101 156 89
102 154 88
101 158 91
101 152 88
100 151 88
98 147 86
97 151 87
101 146 83
99 148 86
106 162 93
103 157 91
104 161 93
92 141 82
94 135 77
98 147 85
94 142 81
103 149 87
95 143 83
97 143 82
103 146 82
101 154 89
97 141 81
104 151 86
98 152 87
103 154 89
96 141 80
99 149 86
98 149 85
101 152 86
103 155 88
103 145 84
103 144 82
94 137 77
92 145 81
98 135 76
95 134 76
97 139 80
105 151 87
96 139 79
100 144 82
99 142 80
98 143 81
98 147 85
98 135 76
100 132 76
94 132 75
91 128 73
96 126 72
97 139 79
103 137 77
94 130 75
100 137 77
99 133 75
99 141 81
97 140 79
97 137 77
94 128 72
92 125 71
93 121 69
96 129 73
97 132 75
97 137 77
98 137 78
100 143 81
98 139 79
100 137 77
97 131 74
99 131 73
95 134 75
101 132 75
96 122 68
98 124 69
95 122 69
104 145 82
99 139 80
101 132 74
98 125 70
99 129 73
97 128 71
94 128 72
96 120 67
97 128 71
95 124 68
99 130 73
96 116 63
98 125 70
102 137 77
101 139 78
96 123 67
98 132 73
99 131 73
100 128 70
101 135 75
96 122 67
97 123 68
94 113 63
102 138 77
101 134 76
94 123 68
101 134 75
99 127 70
92 112 62
99 134 75
98 126 70
102 137 76
102 132 74
105 139 78
101 142 80
104 140 79
101 131 71
100 133 75
99 124 69
104 129 72
105 141 79
101 132 74
108 143 81
102 134 75
100 134 74
105 141 79
104 138 78
103 142 80
105 139 78
103 143 80
107 141 79
106 140 78
108 147 83
110 149 84
105 145 82
108 149 85
107 147 83
102 133 75
111 152 86
110 152 86
108 181 87
106 178 76
107 179 82
103 175 78
107 178 82
109 179 83
103 175 77
101 173 74
101 173 74
104 174 78
105 178 77
103 175 75
106 176 82
104 177 79
101 171 72
97 168 72
98 167 75
101 173 75
105 176 79
99 171 74
105 178 72
95 166 70
99 167 73
101 172 74
102 171 71
97 165 67
96 167 65
105 175 74
95 165 74
94 163 66
101 172 70
104 175 80
100 173 75
92 160 68
97 167 70
97 167 65
92 163 60
94 159 67
101 170 73
98 165 75
101 171 74
97 166 71
99 166 70
101 168 76
98 168 68
88 157 54
97 168 72
96 164 70
97 165 66
98 170 68
98 167 74
97 165 71
97 167 73
99 166 72
96 162 64
94 163 68
99 169 75
94 163 66
95 159 72
89 156 65
95 165 73
89 155 69
95 164 73
98 163 75
97 166 73
96 163 73
101 167 79
96 162 73
92 159 64
95 162 71
97 162 74
95 161 70
99 166 74
100 169 79
98 165 81
93 157 71
100 166 78
95 165 75
93 161 70
98 163 72
97 163 78
99 168 81
98 165 74
89 153 71
93 156 71
93 159 74
101 168 81
102 170 83
100 168 84
99 168 82
99 165 80
98 164 78
98 162 79
96 162 79
106 174 90
97 159 82
99 162 78
96 158 81
95 159 76
102 169 81
101 166 83
97 159 79
101 167 80
100 166 84
98 163 80
99 165 83
100 165 86
99 166 83
104 170 89
100 164 84
95 159 81
99 162 86
102 165 85
98 161 82
97 164 86
100 162 81
96 161 78
99 163 89
95 161 84
101 165 86
101 166 88
96 159 82
103 169 87
102 168 88
99 165 87
101 167 86
105 171 88
103 169 88
102 168 94
97 159 84
100 165 90
98 161 87
101 166 88
99 164 91
96 162 85
98 156 82
101 164 86
100 165 89
102 166 89
99 162 88
104 169 91
105 169 94
98 163 87
101 164 89
101 166 91
100 164 89
102 167 87
102 167 95
103 169 87
96 158 86
94 155 85
95 157 85
99 162 92
94 158 87
95 155 87
98 163 90
100 162 87
98 160 86
94 153 87
104 168 94
100 163 90
98 160 88
98 156 85
101 166 90
99 161 90
99 161 89
97 159 89
91 148 82
97 159 85
92 148 80
100 164 90
95 156 88
105 169 93
101 167 94
98 160 89
94 154 87
100 163 93
91 153 86
90 147 79
103 164 92
100 162 91
94 154 88
93 152 85
97 157 89
89 146 86
98 161 92
98 160 89
99 162 91
96 157 88
95 157 89
100 160 91
93 152 85
98 159 90
95 153 89
98 160 90
94 150 84
100 162 89
98 158 88
99 159 90
100 162 94
92 148 84
93 151 86
93 147 82
92 150 83
96 153 88
91 148 83
90 148 82
101 162 92
98 155 88
96 157 88
94 151 87
89 146 81
94 149 85
95 149 85
92 153 88
98 153 86
100 159 88
101 162 92
98 160 90
101 164 94
90 147 85
96 154 86
95 151 87
94 154 89
97 150 85
96 153 90
100 158 89
94 148 82
99 157 91
99 158 93
97 158 91
96 154 87
88 140 79
97 153 88
95 152 89
98 153 88
96 154 88
99 156 90
96 153 89
97 153 88
100 154 87
95 151 87
93 148 85
96 151 87
99 154 87
98 155 88
103 162 93
99 153 89
96 147 86
96 152 87
97 154 89
102 157 90
96 151 86
103 162 94
106 163 95
97 148 86
101 158 91
98 151 87
97 152 88
100 155 89
94 145 83
96 144 83
106 162 94
102 156 89
97 151 87
97 155 89
96 146 84
101 157 89
103 157 90
98 146 83
101 153 90
99 146 85
100 147 85
100 151 87
104 156 89
99 152 89
101 154 89
102 155 89
97 153 90
97 143 81
103 154 90
103 152 87
101 153 87
104 153 87
102 150 87
100 147 84
101 153 89
97 140 80
102 148 85
102 151 88
99 149 84
94 136 77
94 143 82
99 144 83
95 133 75
106 155 87
102 150 86
103 157 90
99 145 84
100 143 82
95 140 80
97 143 81
96 137 78
100 149 86
92 130 73
95 129 74
107 159 91
99 138 79
92 128 74
95 131 75
93 130 74
100 147 84
100 132 75
100 142 80
98 139 80
100 136 77
99 140 80
101 145 83
92 130 74
105 151 87
99 138 77
101 138 78
96 125 70
97 136 77
96 127 74
99 140 80
100 141 79
100 134 75
95 119 67
100 137 78
95 128 72
93 123 69
97 126 71
103 143 80
101 132 74
95 130 73
93 122 66
100 140 78
98 130 73
93 116 65
94 122 68
96 114 63
102 141 79
99 135 75
95 130 74
98 135 77
98 129 73
94 122 68
100 134 75
99 126 72
104 142 79
98 136 77
102 138 77
100 127 71
98 130 73
101 134 75
97 124 69
102 121 67
91 115 64
103 133 74
98 123 68
98 131 74
100 130 74
100 136 76
98 129 72
97 127 72
98 133 74
100 130 73
102 132 73
101 139 79
103 140 79
100 121 67
104 135 75
99 132 74
100 130 72
98 131 73
101 131 74
102 137 77
104 137 76
100 129 73
100 131 73
104 131 72
105 141 79
101 137 76
104 132 74
105 137 77
100 135 75
102 128 71
111 160 91
102 136 76
105 142 79
99 133 74
108 148 84
102 139 78
111 156 88
106 142 80
101 137 77
109 154 87
106 142 80
107 149 85
106 179 84
107 179 80
106 176 78
108 180 86
107 179 82
106 178 79
104 175 79
109 181 84
104 176 82
104 177 79
107 179 85
105 177 75
99 170 73
106 177 83
99 171 76
98 168 68
98 169 64
104 175 75
100 170 77
101 171 75
100 170 74
104 175 79
98 169 75
101 169 71
98 168 69
101 171 75
100 172 71
103 173 73
100 172 71
98 169 73
99 169 64
101 171 74
96 165 68
94 162 68
97 164 71
99 169 71
92 161 66
101 168 71
101 170 76
103 175 75
102 171 77
97 166 64
98 167 70
93 163 66
95 163 65
103 171 78
98 169 71
95 164 68
98 166 75
102 171 75
98 166 72
97 166 73
93 162 70
101 171 76
102 170 79
99 168 71
92 157 66
105 176 81
97 164 71
100 165 76
97 166 76
94 163 68
100 168 74
100 167 65
97 164 76
99 166 74
98 165 76
101 167 82
98 164 76
94 161 68
100 171 82
97 162 75
95 161 69
99 166 77
102 169 80
97 165 73
100 168 80
94 161 74
98 163 78
95 163 73
102 171 85
102 169 81
100 166 82
100 166 83
98 163 76
97 162 78
97 163 81
101 169 85
101 168 82
103 170 83
97 163 76
99 164 76
102 167 87
97 162 79
102 171 80
97 162 81
100 166 80
93 158 76
99 162 83
102 170 83
101 166 88
103 168 86
98 165 83
100 163 86
99 164 86
101 166 87
101 167 85
98 163 80
99 163 84
100 164 87
99 161 82
96 160 82
99 164 81
98 164 86
97 160 76
101 169 86
98 162 81
97 160 85
97 162 82
99 164 87
97 162 83
98 161 82
102 166 87
100 164 88
103 170 93
93 154 84
101 164 89
97 162 86
98 162 86
96 159 87
99 163 84
102 167 92
98 162 87
99 164 87
101 166 88
99 162 89
103 170 88
98 161 87
95 159 83
99 165 88
102 168 92
95 157 84
99 163 85
101 164 90
94 158 80
102 166 91
99 161 89
100 164 91
99 163 85
98 160 85
101 167 91
99 163 87
97 159 86
100 164 89
101 166 91
95 156 86
98 160 84
101 165 92
101 166 88
99 158 89
91 150 81
97 159 89
93 155 85
90 147 80
94 154 84
94 154 86
99 161 86
96 156 85
100 163 90
95 156 86
98 160 88
94 153 83
97 161 91
99 161 86
99 161 90
99 162 92
94 155 85
98 158 88
98 156 84
98 161 92
97 158 87
97 160 90
101 159 89
96 156 88
98 159 90
98 158 89
100 159 88
94 153 86
100 160 90
97 160 90
92 148 84
97 157 87
96 157 89
99 161 91
97 157 88
97 157 91
98 159 91
93 152 86
90 148 86
95 155 89
97 156 87
100 163 91
100 161 92
90 148 80
91 149 86
102 164 93
97 158 90
99 161 92
94 151 87
102 164 91
97 160 92
91 151 89
93 149 86
93 150 84
94 148 84
101 157 91
101 163 95
100 158 89
97 151 85
97 154 90
93 150 85
99 157 90
93 145 85
100 161 92
94 149 86
100 158 92
102 157 91
96 153 89
97 153 88
96 150 87
101 164 93
101 159 92
93 151 87
96 151 87
101 160 92
100 157 91
97 155 90
100 154 88
97 153 90
96 148 85
98 154 90
95 152 86
98 153 88
97 149 85
101 154 87
97 151 85
100 154 88
92 147 85
104 162 94
100 157 88
92 142 81
101 159 93
98 150 87
102 159 91
103 160 92
101 156 91
92 139 80
96 149 85
95 148 84
98 148 85
101 157 90
101 157 89
100 153 89
104 152 86
99 151 86
106 161 93
102 158 90
99 147 85
101 151 87
102 155 90
109 168 96
104 159 89
99 153 89
102 159 91
103 152 87
97 152 87
99 152 87
101 147 85
98 152 87
101 152 88
107 158 91
98 147 84
100 150 86
105 158 91
107 164 94
103 154 89
95 139 80
91 137 79
102 150 86
103 151 87
101 147 84
101 150 87
100 147 84
99 146 84
106 155 89
103 153 88
101 150 86
101 150 85
103 151 87
102 144 82
106 158 91
95 134 77
104 154 86
93 133 75
102 149 86
98 145 84
103 143 81
100 148 85
99 140 79
99 141 79
105 149 85
100 139 79
98 141 81
96 141 81
95 138 78
98 143 81
99 138 79
96 133 76
98 141 81
96 136 76
102 148 85
101 140 79
104 147 83
98 137 78
100 142 81
101 150 84
102 147 83
101 140 80
100 143 80
96 134 76
100 143 81
98 133 75
95 127 72
106 148 85
100 138 78
97 128 72
99 141 80
100 134 76
102 143 80
102 147 84
100 136 77
94 124 70
99 132 75
106 139 79
98 133 75
99 132 74
100 127 71
95 127 71
100 132 74
103 145 82
99 128 71
98 124 70
96 131 74
100 133 74
100 137 77
100 136 76
103 146 83
103 138 78
103 142 79
101 135 76
98 133 74
97 114 63
99 127 71
98 126 70
98 134 76
97 135 75
101 139 78
97 121 66
98 124 68
99 134 75
100 127 71
99 125 70
100 137 76
103 137 77
101 141 79
102 137 76
103 134 75
97 128 71
100 134 75
100 128 71
99 128 71
105 135 76
102 134 75
107 145 81
101 136 76
102 136 77
107 144 81
108 145 81
103 131 73
102 140 78
103 139 78
106 147 83
102 134 76
102 138 77
107 145 81
109 147 83
105 143 81
104 134 75
105 145 82
107 147 83
106 178 78
108 178 82
105 177 77
102 172 80
107 180 80
109 181 81
105 178 78
101 173 80
101 171 74
102 174 78
107 179 77
104 175 72
103 175 81
112 184 86
103 176 78
102 174 78
96 169 71
104 174 80
104 176 77
106 176 80
98 170 75
105 176 79
107 178 81
99 170 72
101 174 73
106 177 77
102 173 75
103 174 79
100 170 74
103 174 76
97 168 69
93 162 67
97 165 70
101 170 77
100 172 71
99 171 76
96 165 72
93 163 62
95 164 67
98 166 68
99 169 74
98 167 77
99 170 76
104 173 72
102 170 75
102 171 72
99 168 77
99 167 66
102 172 76
100 169 76
100 170 72
95 165 68
97 166 67
92 161 58
94 164 70
102 172 73
97 163 73
96 165 72
101 172 76
101 167 79
104 171 80
97 165 73
96 164 74
95 163 74
99 167 73
97 165 75
101 170 84
97 167 75
101 168 81
95 161 70
99 166 79
98 164 73
92 157 69
101 170 81
98 166 77
99 167 75
93 159 76
101 167 79
99 165 78
97 160 77
99 166 77
99 167 81
105 171 86
96 162 76
104 171 80
101 166 83
95 159 77
103 169 80
97 164 76
99 167 83
100 168 81
104 172 88
105 172 91
94 160 74
95 159 78
100 168 83
95 158 78
88 151 70
99 164 82
97 162 79
96 161 82
100 165 83
104 172 91
99 161 85
99 164 81
103 169 89
103 168 85
103 170 88
99 164 82
97 162 80
100 165 89
104 172 90
94 157 77
105 172 86
102 167 89
102 169 84
95 158 81
102 168 87
98 164 87
101 165 87
106 173 88
102 169 92
101 165 88
99 163 86
107 173 93
94 157 84
101 167 88
101 166 89
102 169 90
97 160 85
102 166 89
106 172 94
97 160 83
107 176 98
97 160 84
100 166 89
98 161 83
98 162 85
96 157 86
101 164 87
100 163 88
99 164 87
101 166 90
97 161 88
106 172 95
100 165 89
97 158 88
99 160 85
95 157 85
100 163 90
100 162 88
97 157 86
99 161 86
103 167 93
97 161 88
100 163 91
92 152 87
100 163 91
96 160 85
95 157 89
99 160 89
99 162 90
97 159 87
99 165 90
99 161 90
94 155 83
97 157 86
95 160 89
101 164 88
102 168 90
100 164 90
104 168 92
99 160 88
100 162 90
93 152 84
101 164 92
101 164 93
96 159 87
99 164 91
100 163 92
98 160 91
100 163 91
89 148 81
95 156 85
96 156 87
91 148 82
97 157 87
99 160 89
95 157 86
102 165 92
93 152 87
95 153 87
96 155 87
103 160 90
96 157 86
90 149 85
101 164 93
98 159 88
94 153 86
93 150 86
101 163 94
96 158 90
93 152 85
97 158 91
96 154 87
100 159 88
98 159 90
94 152 87
101 159 92
99 160 89
94 153 87
105 168 96
99 160 91
98 159 88
97 159 89
96 155 89
101 161 93
103 161 93
95 156 88
99 159 92
101 164 94
105 161 91
97 153 86
99 163 91
98 155 88
87 141 80
94 147 84
90 145 83
89 141 80
99 158 90
97 154 90
101 162 92
99 160 91
95 147 85
96 154 89
99 158 90
101 162 93
105 168 95
95 154 89
102 163 93
98 152 88
98 148 86
98 159 92
100 157 89
102 159 93
98 149 86
105 162 94
100 155 88
104 160 91
94 146 84
99 159 93
91 143 81
106 162 92
100 160 92
99 155 90
101 157 90
101 158 91
99 162 93
101 159 92
99 153 88
103 157 91
102 162 93
97 148 85
105 163 94
98 153 88
100 156 89
102 157 90
101 147 86
97 148 85
98 144 83
102 150 86
102 152 86
102 154 89
101 154 89
103 159 91
101 153 89
107 165 95
102 155 88
105 160 92
100 148 85
105 159 92
103 158 92
99 148 85
104 155 88
99 153 87
100 148 85
98 149 85
101 157 90
100 153 87
101 152 87
104 159 91
100 147 84
100 150 87
104 156 89
99 143 82
104 154 89
101 147 85
96 138 77
97 147 86
100 148 85
97 141 79
99 145 82
102 144 81
99 142 82
97 138 79
96 143 81
104 151 87
105 150 85
100 145 83
96 135 77
102 149 84
104 149 86
99 144 82
95 140 80
107 161 92
102 153 87
102 142 81
102 143 83
100 145 83
104 143 81
98 135 76
101 145 83
100 138 79
101 137 78
105 142 81
95 132 76
96 132 75
100 138 79
95 135 77
100 136 78
96 124 70
104 142 80
102 136 77
95 128 73
94 132 75
104 141 79
102 141 80
102 134 76
101 133 75
99 134 76
104 140 80
100 142 81
100 131 74
96 128 72
109 153 87
101 138 78
104 136 77
100 139 79
96 128 72
98 131 73
97 126 70
97 130 73
100 140 79
105 141 80
101 135 76
104 144 80
102 129 72
101 120 68
104 138 78
101 132 74
104 141 80
97 126 70
103 137 77
98 121 67
98 133 75
100 142 80
97 128 71
100 128 71
95 120 66
103 136 77
106 146 83
93 114 63
97 131 74
99 137 77
98 119 66
97 128 72
98 125 70
105 141 78
105 132 74
102 133 75
107 157 89
98 127 71
105 137 77
102 139 78
104 132 75
98 125 71
109 141 80
105 142 80
101 128 71
104 137 77
105 142 80
101 137 77
105 137 77
99 135 76
106 148 83
105 144 81
110 148 83
104 139 78
104 145 82
100 138 77
105 177 80
107 181 83
107 179 84
106 179 83
102 174 75
106 177 81
104 174 75
107 179 76
104 174 76
102 174 77
101 171 72
109 176 82
106 177 79
102 172 71
106 178 82
103 170 76
103 174 77
106 177 80
101 172 75
102 174 77
100 174 72
101 170 73
97 166 71
103 173 76
101 171 70
101 171 74
104 174 78
97 168 73
103 171 75
103 174 80
101 172 71
102 175 74
101 171 71
103 174 78
97 168 71
101 170 76
100 170 77
94 166 67
99 168 73
100 170 72
100 169 72
101 169 74
105 177 80
100 169 76
101 173 76
100 168 75
98 166 71
99 165 75
96 166 65
106 175 81
101 169 73
98 164 74
92 159 70
95 163 65
97 168 72
101 170 76
101 171 73
100 168 77
99 166 78
101 167 79
102 171 76
103 170 78
105 172 80
98 164 77
101 169 83
99 165 76
95 161 72
105 175 89
100 167 75
102 172 79
100 170 78
99 166 75
99 165 80
102 170 85
99 169 78
102 168 81
96 162 74
102 170 82
103 170 83
98 164 76
100 168 80
98 164 76
104 171 84
103 171 83
99 163 76
102 167 83
99 165 81
99 164 84
102 167 82
93 158 80
106 173 85
101 170 85
100 167 82
96 162 81
99 166 85
101 168 83
101 166 80
98 162 83
102 168 85
100 168 87
108 178 93
98 164 84
100 163 79
100 164 83
104 170 87
108 175 89
103 170 88
105 172 94
104 171 91
104 171 85
106 174 92
103 170 83
104 169 85
98 163 84
98 164 85
99 164 88
100 164 84
103 167 86
101 165 88
104 170 89
100 165 90
97 161 84
99 164 83
105 171 91
101 167 88
105 170 92
107 174 95
97 161 84
92 155 75
97 160 86
99 163 86
102 167 90
101 164 87
99 164 86
103 169 92
105 171 92
97 159 86
99 162 87
96 158 86
103 168 92
104 169 94
95 158 86
103 169 93
101 165 87
96 159 86
101 166 87
104 170 94
98 161 89
103 168 92
91 150 82
101 163 92
103 167 95
93 156 86
97 162 88
100 163 90
96 160 88
99 163 89
96 156 86
104 169 95
102 164 90
99 162 88
97 161 91
100 164 92
94 154 86
94 155 84
97 157 88
100 164 93
96 156 84
92 152 85
97 160 87
100 160 89
97 156 85
104 166 93
102 167 93
105 169 93
99 163 89
105 169 96
100 164 91
93 154 85
99 161 88
99 162 91
99 160 90
98 161 88
101 161 93
99 162 91
99 162 90
87 144 82
96 154 85
101 158 87
91 151 84
97 159 93
87 142 82
95 155 87
100 161 90
92 152 84
100 164 91
101 164 90
99 162 93
96 155 89
104 168 96
92 150 84
98 157 92
100 157 91
94 152 87
95 153 86
99 158 91
98 159 91
92 151 83
94 150 86
99 158 89
99 162 92
99 158 90
102 164 95
89 144 82
103 164 94
99 159 89
96 152 87
102 163 93
101 159 91
99 158 89
98 158 89
99 158 89
98 157 89
90 141 81
98 156 91
102 163 94
100 159 91
97 156 88
101 162 94
91 146 83
101 159 93
99 154 88
99 159 91
95 155 90
96 146 84
103 161 91
95 153 88
107 167 95
102 161 91
92 145 82
92 143 81
101 163 92
99 155 88
103 164 95
98 155 89
103 163 94
105 164 93
94 147 83
100 157 90
99 153 88
95 149 85
105 162 92
96 152 86
102 159 91
100 156 90
102 159 90
102 160 93
96 142 82
102 159 91
101 157 90
102 161 92
105 158 90
99 157 90
99 154 88
102 160 92
96 154 89
102 162 94
98 148 84
100 152 87
103 154 89
100 153 88
101 155 90
92 139 81
103 158 91
103 157 90
103 159 92
102 157 91
101 155 89
106 160 92
100 149 87
100 150 86
99 153 88
99 145 84
99 149 85
97 150 86
102 153 88
99 147 85
103 154 90
104 161 93
102 152 87
101 150 87
101 155 90
105 158 91
96 149 85
103 151 87
100 147 84
102 155 89
102 151 87
100 150 86
104 153 87
99 146 85
104 153 87
108 163 94
103 156 89
100 151 85
100 144 82
100 148 85
99 141 81
101 149 87
101 141 80
99 154 89
99 144 83
103 146 83
104 148 84
104 145 82
97 138 79
102 149 85
106 152 87
103 146 84
105 154 88
101 145 83
99 144 81
99 141 80
95 128 73
100 144 81
99 132 75
95 138 79
99 141 81
106 150 84
101 136 77
96 126 72
107 153 87
97 140 80
100 142 81
102 143 82
95 132 75
97 139 79
95 129 73
106 130 73
97 134 75
99 136 78
96 131 73
104 148 85
99 140 78
103 132 74
94 121 68
101 135 75
101 138 77
97 131 74
98 128 71
101 139 78
102 136 76
104 140 79
96 124 69
105 142 80
95 128 72
103 140 79
97 129 72
100 139 78
98 126 70
108 146 81
100 131 74
106 136 77
102 133 75
101 134 75
104 138 78
97 124 68
101 131 73
103 131 72
100 137 77
99 126 71
104 141 80
102 135 75
99 132 74
101 138 77
108 144 80
99 132 74
104 142 80
102 138 76
98 127 72
100 129 71
104 141 78
96 127 70
108 147 82
104 134 75
101 129 72
103 131 72
106 142 80
106 139 78
101 134 75
107 138 77
103 132 74
114 156 88
101 142 80
104 141 80
105 146 82
108 147 83
108 144 81
109 151 86
111 151 85
106 177 78
102 174 75
101 173 79
102 173 77
107 177 81
104 175 77
102 175 76
106 178 80
101 171 74
104 174 79
97 169 73
104 175 82
100 172 68
102 173 68
100 172 70
100 171 72
107 179 82
101 172 76
101 172 67
106 179 76
101 171 70
104 176 77
100 170 73
101 170 74
102 174 80
94 164 67
106 176 80
100 170 74
97 166 72
102 171 77
99 168 71
97 166 70
103 174 76
101 174 78
103 172 78
104 173 80
96 167 70
100 172 71
100 171 76
103 176 75
101 170 72
102 173 76
100 170 74
101 171 79
104 173 76
98 166 76
97 165 75
101 168 78
99 168 76
94 162 71
101 169 72
92 158 67
94 160 72
100 168 70
93 161 72
96 164 73
92 158 70
101 168 78
100 169 74
96 165 73
100 167 72
106 175 89
101 169 76
104 170 82
94 162 69
101 168 78
102 169 83
97 165 77
102 169 80
97 166 76
106 174 86
101 171 84
96 162 75
100 168 84
95 159 72
101 169 84
101 168 80
97 165 78
98 165 81
104 173 81
104 171 82
103 169 86
103 169 79
105 173 87
99 167 87
105 170 89
101 167 82
99 166 79
103 170 82
97 161 79
102 168 83
97 163 85
105 173 88
96 161 79
100 167 85
98 160 82
95 160 76
99 165 83
100 167 85
97 162 82
95 161 80
104 169 90
103 172 89
96 160 84
103 168 90
107 174 91
105 173 91
103 171 90
97 163 82
94 154 83
89 150 75
101 166 88
106 173 90
102 167 88
102 166 90
107 175 95
96 158 82
101 166 91
106 172 91
102 168 89
107 173 94
102 168 90
102 169 91
101 170 87
100 165 89
98 161 86
106 172 95
98 162 88
97 160 82
101 166 92
96 158 83
100 167 92
100 165 87
102 166 89
101 166 92
104 170 93
101 166 91
95 155 80
99 163 85
98 161 87
98 162 89
95 155 84
99 162 91
101 166 89
103 168 89
98 160 86
100 163 89
105 171 93
101 162 90
100 166 91
94 155 84
100 166 90
102 167 94
102 167 94
96 159 90
95 157 83
99 163 90
102 167 92
95 156 86
99 162 91
103 166 92
98 161 88
102 168 92
103 167 92
101 165 92
105 170 94
95 156 89
92 154 85
102 165 93
98 159 90
101 163 92
94 156 83
102 165 93
103 167 92
102 167 93
102 165 91
100 164 93
93 151 86
104 167 95
99 161 92
97 157 86
103 168 93
98 162 90
99 160 90
96 158 89
92 150 83
99 160 87
102 167 93
100 162 92
96 155 88
91 148 82
98 162 93
101 164 94
98 158 91
96 158 89
102 166 93
98 158 87
98 158 87
100 154 87
92 151 85
96 155 88
98 160 91
96 158 92
101 163 92
102 164 92
97 158 85
102 164 92
95 153 86
103 165 92
100 161 92
101 162 92
95 152 87
102 162 91
97 155 90
92 149 86
99 158 90
100 160 91
95 153 88
102 164 93
99 160 91
100 161 90
98 155 87
101 160 90
97 157 91
96 154 88
101 159 90
97 159 92
98 157 90
101 159 92
96 156 87
107 166 94
99 155 89
94 148 84
103 162 92
98 151 86
102 156 89
98 155 88
102 163 93
101 159 93
100 158 92
101 163 94
98 154 87
101 159 92
99 157 90
100 160 90
104 164 93
98 155 89
102 159 91
96 153 88
97 146 84
96 154 87
98 152 89
101 160 91
104 162 94
101 156 90
98 150 86
102 156 89
102 161 93
103 160 92
100 158 91
100 153 88
100 155 89
106 168 96
103 152 87
100 158 91
94 145 84
105 164 93
99 155 88
101 155 88
104 158 91
102 156 90
107 167 95
101 156 89
100 155 90
98 155 90
103 153 88
97 150 88
103 153 89
103 162 93
100 152 86
103 160 93
100 152 88
101 152 87
107 163 94
106 164 94
104 154 87
105 159 90
107 164 95
102 152 86
99 144 84
97 149 86
103 157 92
103 159 92
106 158 90
104 156 89
104 155 88
102 149 86
101 155 90
103 146 83
98 142 81
104 155 88
95 145 84
102 152 88
104 161 93
101 146 84
104 151 88
104 148 85
106 160 92
103 153 86
104 150 86
102 149 86
102 142 79
100 148 85
102 147 85
104 151 86
103 148 84
106 159 91
96 138 79
103 149 84
103 150 86
99 148 84
100 147 84
103 144 82
101 146 84
99 133 75
102 143 81
103 148 84
105 144 82
103 143 81
106 146 83
105 142 82
101 145 83
103 142 81
102 143 80
97 126 71
105 152 87
99 135 76
100 141 79
104 140 80
103 138 78
101 134 74
101 140 78
98 132 75
100 137 78
95 132 75
97 134 76
99 139 78
103 143 81
103 139 78
101 137 77
95 130 73
90 123 70
104 136 76
102 136 76
106 143 80
102 141 79
100 139 78
103 145 82
101 134 75
106 145 82
106 153 86
105 147 84
107 139 79
104 137 78
101 131 72
102 137 77
101 136 78
105 145 82
94 115 64
101 142 80
100 132 75
100 138 78
104 141 79
111 143 80
105 136 76
103 132 74
101 129 71
104 136 77
102 128 71
108 146 82
107 143 81
107 139 78
110 156 88
109 154 86
104 140 78
107 145 82
99 128 72
105 144 81
107 147 83
109 149 84
106 140 79
103 133 74
103 142 80
100 131 74
106 144 81
104 136 77
105 139 79
101 137 77
107 149 84
108 144 81
105 176 78
103 174 76
104 175 80
108 178 80
107 177 78
101 172 77
111 182 83
102 173 81
102 171 77
104 176 79
106 179 84
101 173 79
101 174 74
102 173 74
101 173 75
104 174 78
102 169 75
100 171 72
103 177 75
104 176 76
107 178 83
98 169 70
100 168 70
101 170 72
104 174 80
101 172 79
99 168 71
102 171 74
102 173 77
100 169 74
101 170 70
102 170 82
101 171 76
101 172 76
103 173 72
99 167 73
97 167 77
95 164 70
106 175 83
104 175 79
104 174 81
100 167 77
101 170 77
101 173 79
96 164 69
101 172 77
106 175 81
99 166 73
103 171 80
102 170 74
100 169 74
105 175 79
97 164 76
100 169 75
96 164 71
97 168 72
101 172 81
105 173 85
96 166 66
106 174 76
101 170 82
95 164 71
100 168 77
99 168 78
94 159 76
101 170 82
103 169 77
106 173 82
101 171 82
97 162 68
104 173 84
101 168 82
104 171 80
99 165 77
103 170 81
98 165 79
100 166 77
99 168 80
102 170 83
96 162 79
107 175 87
100 168 84
101 167 84
104 170 90
99 166 80
107 174 87
99 165 82
101 169 85
100 168 83
101 168 80
103 168 82
100 167 85
99 166 82
102 170 83
109 176 91
99 167 82
96 161 79
98 163 81
103 170 88
99 165 85
106 175 90
104 170 86
99 163 81
108 178 91
95 159 80
100 167 86
110 180 99
102 167 88
102 165 86
103 170 90
99 163 84
99 166 85
101 166 85
100 163 86
101 167 89
99 165 84
102 168 91
106 172 92
100 166 91
105 173 93
98 161 86
100 163 87
104 170 89
99 163 86
105 172 95
98 160 84
102 168 89
104 170 89
99 166 86
100 165 89
99 163 87
105 170 93
105 173 95
97 159 84
101 167 90
101 164 86
102 170 94
104 171 93
101 165 88
99 162 90
107 175 93
101 166 90
103 168 92
103 168 92
100 166 92
101 164 88
97 160 88
108 177 96
102 168 94
102 168 94
99 162 86
108 175 95
98 161 89
101 166 90
95 155 84
90 152 83
102 168 93
101 165 89
98 158 87
104 171 96
103 165 91
107 172 96
97 159 89
97 160 87
102 167 90
102 167 93
106 172 95
101 165 90
99 163 90
108 174 97
105 166 92
105 166 93
100 162 88
96 158 89
95 157 88
105 170 97
97 158 87
97 160 91
102 162 89
101 163 92
98 161 92
101 161 90
98 161 91
98 159 90
99 161 91
97 158 89
99 162 91
100 163 90
100 162 90
100 161 89
98 163 90
97 160 90
99 160 90
98 158 87
92 151 84
97 154 85
100 161 92
96 154 88
98 155 87
93 153 86
99 156 89
99 157 89
95 155 86
98 158 91
97 158 85
97 157 89
97 159 91
92 144 81
95 154 88
95 153 87
101 161 90
101 161 91
98 158 90
100 159 90
99 160 90
96 157 89
96 154 87
97 157 88
98 154 87
102 159 92
97 155 87
93 148 85
95 152 85
94 151 87
100 158 90
101 162 93
98 159 91
102 161 92
89 146 82
96 157 91
99 156 89
98 158 91
103 159 91
98 156 87
97 152 89
100 156 90
99 159 92
99 156 91
101 163 92
107 171 98
103 159 90
107 171 98
95 149 87
102 158 90
89 142 83
103 163 93
100 156 89
99 155 89
110 171 97
100 155 88
105 166 97
100 154 86
109 173 100
97 150 86
93 146 84
101 158 92
98 151 88
102 154 87
105 168 96
102 151 86
96 154 88
103 161 92
100 152 87
100 153 88
102 157 91
100 157 90
101 155 90
102 160 93
106 164 95
104 158 90
100 154 89
101 154 88
101 152 88
105 166 96
98 153 88
99 145 84
100 157 91
104 158 89
107 162 92
99 151 87
105 155 89
104 154 89
104 162 91
103 148 85
101 153 89
102 157 89
100 155 87
105 156 89
102 150 86
105 160 91
106 165 93
105 160 91
105 156 90
103 152 88
105 158 91
102 153 87
99 145 82
97 143 83
103 157 89
104 149 86
99 139 81
103 154 87
100 151 87
106 154 88
97 141 79
102 151 87
99 142 80
98 143 82
101 146 84
108 166 95
96 138 78
99 146 84
103 148 84
102 137 78
106 155 89
102 145 83
101 145 82
97 138 78
98 139 79
96 133 77
100 142 81
105 146 84
104 147 83
101 141 80
99 148 85
100 145 83
101 144 83
105 152 87
108 150 85
103 138 78
102 146 83
108 152 86
107 153 86
105 150 84
105 146 83
101 142 82
106 154 86
102 138 78
102 146 83
98 134 76
106 148 83
105 149 84
100 140 79
101 132 75
103 140 79
100 141 81
100 138 78
104 146 83
104 144 82
104 150 85
99 133 76
106 149 84
102 142 80
101 136 76
101 135 76
100 128 72
99 134 76
102 137 77
102 132 74
98 129 73
98 119 65
98 133 76
105 143 82
102 137 77
103 136 76
102 132 74
101 142 80
94 125 70
102 135 75
105 145 82
104 139 78
100 132 74
107 146 82
101 140 79
106 143 80
105 151 85
105 142 81
97 126 70
100 136 76
103 139 78
99 131 74
106 147 83
102 136 76
96 124 70
105 145 82
106 144 81
101 133 74
104 141 80
103 135 75
104 138 78
102 137 77
103 139 78
107 148 83
107 147 81
110 151 86
106 147 84
107 151 85
105 143 81
108 143 81
103 131 73
100 171 78
103 175 78
106 176 75
109 180 85
106 178 81
108 179 85
108 180 83
109 181 81
100 171 75
105 175 78
104 176 79
103 175 74
105 174 77
102 171 77
97 167 62
101 171 78
108 179 84
106 175 77
107 180 78
101 172 70
101 170 77
102 172 73
101 173 74
104 175 79
100 171 72
95 162 70
105 175 80
102 174 77
103 171 73
103 172 79
105 177 83
97 165 77
101 172 77
100 169 75
100 170 76
104 174 80
101 171 77
100 171 77
101 170 77
102 172 76
104 174 78
102 171 79
100 169 72
105 177 78
96 167 69
104 173 77
100 169 79
101 172 80
100 168 77
104 171 84
105 175 77
105 173 81
106 176 80
101 170 79
99 168 74
97 164 75
106 177 80
100 167 80
100 169 73
102 172 78
96 164 75
99 167 76
102 170 79
101 170 85
98 168 76
97 165 69
101 169 80
99 167 81
95 162 76
100 168 81
99 166 83
102 169 83
99 165 78
106 174 85
103 172 80
103 171 82
102 169 85
108 176 90
100 165 79
106 174 88
95 159 84
96 160 78
100 167 83
103 170 84
103 169 85
105 173 90
103 171 86
98 163 86
100 165 81
99 165 87
101 168 87
102 170 85
97 163 80
102 168 83
103 169 87
107 176 93
96 160 83
107 176 91
104 172 90
102 169 87
101 166 85
102 169 84
102 166 84
103 171 89
100 164 84
96 161 84
103 169 89
107 174 93
102 169 89
100 165 88
100 164 87
100 165 88
103 171 92
101 168 88
100 164 87
101 167 86
105 171 93
97 160 86
99 164 88
104 172 90
101 165 86
96 161 86
98 164 86
109 175 95
96 160 84
107 173 92
103 166 87
100 165 91
98 165 89
97 159 85
102 168 91
103 168 87
106 170 93
99 162 87
99 165 90
101 167 91
107 174 96
101 166 86
102 168 89
104 170 89
100 165 90
104 169 93
105 171 93
101 164 94
102 168 93
105 171 93
101 167 94
95 157 86
102 166 91
99 163 89
105 170 93
101 164 94
103 166 92
98 161 87
98 161 87
99 164 92
103 169 93
107 173 95
94 156 88
101 166 95
97 161 88
104 170 95
100 165 92
102 165 90
97 159 90
101 164 92
96 157 89
99 164 92
104 170 93
95 155 88
98 159 89
95 153 82
104 169 95
96 158 87
96 158 88
102 165 92
94 154 85
98 162 91
98 159 89
105 172 96
102 165 94
95 154 86
100 163 91
95 157 89
100 161 89
101 162 90
98 159 90
102 164 91
99 164 94
102 165 93
104 167 94
94 151 86
92 153 88
102 165 91
102 167 95
105 168 96
99 161 90
95 158 89
98 158 90
101 164 93
100 157 89
101 166 92
100 162 92
100 163 91
100 164 93
105 163 93
102 160 91
104 169 98
104 167 95
98 160 93
96 157 88
100 158 92
98 161 91
97 158 90
99 159 90
100 160 90
103 167 95
99 159 92
100 152 88
92 146 84
94 149 84
92 150 85
96 152 89
99 156 90
99 160 92
98 153 89
98 156 89
102 160 91
101 159 90
101 160 93
100 158 91
101 159 90
101 159 91
98 158 92
104 163 95
98 157 91
104 168 97
106 165 94
103 164 94
99 160 93
101 162 93
102 161 92
101 159 90
104 162 94
104 163 93
101 154 87
98 158 92
101 159 92
98 158 92
105 161 94
103 165 95
104 162 93
100 155 88
104 167 96
105 167 95
100 161 94
102 163 93
105 163 95
102 159 92
104 162 93
105 165 96
103 155 89
105 165 94
105 157 89
98 148 83
101 157 90
106 162 93
106 163 92
102 157 91
100 152 86
102 161 93
100 152 88
100 156 90
107 164 92
96 146 83
109 166 95
104 155 90
103 160 93
105 165 96
101 153 87
97 141 82
103 160 93
105 153 87
104 160 92
100 149 86
100 153 88
98 152 88
101 152 87
105 158 90
99 155 89
104 158 90
104 151 87
103 155 90
98 147 84
96 140 82
104 153 88
106 158 91
98 146 86
105 160 92
103 153 88
101 150 86
108 163 93
101 150 88
101 146 83
99 147 84
105 154 88
102 151 86
99 150 86
95 141 82
98 135 78
104 152 87
103 156 90
102 152 87
102 149 85
104 150 84
99 144 80
100 144 82
105 157 90
104 151 85
108 156 89
99 138 78
105 153 88
96 136 78
101 152 88
107 159 91
104 153 87
98 143 81
105 149 84
95 131 74
102 148 83
102 143 80
97 140 80
103 148 84
102 142 80
99 129 74
97 137 77
101 145 83
105 148 84
100 141 80
101 140 79
96 136 78
102 138 79
101 137 77
96 131 74
103 143 81
103 135 77
108 155 88
100 133 75
105 145 82
100 134 77
104 154 88
100 141 80
103 147 83
100 137 78
103 144 81
104 139 79
100 135 76
103 142 79
101 129 73
103 143 81
105 144 81
100 142 82
105 145 81
104 140 78
98 131 74
105 146 83
105 143 81
105 142 80
101 140 79
104 142 80
104 140 79
105 138 78
102 146 82
105 143 80
104 141 80
106 146 82
107 150 85
101 137 77
103 139 79
105 147 82
108 143 80
101 135 76
98 128 71
105 140 78
103 145 82
105 144 80
109 151 85
100 129 73
105 143 80
105 137 77
103 135 76
107 142 80
102 141 79
106 142 80
103 138 77
101 143 81
107 147 82
107 142 79
106 143 80
103 130 72
105 176 78
102 175 78
105 177 86
109 181 81
101 171 77
110 180 83
110 179 86
100 169 77
103 176 76
108 179 79
104 174 84
104 176 75
99 170 76
106 179 82
101 172 78
106 177 82
99 165 73
103 174 81
106 176 76
108 178 79
105 176 80
103 174 78
104 175 81
96 166 69
102 175 77
100 167 76
109 178 80
102 172 79
107 178 88
98 167 77
106 174 85
105 176 76
108 178 85
102 171 80
100 171 75
104 172 77
100 170 77
102 171 78
102 170 76
101 170 78
101 169 76
102 170 79
97 166 70
100 166 74
96 166 76
103 172 77
97 163 75
103 171 81
94 162 74
97 163 73
104 174 79
106 176 85
105 172 83
101 168 81
97 164 74
95 163 79
100 170 75
103 174 79
103 169 84
103 172 81
101 170 79
101 168 82
103 171 84
101 170 86
98 168 80
104 172 83
98 164 75
103 170 83
98 162 75
104 171 85
98 164 73
98 167 82
99 165 76
101 165 78
100 165 83
96 162 78
98 165 80
100 167 85
102 169 79
102 169 81
101 167 85
98 165 80
96 162 75
104 172 84
102 170 85
100 168 82
101 168 88
102 169 88
102 169 88
102 167 83
106 175 85
105 172 86
99 164 86
103 168 84
99 163 84
97 161 81
100 166 83
100 164 80
100 166 82
106 175 89
98 164 83
102 169 84
104 172 85
98 164 84
103 170 91
103 173 90
104 172 86
95 162 80
100 166 89
104 169 91
102 167 90
98 163 87
99 164 85
107 174 96
106 171 91
100 165 86
102 171 88
103 169 90
104 172 89
99 163 89
104 171 92
108 173 96
100 166 87
104 169 90
103 170 93
109 176 95
109 177 96
98 161 88
100 163 87
103 170 94
100 164 89
105 171 89
100 165 88
103 168 93
105 173 96
95 158 83
101 167 92
98 161 85
104 170 94
104 171 94
105 173 94
101 167 86
101 165 90
104 169 92
93 153 85
100 165 90
99 163 88
98 162 89
104 169 92
98 162 89
102 165 92
105 171 93
100 166 92
101 164 91
105 169 95
102 165 88
109 176 97
102 166 91
103 168 94
98 159 89
106 171 93
102 166 93
106 172 94
97 159 85
103 167 95
93 154 85
100 162 86
100 165 92
101 163 91
99 160 91
98 162 89
99 160 93
101 165 93
101 165 92
108 174 98
105 171 95
99 160 89
96 157 87
108 176 98
92 149 82
105 172 98
101 163 89
103 167 94
99 163 92
99 161 90
96 156 89
105 170 98
104 168 96
92 149 84
97 156 90
104 167 95
101 161 93
105 169 96
98 160 90
101 163 93
100 162 91
102 164 91
94 156 86
96 155 88
101 164 93
98 156 89
102 162 92
102 163 93
98 160 91
99 159 91
96 155 90
97 155 89
99 161 91
103 165 95
98 159 91
101 163 93
99 159 91
101 162 93
97 157 89
107 172 98
103 164 95
97 156 89
101 160 89
103 164 93
99 153 86
98 153 86
102 166 96
94 152 89
100 162 91
109 171 98
100 158 91
98 158 90
98 153 86
95 151 88
95 150 86
100 155 86
104 164 95
96 155 90
98 155 88
101 158 90
97 152 88
103 163 93
101 160 93
104 169 97
104 159 91
98 152 83
103 160 93
107 167 94
93 143 82
102 161 92
102 160 92
99 154 88
103 160 91
106 165 96
98 152 88
101 155 89
100 158 91
100 157 89
105 165 95
96 145 84
100 148 83
103 161 93
105 163 94
104 162 92
102 158 90
102 154 87
105 161 92
102 157 90
101 155 89
100 157 90
104 159 90
104 166 96
106 165 94
97 152 89
102 152 87
105 165 95
107 169 98
100 153 87
104 161 93
100 152 87
101 153 88
104 159 92
104 158 91
104 157 91
97 149 86
103 162 94
107 162 94
103 159 91
102 156 90
105 160 92
98 147 85
106 155 88
99 154 88
106 160 91
103 160 92
110 166 95
100 151 87
108 165 93
109 164 94
108 168 97
102 154 88
100 148 85
105 154 87
103 156 88
98 148 86
101 147 83
103 150 85
107 161 93
105 154 89
95 145 86
102 149 83
100 146 82
107 159 90
106 151 87
99 148 85
105 151 87
106 155 89
102 146 84
106 156 90
109 158 91
105 148 85
102 147 83
104 153 88
103 153 88
103 148 85
105 157 90
103 145 84
100 133 76
106 148 85
106 151 86
100 135 78
104 147 85
105 152 86
112 160 91
104 149 85
103 145 83
105 146 83
101 135 77
100 137 77
103 151 86
98 131 74
105 145 82
102 146 83
102 142 81
103 144 81
98 136 78
107 152 88
96 138 79
106 147 82
106 145 83
103 148 85
102 140 80
103 147 84
103 135 76
101 144 81
102 141 79
101 137 78
102 132 75
100 141 80
101 138 78
96 130 73
104 147 83
105 140 79
96 132 74
101 139 78
101 138 77
101 135 76
105 147 83
97 128 72
103 143 81
105 145 83
107 148 83
104 137 78
100 127 72
101 131 73
105 145 82
100 126 70
102 131 74
101 134 76
104 137 77
107 148 84
104 138 77
107 151 85
107 141 79
101 137 77
102 129 71
106 141 80
102 133 75
103 138 77
109 144 81
100 134 76
102 136 76
106 148 84
108 150 85
104 140 79
100 131 74
111 151 85
106 148 84
105 147 82
106 143 81
108 159 90
109 154 87
103 131 74
108 145 82
110 149 84
109 181 83
103 174 77
104 173 76
106 177 80
109 180 84
106 177 82
102 174 78
101 172 79
108 179 79
104 177 76
102 174 76
107 178 80
101 173 76
103 173 77
106 176 80
99 171 72
105 176 75
104 175 77
108 178 81
103 174 76
99 171 75
101 170 73
95 162 71
106 175 83
97 168 73
110 181 89
102 174 78
105 176 81
99 168 71
104 176 80
95 164 67
100 171 79
103 175 80
97 168 67
106 178 83
99 170 74
104 176 79
99 167 71
100 170 81
105 172 75
101 171 71
100 170 76
101 172 75
100 168 79
101 171 72
101 169 82
104 172 76
99 168 77
104 173 79
96 164 71
94 164 68
100 169 76
103 172 77
99 168 78
97 164 83
102 170 79
104 174 83
99 166 79
102 169 84
102 168 74
97 163 74
102 170 81
99 166 81
100 168 78
103 171 84
103 173 83
99 165 75
100 168 81
105 174 88
101 168 84
103 171 74
103 170 84
102 169 82
105 173 86
99 166 79
105 173 81
101 165 82
102 170 78
97 162 79
108 176 90
102 167 87
102 169 80
98 166 82
102 169 82
106 172 86
103 169 85
102 167 89
105 172 86
101 166 87
104 172 89
100 166 86
103 171 88
101 166 82
102 168 85
95 157 71
103 169 86
99 164 81
102 167 85
105 172 89
100 166 81
100 165 85
101 166 88
95 157 80
96 162 82
106 173 94
103 172 90
98 159 85
106 172 90
101 167 82
102 165 90
102 166 89
100 166 88
102 166 91
101 167 83
104 170 91
102 169 88
107 176 94
103 170 93
100 164 91
101 164 90
100 165 84
106 173 94
101 167 90
103 169 88
97 158 82
102 167 92
99 165 90
101 169 91
106 171 95
101 166 92
107 171 91
98 161 89
108 175 94
105 172 95
102 167 89
106 172 94
102 170 93
101 166 93
103 170 91
102 167 90
102 169 92
101 163 86
102 167 92
99 164 89
100 164 88
97 162 90
98 160 89
97 159 88
101 164 92
98 161 89
95 157 86
105 170 94
99 161 91
99 162 90
104 170 93
103 169 94
101 166 91
98 161 89
97 161 87
99 162 90
101 164 91
98 163 91
101 164 91
105 172 96
99 163 89
102 166 93
99 157 88
97 159 88
100 164 91
100 163 89
101 164 91
103 166 92
101 168 95
100 165 92
100 164 93
100 164 91
103 166 92
102 163 91
95 158 88
98 161 89
91 151 85
94 153 83
104 168 96
102 167 96
98 161 90
103 163 92
95 157 88
99 159 91
97 157 87
102 166 95
105 170 97
103 166 94
99 160 93
92 152 87
97 160 90
99 160 90
97 158 88
101 164 95
100 163 94
94 150 84
106 172 96
104 168 94
107 171 97
98 161 92
100 161 90
100 161 93
103 164 92
101 158 88
100 163 93
101 162 91
102 160 91
99 160 90
99 158 89
103 164 91
103 163 94
96 153 86
101 159 89
108 171 98
98 158 90
103 160 93
102 160 91
100 164 94
96 157 90
102 157 90
99 160 91
98 159 92
104 163 96
111 175 100
104 167 94
100 159 90
104 166 95
99 160 92
102 162 92
101 155 90
99 154 90
105 164 95
94 153 89
94 149 84
101 155 90
96 153 89
100 155 91
97 152 88
102 162 93
104 161 93
101 161 93
104 162 94
102 161 92
97 159 92
109 168 97
105 164 95
101 163 93
108 166 95
104 162 92
102 158 90
100 157 90
100 154 88
104 161 94
98 152 88
106 167 97
103 164 94
104 160 91
103 159 91
102 158 90
109 173 98
106 166 97
106 161 93
106 168 97
106 162 92
92 144 85
104 159 92
107 159 92
105 157 88
104 163 93
101 153 88
98 155 90
101 160 92
104 161 94
101 152 87
104 156 90
103 155 89
101 151 87
102 152 88
101 156 89
97 148 84
99 147 84
108 164 93
107 165 95
101 154 88
105 162 93
100 152 88
105 161 93
102 151 85
102 153 88
96 145 82
101 156 90
106 163 94
100 154 89
102 145 83
102 151 87
101 148 85
99 143 82
106 161 92
102 151 86
107 152 88
104 153 88
104 147 86
103 152 87
100 150 86
101 149 85
101 150 85
101 146 83
101 151 87
99 144 83
100 143 82
105 158 89
102 152 87
101 149 85
105 154 89
107 158 89
100 144 83
104 152 87
100 144 81
104 155 89
104 148 85
99 139 79
104 144 82
98 137 79
100 144 82
102 142 82
102 152 88
107 153 87
101 148 83
103 143 82
106 153 87
98 140 79
105 154 88
104 150 86
104 146 83
102 147 84
103 148 84
102 146 83
107 157 89
99 134 76
104 145 83
104 146 83
104 142 82
101 143 82
106 149 85
107 152 86
101 139 78
102 142 80
103 134 75
102 136 77
109 154 88
101 137 78
101 145 82
103 144 81
105 142 81
102 137 77
105 144 82
101 140 80
102 144 81
99 133 74
104 143 80
103 146 82
106 144 82
103 138 78
102 134 76
106 145 80
101 137 77
101 138 79
104 136 75
98 137 78
98 124 70
106 143 81
99 133 75
104 147 82
106 144 81
106 141 80
105 146 83
97 124 70
104 149 84
106 146 83
105 149 84
101 130 72
104 147 83
104 146 83
108 149 84
110 156 89
103 147 83
101 130 73
107 148 83
108 142 79
106 144 81
106 149 85
110 154 87
105 145 81
106 148 84
104 144 81
105 138 78
107 179 83
109 180 84
105 175 80
104 175 80
107 179 84
108 181 80
108 179 87
102 172 82
102 171 76
109 181 85
103 173 77
108 180 84
105 174 84
107 175 77
103 175 82
103 172 77
100 170 76
102 172 78
106 176 80
103 174 75
101 172 77
109 180 81
103 171 78
104 173 74
101 172 78
101 172 72
102 172 78
108 177 80
105 174 85
103 174 79
99 169 74
104 174 79
101 171 82
103 171 80
100 170 75
96 164 75
105 172 81
108 180 87
105 175 82
101 170 75
105 176 83
103 171 83
102 172 79
102 170 82
103 174 75
101 169 81
95 161 71
103 171 80
105 174 84
96 164 75
99 166 76
104 172 84
103 175 86
98 166 77
98 168 78
109 179 88
103 170 81
96 162 75
97 164 83
100 166 80
98 166 76
105 174 88
98 163 76
97 164 73
101 168 80
109 181 89
103 169 85
105 174 83
105 175 84
100 168 82
102 170 83
100 167 79
100 167 85
104 172 85
107 174 88
103 169 84
105 174 89
104 173 89
106 176 88
103 172 88
102 169 90
103 172 90
105 173 90
102 169 84
102 167 81
103 169 88
103 171 85
106 172 91
106 175 92
98 164 83
108 176 91
106 175 90
101 168 87
106 173 93
102 169 87
99 165 83
102 169 86
105 172 89
100 165 89
105 173 92
103 169 84
100 167 86
107 176 93
100 166 87
112 179 96
100 164 85
103 169 89
99 165 87
109 178 93
101 165 84
101 169 89
94 158 83
100 165 88
106 174 93
106 174 90
104 168 89
101 167 90
105 169 90
94 159 82
101 167 91
98 161 89
104 173 90
104 168 90
106 171 92
100 165 89
101 165 90
103 169 90
105 167 93
98 163 87
98 163 87
108 177 95
102 167 90
106 170 94
104 171 94
107 174 94
102 167 90
103 171 94
107 174 93
106 172 93
103 171 92
96 156 87
98 159 87
100 165 90
101 168 89
104 169 94
103 167 94
105 170 94
104 167 93
104 169 97
100 162 85
102 165 90
102 167 94
102 168 92
94 155 84
105 170 92
99 160 90
99 163 90
104 169 92
105 167 91
102 168 94
103 167 89
105 172 95
97 160 89
97 161 90
107 173 96
101 165 93
100 165 90
101 166 91
100 165 94
99 162 88
104 169 95
95 157 87
96 159 88
100 163 91
100 161 91
102 163 92
92 154 85
100 159 89
102 166 91
96 158 87
101 162 90
104 169 93
101 165 92
100 164 92
102 163 92
101 165 93
95 157 89
100 159 88
99 161 91
97 158 89
100 162 92
101 165 94
101 166 93
94 154 86
99 161 92
97 158 87
96 159 90
100 164 93
97 157 91
99 157 87
99 159 91
98 159 89
97 155 88
100 164 93
99 162 93
93 151 86
104 169 95
105 166 94
100 163 95
93 153 89
102 162 90
102 165 93
103 170 98
101 161 95
100 162 93
98 154 86
104 167 97
98 157 90
105 164 94
103 160 89
106 169 97
102 161 90
103 165 95
97 157 90
101 160 90
97 155 90
99 161 92
100 156 91
99 157 90
103 157 89
97 154 88
102 157 92
99 158 90
100 156 88
99 158 91
98 156 90
102 156 89
100 159 91
93 148 87
98 154 90
99 155 88
101 161 93
101 158 90
103 165 95
103 160 92
103 165 96
105 167 96
105 163 94
101 161 93
105 165 93
104 162 94
102 156 90
102 158 92
103 163 93
100 158 91
106 167 95
100 148 86
98 150 86
104 161 92
103 163 95
103 156 90
104 164 94
102 162 93
103 161 94
107 165 95
100 153 88
99 154 89
106 165 96
104 162 92
108 167 97
104 162 93
102 156 90
104 164 94
102 155 89
97 151 88
101 159 92
101 152 88
102 159 91
103 161 93
99 153 89
103 160 90
97 149 87
101 158 92
106 159 91
103 158 90
99 153 89
104 161 93
101 151 86
103 158 91
102 159 91
104 158 92
102 144 84
103 155 89
104 155 88
99 150 85
101 151 87
99 151 86
105 158 91
101 150 87
105 156 91
104 152 88
99 150 86
100 143 82
104 159 91
105 161 92
103 155 90
100 153 89
106 159 90
105 157 90
98 143 81
105 160 91
105 157 90
107 159 91
103 149 86
105 150 86
106 163 94
105 153 88
102 152 87
102 153 88
101 149 85
98 144 82
101 139 80
104 155 90
100 139 78
102 142 81
104 153 88
103 149 86
100 144 82
101 144 82
99 137 79
102 147 84
103 144 83
108 162 93
96 138 80
106 150 86
105 152 87
102 147 81
104 134 76
106 153 88
103 147 84
103 139 79
102 146 85
105 149 85
105 147 83
107 149 84
101 146 83
105 150 86
104 144 81
103 141 79
102 136 78
103 143 82
101 145 83
107 150 86
103 134 77
100 137 78
105 141 81
102 140 78
107 149 84
100 144 81
97 124 71
102 139 79
104 149 84
106 143 81
104 144 82
101 133 75
103 132 74
102 140 79
106 150 85
103 146 82
102 138 79
104 146 83
106 145 82
102 135 76
103 145 82
103 136 75
106 142 80
102 131 74
100 135 75
109 151 85
108 150 85
107 150 84
101 131 74
108 146 81
105 145 82
106 138 78
106 155 89
104 140 79
106 146 82
105 143 81
106 141 80
106 152 86
106 146 84
105 141 80
104 141 79
108 143 81
105 144 80
105 143 81
104 143 81
112 161 91
106 145 81
104 176 76
110 183 88
112 184 86
107 179 82
108 178 80
106 177 81
105 175 79
104 175 81
101 172 80
105 175 82
105 172 76
104 174 81
109 180 86
110 181 86
106 176 83
98 167 75
103 176 83
98 168 70
103 173 76
102 172 81
100 173 76
99 167 78
99 168 75
107 179 80
104 173 75
109 178 91
105 175 85
102 172 80
100 168 75
102 169 77
100 170 78
104 172 83
100 168 74
101 171 79
102 174 82
106 178 78
109 181 86
107 175 85
105 173 81
98 167 77
99 168 76
98 166 74
104 174 83
99 167 78
98 166 74
103 172 87
107 176 89
100 168 79
105 173 87
100 168 73
102 170 82
103 172 84
107 176 84
107 177 85
106 176 90
103 171 78
98 165 75
102 167 85
103 170 84
103 173 79
107 176 85
105 174 87
100 166 79
108 179 88
104 169 80
106 174 86
103 170 81
100 168 79
103 170 84
100 166 82
100 167 81
104 170 87
104 173 86
98 165 80
101 166 85
103 172 86
100 166 81
103 172 86
99 164 82
104 172 86
101 169 88
102 172 81
99 163 77
108 177 90
99 164 82
105 171 89
102 170 85
109 177 93
102 170 86
105 173 93
104 171 86
105 174 90
107 174 89
103 169 89
102 168 90
104 173 88
106 173 93
105 170 86
105 175 93
103 169 87
106 174 93
102 170 88
104 169 88
107 176 94
100 165 87
104 170 88
105 174 94
102 170 88
102 170 87
107 175 95
99 163 85
100 164 85
103 169 90
106 172 93
103 170 92
103 169 88
101 167 87
101 167 90
103 169 91
102 168 89
105 173 91
103 169 86
102 167 89
98 161 90
107 173 94
108 174 94
106 174 95
104 173 95
102 166 90
98 162 87
100 167 88
105 171 93
107 171 92
104 171 95
103 168 93
103 170 95
106 172 94
102 165 93
104 168 93
102 168 89
106 173 94
102 167 91
97 159 87
97 163 87
104 168 94
107 173 96
106 170 94
104 168 91
102 163 91
109 174 96
102 168 91
107 174 99
97 160 88
103 168 93
101 165 91
105 170 96
104 170 94
101 167 95
103 166 93
102 168 95
104 169 97
100 166 93
102 166 93
104 170 96
98 160 88
102 168 94
101 165 93
98 162 93
100 165 91
102 166 94
100 164 90
105 167 95
103 167 91
105 166 94
100 163 91
100 161 88
99 161 89
101 163 88
97 159 87
99 162 91
100 163 91
105 170 97
101 161 91
101 167 94
96 158 89
94 156 89
94 155 86
99 163 93
103 167 94
99 163 89
97 158 89
97 157 90
99 161 90
94 153 88
100 163 92
105 164 93
103 166 95
96 158 89
101 162 90
92 151 87
100 159 91
101 161 90
95 157 86
103 167 95
102 165 94
101 159 91
95 152 85
96 153 90
103 165 93
98 158 89
103 165 94
101 154 87
102 161 92
98 160 92
105 168 95
102 166 96
103 166 93
104 165 94
101 164 95
99 157 88
108 168 96
96 155 88
106 169 95
100 159 89
105 167 97
99 160 91
95 154 84
106 167 94
103 160 93
104 165 94
102 163 93
101 161 91
96 153 88
100 159 91
103 162 93
97 151 87
98 158 90
103 161 92
100 160 92
100 161 93
110 169 97
108 171 97
99 160 91
98 156 91
107 164 95
106 164 96
96 153 89
99 155 89
96 148 87
104 163 94
102 152 87
107 169 97
99 157 91
103 161 92
105 165 94
106 163 94
103 160 92
101 157 90
99 156 90
102 160 92
102 159 90
102 160 92
108 167 96
104 160 91
101 157 89
105 165 94
104 159 92
103 161 94
105 168 98
110 171 98
104 162 93
103 157 91
102 155 89
104 159 91
101 149 86
105 166 95
106 162 94
102 154 89
102 161 92
103 161 93
105 158 92
102 158 91
100 155 89
101 153 88
97 148 84
108 170 98
106 165 94
104 157 91
107 162 93
106 163 94
101 159 91
104 159 92
104 158 91
100 150 86
99 153 87
104 159 91
104 154 89
105 159 93
102 158 91
104 157 89
104 155 88
103 157 90
103 153 88
105 155 87
105 159 91
104 153 89
104 149 85
103 154 87
105 156 89
104 154 88
103 154 88
108 161 93
102 153 89
98 142 81
101 143 83
107 162 94
106 155 89
104 154 89
99 146 84
108 154 88
99 139 80
100 149 86
105 154 88
105 152 88
100 145 83
103 152 88
103 147 83
108 156 89
108 155 90
97 143 82
105 154 88
102 143 83
104 151 87
108 158 90
102 141 81
104 153 88
100 140 80
106 150 86
103 147 82
106 149 85
107 152 86
104 146 83
102 137 78
103 137 77
99 139 79
103 138 78
108 152 86
99 140 80
102 144 81
103 143 81
106 147 82
100 137 78
105 140 79
101 143 81
105 151 86
105 154 87
102 145 82
102 142 80
105 149 84
104 142 80
103 141 81
107 149 85
107 150 85
104 141 80
103 138 78
107 151 85
101 140 79
108 142 80
107 150 86
102 140 79
103 149 84
106 150 84
100 136 76
104 137 77
107 143 80
103 144 81
97 127 71
100 131 74
108 154 87
107 152 86
110 150 85
109 153 86
108 142 80
105 145 81
103 143 80
103 141 80
108 148 84
105 142 81
103 140 78
107 149 85
108 155 87
106 142 79
105 146 83
109 151 85
108 147 83
110 152 85
109 153 87
107 148 84
108 150 84
108 143 80
102 172 81
103 176 80
105 174 82
106 177 82
104 174 82
105 176 75
104 174 78
105 175 82
97 166 73
101 169 78
108 178 82
107 179 80
105 176 83
108 179 83
101 172 77
103 175 79
102 171 75
103 173 78
103 175 79
99 170 76
104 175 79
102 171 80
101 170 79
108 178 86
104 175 80
104 175 76
103 173 82
103 173 83
107 179 78
102 172 80
99 168 77
98 167 73
109 180 88
104 173 78
105 177 81
101 169 77
101 167 74
98 168 74
101 171 83
105 174 79
104 172 81
104 174 81
103 174 81
103 171 79
101 169 79
105 173 82
100 169 80
106 176 85
105 174 85
102 168 79
106 176 85
105 171 85
104 174 87
101 170 83
104 175 88
104 173 84
106 175 86
100 168 83
105 175 84
105 173 85
103 172 84
103 169 80
104 172 81
106 175 84
103 170 82
104 173 91
100 167 82
97 162 76
100 166 87
108 177 87
105 174 88
107 173 88
103 171 87
100 167 82
103 169 85
101 168 80
102 169 90
98 165 79
99 166 83
104 169 84
105 172 87
98 163 85
106 175 94
100 168 85
103 171 88
101 168 84
100 166 81
105 176 91
106 174 92
103 170 89
102 168 86
107 175 90
101 169 86
102 169 87
104 173 88
106 174 90
106 170 91
97 162 84
103 171 92
106 175 91
106 172 89
106 173 91
106 173 91
98 165 87
99 164 85
103 169 90
102 167 89
101 166 87
104 170 90
99 165 91
103 170 88
105 175 96
104 170 91
101 170 89
100 164 87
98 160 82
100 166 89
98 164 86
102 168 90
103 170 91
102 167 92
99 161 89
101 165 87
97 162 89
103 168 90
106 169 94
108 176 95
108 175 96
104 170 91
105 172 91
100 166 90
105 171 92
103 168 91
102 166 90
110 179 97
102 168 93
101 167 92
104 168 91
104 169 94
106 174 94
102 168 90
108 175 93
103 167 91
101 163 90
101 167 92
107 172 95
108 173 100
101 164 91
106 172 97
104 167 92
103 167 93
97 159 89
105 166 92
108 175 97
97 158 88
98 160 88
99 160 90
101 167 91
106 173 96
101 164 94
98 159 87
104 168 91
102 165 92
103 169 95
100 164 92
103 168 94
99 161 90
94 155 86
101 166 91
102 166 93
105 168 93
103 166 93
98 160 90
101 166 94
103 169 96
92 152 85
98 161 91
101 163 92
97 159 91
98 155 89
102 164 94
101 161 89
102 167 92
105 170 96
100 162 90
102 165 92
100 160 90
103 169 96
99 160 90
104 170 95
100 161 91
95 152 85
102 166 95
103 168 95
104 167 96
98 160 90
103 163 92
95 154 88
97 158 86
98 157 90
104 166 93
94 151 87
106 170 96
102 161 90
104 167 95
106 171 96
100 160 92
107 173 99
95 153 87
96 149 85
104 168 95
106 173 100
101 162 91
93 150 86
103 166 95
101 161 93
105 168 97
102 160 90
102 167 95
105 164 93
103 165 94
103 168 96
105 164 95
98 155 89
107 172 98
102 162 92
99 156 91
99 158 89
97 156 89
104 165 94
98 155 87
98 160 89
103 165 94
100 158 90
94 152 86
107 169 97
98 157 88
98 158 91
100 163 94
103 163 94
98 158 90
100 158 91
102 157 90
105 167 97
101 161 94
104 162 93
107 165 96
103 160 93
107 167 96
111 175 101
102 165 96
102 163 93
102 157 91
103 166 96
98 156 89
104 164 93
108 173 100
97 154 89
106 164 95
105 162 93
104 164 95
105 161 93
106 169 97
106 165 94
100 154 89
107 168 95
101 157 90
104 161 92
104 165 96
104 160 94
105 166 95
101 159 92
106 162 94
103 163 93
104 163 94
107 164 94
103 159 92
105 160 91
103 156 90
108 165 95
103 161 92
108 169 97
105 162 94
107 160 91
103 156 91
103 155 89
107 163 94
103 155 88
102 159 92
107 157 91
108 165 94
103 152 88
102 148 84
106 162 92
106 163 94
104 157 91
105 161 91
105 155 88
105 159 91
101 157 91
103 160 93
107 166 96
101 152 88
102 154 89
110 164 94
107 157 91
105 155 88
104 156 89
104 159 92
109 159 91
108 159 91
104 151 86
101 146 85
104 154 89
102 154 89
106 156 89
101 148 85
102 151 86
103 150 87
104 151 86
108 159 91
104 158 91
102 147 85
105 150 85
105 149 85
107 158 91
104 148 85
104 152 87
109 158 90
105 154 88
106 154 87
104 155 89
104 154 88
101 146 83
104 152 86
107 152 86
104 146 82
106 155 86
108 156 88
105 148 85
104 148 85
100 135 78
104 146 83
111 156 88
105 147 85
104 146 83
108 156 88
99 142 82
106 149 85
101 144 83
104 143 81
103 140 80
101 147 82
106 143 80
106 148 84
107 153 87
106 147 83
104 144 82
105 143 82
107 150 85
109 155 88
98 132 76
103 139 78
108 143 81
108 157 89
107 156 89
107 153 86
102 143 81
104 146 82
105 143 81
98 138 78
105 151 86
101 142 80
101 140 79
104 146 83
107 151 86
101 141 80
103 147 83
105 148 84
100 138 78
99 123 68
106 150 86
104 148 85
105 148 83
104 148 83
112 152 87
109 155 89
105 143 81
108 154 86
105 144 81
109 154 88
110 154 88
112 158 89
107 154 88
106 140 78
109 150 86
104 142 81
108 151 85
107 148 84
110 148 84
106 177 77
109 180 85
100 171 76
111 184 87
102 175 85
110 183 90
109 182 87
107 177 84
110 181 86
109 178 86
106 176 81
109 181 91
101 171 74
103 174 83
103 174 79
106 174 83
102 174 75
108 175 86
100 169 78
108 179 79
106 175 81
105 172 79
101 172 82
106 177 84
103 174 83
103 174 77
101 169 75
105 174 81
94 160 73
105 173 82
103 174 81
107 176 86
99 167 80
103 172 78
103 174 81
109 178 86
97 165 80
106 173 82
100 168 75
108 179 85
104 174 82
106 176 84
104 174 88
105 172 80
100 167 77
101 169 80
98 168 76
103 171 80
104 171 83
105 173 81
104 173 78
103 172 82
101 168 79
103 170 82
110 180 92
103 171 86
97 163 76
96 164 79
103 171 84
107 177 88
102 172 84
105 171 83
106 172 86
109 178 88
101 168 80
108 177 90
100 168 82
104 175 87
105 174 89
102 169 86
106 173 85
104 171 84
103 170 86
103 169 86
102 167 80
103 170 85
105 172 83
108 177 90
97 163 77
102 171 80
98 163 80
98 165 80
103 173 85
103 171 88
104 171 91
108 177 83
98 165 83
106 174 92
103 170 91
97 162 85
106 174 92
105 172 89
107 173 91
105 172 90
102 170 86
102 169 86
104 170 87
106 172 91
101 167 91
107 174 94
104 170 90
101 164 88
100 168 89
103 169 89
111 182 96
107 175 93
105 172 88
103 170 91
106 173 95
106 176 92
102 164 87
106 173 95
101 166 91
101 167 91
99 164 85
103 169 90
103 169 94
101 167 91
105 170 96
104 171 92
100 164 86
105 173 95
98 160 85
100 163 89
92 156 81
100 166 93
106 172 95
104 171 96
103 169 93
99 162 87
103 169 93
100 163 91
108 173 92
108 175 95
111 180 98
100 164 90
108 175 92
106 173 94
100 164 90
99 162 88
97 159 88
105 172 96
105 171 92
106 173 95
99 163 92
99 165 91
103 167 91
104 172 94
98 159 88
99 162 91
101 166 88
100 160 89
102 167 89
99 162 91
101 166 91
99 162 90
105 173 97
97 159 91
107 175 98
107 172 98
99 161 89
102 166 90
98 157 88
106 171 95
105 170 97
99 161 88
97 162 90
98 161 91
101 166 96
100 162 90
96 157 86
102 166 96
103 166 94
100 163 90
104 167 94
98 160 89
101 166 94
95 156 88
100 165 92
104 167 93
105 169 93
108 174 99
100 160 91
102 165 93
104 166 91
107 175 100
99 162 91
105 164 93
103 168 93
101 162 92
99 162 90
101 163 90
104 167 95
99 160 91
108 169 95
101 163 91
95 152 86
102 162 91
104 169 95
97 156 86
100 162 92
103 165 94
106 171 98
100 162 95
100 161 91
106 166 94
106 172 95
93 150 87
101 161 90
104 166 96
107 170 97
103 169 97
104 169 95
101 161 93
99 158 88
101 162 92
97 157 88
99 159 91
94 154 89
102 167 94
101 159 91
97 154 89
103 162 93
102 163 93
104 166 96
99 161 91
103 160 93
103 162 94
101 158 88
106 170 96
101 161 93
104 163 95
100 154 87
106 165 94
104 167 96
101 161 92
104 165 96
104 164 94
104 165 96
103 164 95
102 158 91
98 155 89
103 162 95
111 176 102
105 166 95
106 163 94
101 161 89
107 168 97
103 163 94
105 167 97
102 161 94
98 155 89
106 164 93
104 162 91
100 161 91
97 156 91
104 166 95
103 162 92
107 158 91
100 161 93
105 164 95
96 146 84
103 160 92
107 165 94
101 152 88
96 150 86
104 164 93
102 156 91
104 164 95
104 166 95
110 173 99
104 158 91
101 155 90
109 173 100
104 160 93
107 163 94
106 166 96
99 154 89
105 158 92
104 163 94
104 160 92
106 159 91
101 157 90
104 150 86
100 153 88
100 153 88
108 167 97
104 159 91
105 163 94
100 157 90
101 152 88
105 162 93
103 155 89
108 169 98
102 156 90
108 163 93
107 164 94
102 158 91
99 149 86
103 155 90
107 161 92
99 151 86
105 160 92
104 161 92
100 150 87
107 160 91
104 155 88
103 154 90
104 159 92
104 157 90
101 153 89
107 161 93
100 145 83
106 161 92
104 157 90
105 154 88
106 160 91
107 157 89
102 151 86
104 155 91
100 149 86
104 149 85
104 151 87
101 153 89
101 144 83
110 161 92
101 150 86
106 153 88
110 164 94
105 144 82
110 162 93
102 150 87
107 151 85
108 157 90
103 151 86
101 150 85
105 155 90
103 149 84
107 154 86
104 138 79
102 146 83
108 154 89
106 149 85
108 158 89
108 157 90
104 145 84
104 147 84
102 141 81
104 150 86
97 139 79
103 150 85
102 147 84
104 145 83
103 148 84
101 141 80
107 140 80
103 142 80
103 144 82
98 138 78
102 142 81
111 162 92
102 147 83
101 140 80
105 143 82
100 132 75
106 148 85
106 150 85
101 131 75
99 126 71
103 142 81
106 154 88
104 142 80
102 142 80
103 141 80
96 124 70
108 150 86
107 147 83
111 159 89
110 148 84
104 146 83
106 147 82
102 135 77
110 156 89
107 145 82
105 149 84
103 140 78
104 148 85
104 130 73
101 138 78
104 140 78
108 156 89
109 157 89
109 155 88
104 151 86
109 149 84
103 137 77
106 150 85
106 152 86
110 157 88
105 149 84
108 180 83
113 183 87
108 176 82
104 174 77
105 174 77
104 176 81
113 185 87
108 176 76
100 170 80
106 176 84
104 176 82
104 175 78
107 177 81
107 177 82
101 172 74
102 172 78
104 173 79
103 172 72
108 178 88
103 175 87
111 181 89
99 171 78
107 177 82
103 176 78
104 174 83
107 177 81
103 174 79
102 169 79
103 173 80
98 169 77
102 172 77
101 171 82
105 175 83
106 175 84
101 167 78
108 174 85
105 173 83
104 173 82
103 173 82
106 175 85
102 169 78
100 169 78
105 172 84
105 176 82
106 176 88
104 174 86
104 173 83
101 169 78
108 179 89
107 176 87
108 180 88
104 171 85
108 177 83
101 169 81
100 166 79
98 165 79
107 173 88
101 168 82
101 169 82
104 171 81
108 178 89
102 167 80
104 174 83
102 171 82
107 176 89
108 177 89
107 176 90
99 164 82
100 168 80
108 178 92
110 178 92
105 174 87
105 173 87
102 169 82
107 176 94
99 166 80
104 174 86
105 171 84
104 173 90
103 170 88
107 177 88
105 173 82
107 175 92
103 168 84
107 175 92
103 169 88
102 168 85
105 172 84
106 174 91
99 165 84
109 177 93
101 168 86
107 174 92
103 171 89
104 169 86
107 172 95
97 164 81
104 168 89
105 170 87
103 170 89
101 165 90
99 162 88
109 177 97
97 159 84
105 172 90
102 170 90
102 169 86
93 155 82
99 163 82
104 171 92
103 171 90
105 173 91
101 167 90
97 161 84
99 163 81
106 172 95
105 171 88
104 171 92
101 167 89
103 166 89
102 166 90
102 170 92
109 177 97
102 168 91
103 166 90
103 168 91
104 171 96
101 166 90
101 164 89
101 167 90
102 167 89
106 173 95
98 163 86
97 160 88
100 161 88
105 169 93
103 168 92
99 160 89
104 169 94
98 158 86
103 169 94
103 168 91
102 165 89
105 169 91
98 162 92
100 166 90
101 168 92
104 169 94
107 177 98
103 170 94
109 178 100
99 164 91
103 170 93
104 170 96
101 162 89
106 171 98
100 163 90
103 169 95
104 170 94
105 172 97
98 161 90
104 170 94
98 160 92
101 163 92
108 173 98
107 175 97
103 168 94
100 164 90
100 162 91
101 163 93
105 171 95
99 160 91
101 164 92
108 175 95
98 160 92
98 161 88
102 162 95
101 164 92
102 167 94
99 162 92
104 169 96
97 159 90
98 159 88
93 154 86
105 170 94
105 170 95
100 163 92
102 163 91
100 160 92
106 170 97
102 167 96
101 164 93
100 164 94
98 157 90
99 158 88
100 162 90
101 166 93
100 163 94
99 160 91
105 166 96
102 164 94
95 156 90
100 161 92
101 163 92
104 169 95
105 166 95
96 156 91
100 160 90
104 167 95
95 152 86
97 155 86
96 156 90
102 165 94
103 164 95
101 162 93
102 165 95
107 170 96
103 168 95
105 167 97
105 169 94
103 165 97
104 166 95
104 164 94
102 165 94
99 157 89
102 162 91
105 163 93
100 159 91
103 160 92
98 158 90
107 170 97
102 159 92
102 161 90
103 164 95
100 158 90
104 166 97
99 151 86
103 165 96
99 159 92
101 162 94
104 165 92
103 162 93
106 165 93
99 157 88
103 164 94
102 162 92
100 160 92
104 166 97
105 165 96
97 154 89
99 159 92
103 160 92
108 171 99
102 158 92
102 162 94
100 157 90
104 162 93
98 155 92
103 163 94
103 160 90
100 156 89
99 158 91
106 167 96
105 167 96
101 162 93
106 161 92
107 166 95
102 157 91
106 165 95
101 156 89
106 166 96
102 159 92
103 162 93
102 158 92
106 171 98
105 163 93
108 166 95
100 154 89
102 158 90
102 157 90
106 164 95
102 158 91
102 154 89
107 167 95
108 163 92
105 156 89
100 157 90
101 146 84
99 152 86
106 162 93
102 157 91
107 163 93
107 164 95
105 161 92
105 156 90
105 162 94
104 158 92
107 163 94
104 156 89
100 144 83
107 163 92
105 157 90
107 163 93
102 156 89
103 155 89
105 158 90
103 154 89
110 161 92
100 150 86
105 155 89
106 159 91
100 153 89
111 162 93
103 157 91
102 150 86
101 144 83
102 152 88
106 155 88
102 149 86
106 149 85
100 145 83
102 149 86
98 143 83
103 155 88
109 159 90
102 152 87
101 143 82
108 159 91
106 156 89
107 160 92
107 160 92
104 156 89
108 160 90
107 155 90
103 152 87
108 152 87
108 160 92
104 152 88
99 144 83
100 139 79
109 161 93
108 156 89
108 150 82
108 153 88
101 149 86
105 153 88
103 145 82
102 142 80
105 146 83
100 130 72
109 155 88
105 150 87
104 151 87
103 148 84
103 139 78
98 138 78
109 153 87
105 151 87
103 148 84
109 160 91
104 152 87
102 139 79
105 149 85
95 132 74
111 159 91
100 139 78
104 148 84
107 141 79
105 149 84
104 149 84
102 148 84
106 149 84
100 141 80
105 147 83
107 150 85
104 147 84
99 129 73
109 149 85
106 147 84
110 158 90
103 143 81
103 150 85
103 139 78
107 146 82
109 158 90
107 149 84
102 137 78
107 148 84
104 144 81
107 151 84
107 152 86
105 153 87
105 150 85
106 147 84
112 160 91
104 140 79
108 148 84
110 155 87
107 151 85
110 165 93
110 181 88
112 184 91
104 175 78
107 179 85
104 177 80
105 176 78
104 176 81
106 176 81
104 174 80
109 181 90
106 173 84
106 176 83
108 180 85
103 175 76
112 182 87
100 169 78
109 179 84
99 167 71
107 178 83
102 169 79
108 179 79
105 174 79
105 176 83
98 167 74
96 166 72
104 175 84
105 175 85
107 178 85
105 175 79
105 175 85
109 179 87
106 175 85
108 178 86
103 170 82
103 173 80
103 171 79
106 174 84
104 171 83
106 175 84
108 178 86
104 175 83
101 170 81
102 170 82
107 178 87
103 174 78
107 177 85
103 171 80
99 166 79
103 170 86
102 171 84
106 174 87
103 173 80
106 175 86
105 173 86
99 167 80
105 175 84
104 170 89
105 172 86
100 164 78
103 171 79
103 170 84
103 168 86
99 167 77
110 183 94
102 168 85
103 170 85
103 171 83
103 171 86
104 170 81
105 172 88
108 176 87
103 169 90
105 173 85
110 179 93
102 169 85
110 181 93
100 165 80
100 166 83
103 168 87
102 170 87
106 173 89
105 173 94
99 166 84
106 173 90
101 168 87
102 170 88
102 169 90
104 172 90
105 175 88
104 171 91
108 177 94
105 171 89
104 173 90
102 170 89
101 166 87
103 169 93
105 172 94
104 167 90
106 174 93
103 171 91
103 168 88
102 168 91
104 171 92
101 168 89
105 170 89
100 164 88
101 168 86
104 166 89
101 168 86
105 171 91
106 172 93
102 170 93
104 168 89
103 171 89
99 164 82
107 173 96
104 170 87
103 168 89
101 166 87
101 167 91
109 177 98
108 176 96
100 166 87
101 166 91
99 162 88
109 178 97
108 176 95
108 176 97
102 166 90
110 179 98
100 165 91
106 172 95
96 160 87
100 163 90
102 166 92
105 169 93
101 164 91
100 164 94
99 165 91
109 176 96
108 174 98
108 175 97
104 166 92
104 171 93
104 171 94
104 169 95
98 162 89
104 168 94
104 168 93
104 170 93
105 170 91
100 165 90
106 172 98
105 168 92
100 163 89
106 172 96
98 163 93
106 171 95
100 164 92
98 161 90
99 161 89
97 159 88
106 171 96
102 167 96
107 174 97
99 165 94
101 163 90
102 169 92
103 167 92
98 159 90
102 168 92
102 165 92
104 168 95
105 170 95
103 169 92
94 157 89
108 174 96
100 162 91
100 160 90
99 163 92
104 168 95
106 170 97
100 162 93
103 167 94
99 162 92
99 160 89
99 163 93
102 166 94
101 165 94
103 165 89
104 170 95
97 157 87
108 172 99
106 168 95
96 158 90
106 171 96
106 171 97
100 161 91
101 161 89
106 173 99
101 159 88
101 164 94
105 169 97
100 164 92
102 164 92
102 167 93
103 167 94
104 166 92
100 164 91
104 167 94
100 162 94
105 169 96
102 163 93
103 162 93
96 154 87
105 169 96
104 165 94
98 156 87
100 161 91
99 155 90
103 165 94
100 161 93
97 150 88
100 159 91
100 160 92
101 161 93
103 165 95
100 157 91
101 160 91
100 158 91
102 163 93
107 164 93
99 159 90
105 169 96
103 162 94
100 159 90
105 166 93
99 159 92
101 164 93
102 160 92
105 167 95
103 164 94
104 166 94
102 165 96
104 163 94
102 165 94
104 164 95
101 159 91
105 165 95
98 156 91
104 164 95
99 157 90
104 160 93
99 157 91
102 160 93
108 169 98
105 165 95
100 157 89
107 166 95
109 172 99
106 167 95
107 167 95
99 153 88
103 164 94
103 158 90
99 155 90
106 165 95
105 162 93
99 155 88
106 159 92
98 156 91
103 156 90
102 160 90
105 167 95
103 157 91
102 160 93
98 152 88
104 158 90
102 158 92
106 163 93
104 159 90
106 164 94
110 171 98
104 158 91
105 161 92
103 160 92
103 162 92
106 164 93
107 164 94
104 162 93
103 153 88
107 163 94
106 165 95
106 162 92
108 158 90
112 173 99
101 155 90
107 161 92
100 153 88
103 155 89
107 162 93
105 158 91
103 156 90
98 149 86
106 162 92
107 163 94
106 159 92
105 162 93
111 159 91
105 156 89
97 139 80
104 149 85
103 154 87
104 157 92
105 154 86
109 166 95
104 163 95
106 163 92
105 155 89
109 166 97
102 152 87
102 155 90
105 148 85
106 156 88
96 142 82
108 166 95
100 141 80
98 143 83
102 147 85
107 151 87
97 138 77
106 155 88
105 150 86
102 150 86
100 136 77
101 150 86
105 151 87
107 157 90
105 155 89
111 162 93
103 152 87
102 141 81
105 150 86
105 147 85
104 145 83
102 144 83
104 143 81
102 149 85
106 148 83
106 152 87
104 147 84
98 142 81
103 147 84
107 154 88
111 160 91
106 155 89
103 147 84
106 147 83
101 141 80
106 152 87
106 147 83
105 150 85
110 158 90
105 150 84
104 144 83
102 141 81
107 149 84
105 144 82
106 146 83
104 146 83
112 159 90
106 143 81
110 157 89
105 142 80
100 138 77
104 133 75
106 156 88
107 148 84
107 152 84
104 150 85
105 143 82
108 153 87
111 162 92
105 138 78
104 146 82
97 124 71
106 152 86
107 149 84
107 149 85
111 161 92
109 153 87
103 141 79
104 140 78
111 160 91
109 149 85
105 142 81
107 148 84
106 145 82
113 159 91
107 148 84
107 179 85
102 172 78
98 169 74
104 175 79
107 176 85
101 172 81
108 180 86
103 174 76
106 176 81
106 176 86
108 178 85
104 170 79
107 177 84
111 182 90
103 171 81
105 178 88
103 175 82
105 174 81
99 166 77
107 175 80
106 176 86
102 170 81
103 174 85
105 176 77
110 182 85
102 171 81
104 172 84
107 178 84
107 179 85
99 167 78
108 180 84
107 177 83
104 173 80
106 176 86
104 173 87
105 177 87
108 178 92
105 174 86
103 171 83
109 178 86
103 172 78
105 172 83
105 175 80
108 177 85
107 175 85
104 173 86
101 168 85
100 167 81
105 173 84
101 169 80
101 171 82
106 175 82
103 174 84
103 170 86
108 178 93
102 171 87
103 169 85
107 178 86
101 170 86
102 168 79
104 171 89
106 175 88
99 165 84
99 168 83
105 173 90
104 170 90
109 178 94
107 172 88
102 171 85
105 170 89
109 178 92
112 183 92
103 169 84
102 169 88
102 170 87
112 184 98
96 161 82
94 158 79
94 159 83
105 173 86
105 170 84
104 173 90
107 176 90
107 175 91
108 175 90
103 170 90
101 171 90
107 176 94
103 169 91
105 171 89
105 174 90
106 173 91
106 172 90
97 163 89
105 171 90
107 178 92
105 172 91
101 168 90
101 165 85
103 169 89
105 172 92
109 176 93
109 178 96
106 173 93
102 168 88
101 164 85
100 164 82
108 175 92
103 170 87
105 168 88
102 167 88
104 169 89
105 174 97
104 171 94
108 175 93
106 170 93
105 172 97
102 168 90
102 167 91
102 167 89
105 173 94
103 170 94
107 174 91
107 177 98
104 168 92
105 170 96
102 169 88
107 172 93
104 167 90
104 170 95
99 162 90
99 163 90
105 172 94
102 168 94
103 169 92
104 169 95
103 171 96
107 173 96
103 169 94
96 160 90
102 167 90
96 157 86
99 163 87
103 169 92
106 173 97
106 173 95
101 163 93
105 171 92
103 169 94
101 164 90
107 173 95
105 171 95
98 161 91
99 165 90
102 166 91
108 175 99
104 170 95
105 171 96
105 171 94
101 166 93
102 166 89
93 153 84
109 177 99
98 162 90
105 169 95
96 161 89
100 166 95
96 158 89
107 171 97
102 167 95
107 172 97
101 162 90
99 162 93
100 165 92
97 159 89
104 166 93
101 166 92
98 162 92
96 155 88
105 167 94
99 162 90
100 160 90
106 170 96
105 167 94
102 168 95
107 171 98
105 167 96
103 165 93
99 162 93
103 163 92
101 160 89
100 161 91
108 174 97
101 161 91
100 162 91
100 163 94
106 170 97
103 166 95
101 165 92
98 162 90
99 159 92
102 163 95
104 168 95
97 157 89
101 163 94
103 167 95
101 159 91
100 159 92
105 168 98
104 168 94
96 155 87
101 163 94
103 164 93
94 148 86
103 165 93
103 166 94
101 159 89
106 170 99
102 162 92
102 165 95
102 165 97
109 176 101
103 168 94
100 157 90
100 158 91
101 159 91
106 169 97
98 154 87
103 165 94
103 164 93
101 160 94
98 154 88
102 163 94
102 165 96
103 166 93
108 169 96
96 157 91
101 160 91
102 159 92
105 162 91
101 160 92
106 167 96
104 166 94
103 165 96
108 170 99
109 172 99
106 165 92
106 171 98
104 161 92
109 175 102
101 158 91
105 169 97
101 161 94
98 157 89
102 159 92
104 162 94
103 163 95
109 174 100
99 158 92
107 172 100
106 168 97
103 165 95
104 164 95
106 166 94
103 160 90
101 153 90
105 164 92
99 157 90
105 166 95
108 170 99
106 167 95
103 156 88
106 166 97
106 161 93
105 161 93
105 166 96
103 162 94
103 159 91
101 153 88
102 159 93
105 159 91
113 168 96
103 158 91
107 165 94
103 163 93
105 161 93
104 160 93
106 163 94
107 161 91
98 150 86
102 158 90
105 158 92
105 162 94
104 159 92
101 158 91
103 158 91
106 162 93
106 164 95
108 170 99
103 160 90
108 164 95
103 161 93
112 173 99
106 160 93
105 158 92
111 171 98
103 157 91
102 154 89
104 155 89
107 157 90
102 153 87
106 158 91
103 159 90
101 149 85
106 158 91
107 160 92
101 153 89
105 151 87
107 161 93
107 155 89
112 169 97
105 161 92
105 157 90
98 145 84
105 153 88
104 146 84
101 146 84
103 151 87
100 149 86
106 156 89
102 149 85
106 153 87
105 160 92
104 157 91
107 157 90
106 148 85
103 150 86
99 143 82
103 151 87
105 153 87
108 156 89
105 144 82
105 155 89
105 153 89
108 155 89
103 147 85
107 147 83
109 162 93
102 143 82
107 154 88
109 153 88
107 156 90
108 142 81
104 147 82
105 151 87
103 150 86
110 154 88
105 149 85
104 151 87
105 151 86
107 159 91
107 150 85
104 147 83
107 152 87
103 138 78
105 146 83
106 146 84
103 148 84
106 149 85
102 141 80
106 149 85
110 153 88
107 152 86
104 139 79
109 156 89
106 155 88
106 147 84
109 160 91
101 139 79
108 158 89
115 168 96
109 154 89
105 149 84
109 149 83
106 144 81
106 152 86
110 152 86
107 142 79
107 143 82
108 151 86
106 144 82
108 145 82
110 159 90
108 152 87
107 148 84
103 144 81
105 140 80
105 152 86
105 153 87
106 148 85
107 176 86
107 177 85
107 179 86
107 180 87
110 181 87
104 174 82
111 183 88
107 177 83
102 173 79
103 174 77
107 176 81
106 175 81
106 176 84
104 173 79
99 167 76
109 179 88
104 173 79
103 169 76
109 180 89
109 179 89
102 169 78
108 177 86
111 181 87
104 175 80
104 174 82
109 181 87
106 177 86
104 173 83
106 175 84
105 170 80
107 176 86
101 171 81
104 174 86
108 177 88
104 174 84
101 170 76
107 178 85
106 175 87
105 174 86
104 173 84
102 168 82
109 180 91
106 176 83
97 166 77
102 171 79
103 175 86
100 166 83
104 174 86
107 177 89
103 168 84
107 175 91
105 171 87
102 169 79
109 177 90
104 172 86
101 167 85
109 180 88
104 172 84
104 172 89
108 176 88
101 169 81
103 171 86
106 176 89
102 170 84
108 179 93
99 166 85
105 175 87
107 176 91
104 172 87
105 173 89
103 171 85
107 176 86
106 173 91
108 178 93
105 173 90
103 171 88
108 179 94
107 177 92
102 167 85
106 174 88
106 176 89
106 174 92
105 172 88
105 175 88
106 174 92
104 173 93
107 176 96
107 175 93
105 172 92
103 170 89
104 172 88
103 169 88
101 166 84
112 180 94
107 174 92
104 172 90
107 175 97
106 174 93
106 174 93
109 178 98
104 172 94
106 173 95
107 176 96
107 174 96
106 174 93
111 178 96
97 161 89
103 169 88
108 176 97
106 174 93
103 166 90
103 168 87
105 172 92
108 176 94
106 173 93
105 172 93
107 175 94
108 177 96
110 178 97
107 173 94
110 177 95
101 165 89
108 176 94
105 169 92
108 176 96
105 169 91
106 171 94
106 174 96
108 175 94
99 163 89
103 167 92
99 161 89
100 165 89
105 170 93
104 167 94
107 172 95
105 172 95
98 163 89
104 171 92
101 168 93
104 169 95
106 173 98
102 166 89
101 165 93
105 171 95
104 171 96
109 176 99
101 166 92
108 175 95
103 167 91
104 169 94
100 163 89
92 154 83
100 163 89
103 168 94
100 164 90
106 173 94
103 169 93
101 160 92
98 161 91
98 161 88
106 173 96
98 160 86
99 163 91
104 169 91
102 165 88
101 162 92
98 159 88
106 174 97
103 168 95
104 171 95
103 168 92
101 164 92
106 169 95
96 156 87
107 176 99
100 163 93
103 165 92
100 163 88
106 169 96
105 171 97
103 166 95
101 165 92
104 171 97
99 161 90
104 169 98
104 168 97
103 167 95
100 161 90
101 161 89
102 165 91
104 169 94
103 169 95
94 155 87
101 165 94
102 162 92
99 161 92
103 163 93
105 171 97
99 159 91
105 168 94
102 167 92
102 162 90
101 163 92
97 158 90
104 169 97
100 160 91
105 164 93
101 163 95
104 170 97
98 159 91
98 157 91
103 166 95
96 154 86
103 166 96
100 161 93
101 163 91
97 159 90
103 166 96
103 165 96
105 168 96
100 157 89
105 167 95
99 156 90
102 166 95
105 163 95
99 160 92
105 170 99
101 164 94
102 164 95
98 158 90
103 166 96
99 158 91
109 169 97
106 169 97
104 166 97
105 169 97
106 170 99
98 159 92
106 170 97
107 168 96
102 162 94
104 163 94
103 158 90
103 165 94
102 159 93
104 166 95
106 167 95
104 164 94
106 169 96
101 160 94
110 172 99
107 170 97
107 166 97
106 164 96
102 161 93
104 161 94
107 167 96
101 157 89
105 165 96
101 157 90
110 170 98
104 163 94
108 169 97
103 158 92
106 165 93
106 167 97
100 157 91
110 173 99
108 164 94
110 175 101
109 165 95
108 171 99
107 166 95
105 164 94
107 164 95
107 167 98
111 172 99
104 157 91
99 153 87
109 170 98
105 161 94
106 166 94
109 170 99
100 151 85
110 166 96
106 162 93
105 165 94
113 170 98
106 160 91
105 157 91
103 153 89
106 166 96
109 170 99
108 166 95
107 166 94
104 158 92
105 163 92
103 155 88
107 166 95
100 148 86
103 157 87
107 163 93
107 155 88
110 162 93
106 163 95
100 149 86
107 157 90
106 160 91
102 154 88
104 158 92
107 163 94
99 149 86
103 159 92
102 152 88
102 153 88
105 158 91
106 158 89
103 151 87
101 148 86
105 157 90
109 164 95
103 149 85
101 150 86
102 149 86
101 148 85
107 157 90
99 149 85
103 153 89
107 160 93
107 157 89
108 153 88
109 157 89
107 160 91
105 151 85
104 158 89
94 134 77
109 155 89
108 158 92
107 161 93
103 150 86
107 157 90
111 157 90
103 150 86
107 156 90
102 144 82
104 143 82
109 160 92
107 154 89
103 150 86
106 155 90
103 155 90
108 158 91
103 148 84
102 148 83
103 150 86
103 140 80
101 142 81
107 148 85
103 146 84
106 157 90
110 157 90
105 146 83
106 150 85
111 155 88
103 143 80
109 156 88
102 143 82
101 137 77
107 153 87
107 153 87
100 144 83
105 142 81
110 158 89
106 148 84
101 146 83
107 150 85
106 149 85
109 152 87
104 150 86
104 140 80
107 150 85
107 149 85
109 153 87
108 158 90
107 155 88
109 151 86
108 152 86
104 138 76
105 135 76
107 143 82
109 155 88
109 152 87
109 152 86
104 145 83
103 139 79
110 150 85
108 150 84
102 137 77
112 159 90
109 179 88
109 179 84
108 179 81
106 179 86
109 181 89
105 177 84
104 174 84
110 181 84
107 179 82
106 178 85
102 171 81
110 182 88
107 177 83
103 170 81
100 168 77
104 175 79
108 178 84
107 178 78
103 173 86
106 175 89
107 176 83
108 178 84
110 181 90
108 181 90
106 175 82
108 179 90
106 177 86
107 178 83
107 174 82
109 178 86
103 171 79
106 175 83
103 173 84
105 174 80
102 171 85
105 173 87
108 178 86
108 177 88
108 179 88
108 178 85
102 167 83
102 169 82
102 171 82
103 171 87
103 170 82
103 169 84
103 169 86
103 172 88
104 175 87
106 175 88
105 174 80
100 166 79
106 175 84
103 173 84
103 170 86
106 174 88
103 172 82
103 171 83
111 180 94
108 176 95
106 174 87
107 175 88
103 172 85
104 172 85
100 164 86
102 171 87
106 174 90
103 170 89
104 173 82
106 174 88
102 169 84
100 169 90
105 174 87
102 168 90
104 171 86
106 172 90
108 173 91
102 168 83
108 177 92
106 174 91
112 180 94
101 166 85
104 170 92
100 166 91
110 178 94
111 177 92
105 170 89
106 173 88
100 168 89
106 173 90
105 172 90
101 169 88
110 180 96
107 175 90
108 177 93
102 169 87
106 175 95
104 170 91
102 168 92
105 173 90
98 163 86
103 172 89
103 170 94
112 181 97
105 171 90
106 175 95
107 176 91
105 173 90
105 173 97
104 173 93
111 181 95
102 168 88
99 165 88
107 175 96
101 167 90
104 172 94
106 174 95
107 172 95
103 171 90
107 175 98
108 176 91
108 179 98
105 172 92
106 173 94
108 176 97
103 167 90
105 170 93
104 170 93
104 170 93
107 174 95
105 172 94
106 172 96
102 165 91
106 173 96
104 169 96
109 177 99
108 176 95
107 173 95
100 161 88
98 162 88
107 175 99
100 166 91
106 171 94
105 171 97
102 168 93
101 167 95
100 164 87
106 173 93
99 162 90
104 170 98
103 169 93
105 171 96
104 169 91
102 168 94
106 173 100
108 172 93
103 169 93
104 168 96
102 168 94
101 165 91
103 169 96
103 166 92
107 174 97
104 167 90
99 164 94
102 167 91
104 170 95
98 160 89
110 176 100
107 171 94
100 166 89
101 167 95
108 172 96
103 166 92
99 160 87
103 166 95
102 165 94
106 171 97
100 162 92
106 168 93
103 166 95
98 160 90
103 165 95
104 167 93
102 168 97
108 175 99
103 166 95
105 169 98
103 164 94
106 169 95
100 164 92
99 162 92
102 163 91
98 159 91
104 168 94
106 170 98
96 154 88
101 164 92
99 162 94
110 175 100
107 172 99
99 161 89
100 161 91
107 173 99
107 173 99
109 175 99
99 160 91
103 164 95
95 151 84
106 167 96
99 159 91
106 169 98
106 171 99
99 160 88
101 163 94
98 159 88
105 168 94
106 169 98
101 165 94
101 161 93
102 164 94
103 161 93
101 162 92
106 167 97
105 167 96
103 163 91
102 163 93
109 173 100
100 160 92
101 164 96
106 166 94
101 163 95
108 169 97
102 166 96
104 166 96
104 163 91
105 170 97
98 157 91
99 159 88
99 158 91
105 169 97
103 165 95
109 173 100
106 169 96
106 163 93
106 168 96
100 162 93
107 170 96
102 160 91
104 165 94
106 168 96
102 162 94
104 162 94
109 172 100
100 164 97
103 165 94
98 154 89
103 163 95
101 157 90
107 169 95
103 165 96
102 159 91
101 161 94
106 169 98
103 160 92
101 163 93
101 159 92
99 158 91
103 164 94
106 163 94
105 158 91
107 168 98
108 163 94
100 161 92
106 167 96
99 152 87
104 161 92
108 168 96
99 148 86
100 159 90
107 167 96
106 168 97
106 163 95
109 172 99
106 162 93
104 163 94
107 161 94
104 162 94
105 163 92
99 150 85
103 157 90
105 165 95
109 164 95
106 165 95
104 165 96
102 159 92
103 158 90
106 168 97
106 160 92
106 168 96
107 163 94
106 166 96
105 159 92
109 172 100
107 166 96
109 164 94
107 161 93
106 158 92
108 163 95
106 162 93
104 153 90
102 156 89
108 167 97
108 158 91
107 154 88
106 153 89
103 152 87
106 161 93
109 168 95
107 160 90
104 155 88
104 155 90
109 162 92
108 161 92
104 152 88
106 156 90
104 154 89
108 159 91
107 156 88
104 149 86
106 163 93
103 143 82
111 163 94
105 150 86
103 150 86
109 160 92
105 156 89
106 153 86
107 150 86
110 155 88
107 156 89
106 158 90
106 160 91
104 149 86
106 150 87
109 159 89
109 161 92
100 141 80
104 148 85
109 159 90
107 151 86
107 152 87
109 160 91
107 158 90
109 159 91
102 149 85
102 144 82
113 163 93
108 149 84
107 153 88
106 154 86
103 143 81
105 147 83
106 156 89
105 147 84
110 164 93
105 148 84
105 155 88
111 154 89
107 151 86
105 148 84
102 145 83
108 149 85
99 137 78
106 147 83
108 159 91
106 147 84
103 152 87
107 150 85
108 152 86
108 149 84
101 141 78
104 144 82
105 141 80
109 155 88
109 158 89
104 141 80
108 146 83
106 150 86
105 138 78
107 157 90
105 151 86
102 134 75
107 156 87
105 148 84
110 158 90
111 155 88
113 161 91
108 145 82
107 148 84
104 173 81
105 176 82
110 180 88
110 180 83
107 178 86
108 180 85
108 177 82
107 177 83
107 177 85
103 175 80
107 176 83
107 177 85
110 180 87
104 173 79
110 182 87
109 179 88
110 181 89
105 173 84
107 175 90
107 178 85
105 175 79
105 176 84
110 181 90
103 173 80
105 176 84
102 170 78
111 183 93
107 176 86
104 174 83
106 174 81
101 169 81
103 171 81
111 181 89
102 173 78
110 180 89
108 178 88
106 176 82
101 168 91
106 177 90
108 177 91
105 173 85
105 173 82
105 173 81
103 170 81
107 176 87
107 177 85
104 173 91
109 180 92
106 175 86
109 178 91
107 176 87
101 170 85
104 173 89
101 169 86
103 172 86
101 169 86
106 175 87
107 176 87
103 172 83
109 178 93
105 174 85
100 167 84
109 179 97
108 175 91
107 177 91
107 176 93
105 174 92
110 179 95
113 182 95
107 177 92
109 177 94
104 169 90
106 173 90
102 169 88
105 172 89
112 184 96
105 170 85
101 167 85
106 173 91
103 170 92
101 167 87
106 174 94
106 171 88
102 171 89
105 173 90
108 176 91
104 171 90
105 171 87
110 181 96
103 169 88
106 173 89
101 167 88
102 169 90
109 178 98
107 174 93
101 165 87
104 173 92
111 181 96
107 175 96
106 175 92
106 173 92
108 177 95
105 173 92
106 176 92
100 162 87
105 171 92
101 167 90
101 168 88
107 173 96
103 169 92
105 173 94
106 172 92
113 183 102
103 171 92
104 169 91
101 168 92
103 168 93
110 178 98
108 176 96
102 168 91
103 168 92
107 175 94
98 161 86
100 166 89
103 169 94
102 166 93
105 170 94
101 167 91
101 165 91
109 176 96
104 172 92
107 174 92
96 157 86
107 175 95
96 159 86
102 165 87
102 166 95
100 167 89
106 171 94
102 166 88
107 173 96
104 170 92
100 165 93
103 168 95
109 176 99
105 172 97
102 168 93
100 165 90
99 160 88
102 167 92
103 168 94
108 176 100
104 169 93
109 174 96
104 171 92
105 171 95
97 160 91
101 167 92
109 176 101
107 172 96
101 166 93
110 179 101
101 165 93
103 167 94
104 170 93
110 177 98
104 168 95
103 169 92
101 165 93
104 168 96
98 157 90
107 171 96
104 169 96
98 162 91
103 166 93
99 161 90
100 162 92
104 167 92
102 164 94
100 163 91
105 171 98
107 168 97
104 167 96
105 170 97
99 162 93
101 165 94
105 167 95
103 167 96
102 162 90
106 169 96
106 172 95
99 161 92
104 167 93
100 160 91
107 174 100
98 160 89
102 161 92
108 176 101
99 160 91
102 164 94
104 169 98
104 166 94
101 164 92
103 164 93
106 172 100
102 162 91
103 163 93
100 158 90
107 170 97
100 160 89
102 166 97
107 171 97
101 164 94
104 165 96
100 157 92
102 163 93
104 169 98
102 163 93
108 169 99
107 170 96
103 166 94
101 162 94
104 163 93
101 162 93
106 171 99
105 165 95
106 167 96
100 156 87
106 168 95
105 168 99
96 150 85
103 167 96
107 170 98
101 157 90
104 162 95
105 168 96
108 169 99
108 171 97
105 168 96
107 170 99
106 167 95
105 168 94
99 156 90
104 166 95
101 162 93
108 176 100
105 167 96
108 173 99
103 163 95
102 161 92
110 177 103
100 155 91
105 169 99
104 158 91
101 156 91
100 156 90
107 170 98
102 160 91
107 171 98
103 162 93
103 163 93
102 158 91
102 164 93
107 162 94
110 166 96
104 161 94
108 166 96
106 166 95
102 164 96
106 166 95
106 164 96
104 165 95
107 164 94
107 170 99
104 165 94
106 160 92
101 156 90
102 159 93
109 163 94
102 157 90
107 167 96
104 165 95
107 165 94
102 156 90
108 166 95
105 159 92
106 160 92
102 157 90
103 162 92
98 153 88
109 167 96
104 157 90
104 160 93
106 160 92
102 159 92
107 165 93
103 161 92
108 163 95
102 159 90
110 171 98
105 153 87
98 146 83
105 160 93
106 162 95
107 165 94
110 169 97
106 160 92
107 158 91
106 163 92
105 162 93
108 160 93
108 161 93
102 149 84
109 167 97
107 160 92
106 160 91
106 162 94
105 162 93
103 153 88
106 161 92
101 151 87
104 157 92
103 145 83
107 155 89
111 165 94
108 157 91
111 167 95
104 155 89
107 161 92
110 163 93
104 155 88
105 153 89
104 150 85
102 153 88
108 158 90
106 158 91
106 155 89
105 153 86
103 150 86
107 156 90
110 155 89
108 159 91
104 154 88
103 149 84
107 158 90
102 148 86
108 157 91
106 150 86
107 157 90
107 155 88
106 148 84
101 143 81
103 145 82
104 146 82
107 151 86
109 155 89
110 161 92
103 147 84
107 157 90
106 157 91
107 155 89
108 156 90
107 151 86
107 151 86
109 154 87
105 153 87
104 150 86
104 145 82
103 148 86
105 147 84
105 149 86
99 139 80
105 143 81
102 146 82
104 152 86
105 155 88
108 152 86
104 141 80
105 148 84
107 157 89
103 139 79
111 155 89
107 148 84
112 161 92
102 149 86
108 161 90
108 149 85
111 156 89
111 159 90
108 147 82
107 153 86
108 143 82
110 159 90
107 152 87
99 138 79
107 147 85
107 150 85
110 154 88
105 142 81
109 155 87
106 174 86
111 182 88
109 179 86
107 175 80
101 170 81
109 180 87
101 170 76
106 178 86
106 175 85
103 173 84
108 179 83
110 180 89
108 179 88
110 180 89
110 183 90
107 179 88
109 180 91
107 177 84
107 178 89
106 176 85
105 175 90
108 179 88
106 173 80
105 174 87
109 179 84
105 177 86
103 172 77
109 178 84
104 174 78
108 180 89
108 176 91
108 177 89
105 175 85
106 175 86
109 177 86
107 176 84
106 176 89
103 173 84
108 177 88
105 176 89
108 177 83
103 172 82
105 175 86
107 176 88
103 175 89
102 171 84
106 175 84
105 172 88
112 182 91
98 163 84
106 177 88
106 175 89
106 174 88
104 172 85
106 175 88
102 168 83
110 180 94
106 178 89
104 174 86
107 175 88
109 180 92
108 177 88
108 178 95
106 175 87
104 171 89
103 171 88
106 175 89
111 181 96
102 169 89
104 173 87
105 173 94
107 175 90
104 171 91
108 178 92
113 181 95
106 173 85
103 171 90
102 169 84
102 168 87
103 171 88
104 170 89
103 170 88
105 171 94
108 175 93
100 164 87
105 174 92
108 176 92
104 173 92
108 176 89
109 177 96
105 170 89
103 172 92
106 175 93
106 174 93
105 168 91
99 164 87
103 170 92
112 180 96
111 179 97
108 175 92
111 178 94
101 166 93
110 177 93
101 166 90
101 165 86
106 173 93
105 173 91
103 169 90
104 170 89
108 175 96
107 172 88
108 176 96
104 171 92
105 174 89
111 181 100
106 172 94
102 169 91
107 175 94
105 171 92
104 171 92
109 177 97
104 170 96
104 171 93
107 177 93
99 162 89
103 169 92
106 173 94
107 174 94
96 156 82
109 177 97
102 168 92
104 168 94
105 172 97
103 170 96
103 171 95
108 174 98
109 179 99
103 167 93
101 167 89
104 171 96
103 167 92
101 163 90
97 161 88
105 173 94
106 174 98
103 169 91
110 177 98
104 170 94
109 179 98
106 173 95
107 172 96
99 160 90
105 172 96
98 162 88
102 163 89
104 164 91
107 172 93
105 170 93
106 172 95
104 169 94
102 166 93
109 174 97
103 168 94
103 168 93
105 170 97
104 170 96
103 168 93
103 168 94
105 170 94
106 174 99
106 171 95
100 163 94
102 168 96
107 171 96
102 167 90
108 172 98
105 171 97
95 154 85
101 163 93
104 166 93
106 170 94
108 172 97
108 175 99
105 170 97
102 164 92
104 165 94
104 165 91
104 168 95
101 163 94
107 174 97
102 165 96
105 170 99
101 163 91
103 166 96
102 165 92
99 160 88
101 164 94
100 161 92
104 168 94
102 162 91
101 160 91
103 166 94
100 160 90
102 163 93
99 162 91
104 167 95
105 171 97
105 169 93
103 165 93
102 162 93
100 161 92
100 161 91
100 160 92
107 172 98
103 165 95
108 170 94
101 163 95
100 161 92
103 162 91
104 165 93
108 172 98
109 174 100
102 160 89
102 164 94
100 158 90
103 163 93
106 170 98
103 163 94
103 165 96
105 163 94
101 164 93
105 167 94
102 161 93
103 161 92
105 168 97
103 161 93
103 160 93
104 166 95
106 167 95
100 158 92
107 172 99
104 162 93
105 165 95
103 162 92
107 169 97
101 161 89
105 166 96
103 163 92
102 162 92
106 168 96
100 154 89
99 160 92
101 164 92
99 155 89
107 169 98
105 166 96
109 173 97
103 162 94
100 157 92
100 158 91
105 163 94
106 171 99
104 167 94
109 166 95
103 161 94
108 166 93
105 165 95
109 169 98
100 155 90
102 164 95
104 167 97
104 165 94
99 154 89
105 162 92
102 158 91
109 174 100
104 161 92
103 163 95
104 163 94
106 161 92
102 158 92
106 164 93
103 159 91
107 164 95
110 169 98
105 157 91
104 156 88
106 161 92
106 165 95
106 165 95
103 156 89
108 171 99
107 164 94
102 158 92
102 155 90
109 162 93
103 159 92
105 161 93
104 154 88
99 156 89
103 157 90
108 160 91
107 165 95
106 162 93
105 160 93
102 153 88
105 162 93
103 159 91
105 163 95
104 162 93
107 158 92
104 157 91
107 166 96
103 158 91
100 149 87
107 164 94
106 156 89
106 165 96
103 155 88
104 160 92
104 155 90
97 148 86
105 153 87
107 159 92
102 149 87
106 155 88
104 155 90
110 168 94
105 150 86
108 157 90
104 149 84
108 162 93
104 151 86
106 162 93
104 151 86
108 162 92
102 150 86
103 150 87
103 154 89
104 151 86
105 160 93
105 154 89
109 161 93
107 159 92
110 160 92
109 166 95
109 157 90
105 156 89
111 160 92
105 153 87
108 162 93
105 151 87
105 148 85
101 150 86
111 161 92
104 151 87
100 140 81
104 149 86
111 157 89
108 160 92
110 161 93
106 154 88
104 147 84
103 140 80
106 157 90
108 151 85
108 154 88
102 146 83
106 153 87
97 132 76
108 153 87
105 146 84
108 158 90
103 140 80
110 151 84
109 154 88
109 151 84
106 151 86
108 149 84
110 158 90
108 157 90
105 152 86
106 148 84
107 154 87
105 150 85
106 156 89
105 154 88
105 148 85
111 159 90
105 148 84
110 162 93
113 158 90
106 149 84
109 158 90
109 154 87
108 155 88
104 146 82
111 163 93
106 145 81
105 147 84
107 179 84
113 184 93
109 181 93
112 182 91
103 174 79
108 178 81
106 176 84
106 176 77
100 170 81
103 172 81
101 170 81
106 177 83
107 178 85
108 179 80
106 174 87
108 178 91
104 174 86
110 180 93
107 176 86
102 172 84
103 173 83
104 173 87
107 179 88
105 176 82
106 176 85
108 177 91
104 173 84
106 176 91
105 174 87
108 178 91
110 181 92
103 172 80
105 173 87
105 175 83
104 172 79
107 179 91
107 177 89
100 170 77
107 178 86
105 173 88
103 170 84
105 174 87
104 173 82
108 178 92
102 171 82
106 175 92
106 175 88
108 176 92
110 181 91
104 172 83
103 172 86
105 174 88
110 182 95
103 169 84
106 175 91
109 180 92
106 174 92
108 175 88
99 168 86
105 172 83
104 172 87
105 174 87
107 175 91
106 176 87
101 171 87
103 171 84
105 173 90
108 178 92
105 173 91
105 173 91
108 179 92
105 171 92
112 182 99
102 169 88
109 178 92
104 172 90
101 166 87
107 171 89
105 173 89
105 172 88
106 174 91
99 166 87
106 176 91
107 175 94
107 178 95
105 173 91
107 174 93
103 171 88
108 177 94
106 174 93
103 168 91
105 172 93
104 171 94
106 175 91
105 171 92
102 168 85
105 170 86
109 178 95
101 168 89
111 179 95
106 174 93
108 177 92
105 174 96
106 175 94
104 169 89
103 168 92
105 172 90
108 177 94
111 181 100
104 170 91
100 166 90
104 170 92
103 169 94
108 177 97
110 181 97
106 172 94
107 176 95
100 163 88
108 179 98
105 174 91
103 168 92
103 167 86
103 169 95
108 177 97
105 172 98
98 161 88
104 168 93
99 164 89
111 180 96
104 169 92
106 175 98
104 167 90
102 169 94
106 172 98
108 174 95
103 169 94
104 169 94
103 168 95
103 168 93
102 165 93
103 170 97
102 166 91
103 170 93
106 173 96
105 172 95
105 172 96
97 160 86
104 170 95
105 170 96
98 162 90
110 177 99
107 172 96
106 172 97
104 170 95
107 173 97
100 164 90
108 176 97
106 172 96
96 155 86
109 177 101
107 171 94
95 155 86
102 166 94
109 175 97
104 170 94
103 165 92
100 163 92
104 168 93
105 167 94
103 166 95
107 172 96
99 162 91
105 171 95
103 168 93
103 165 93
104 168 94
110 179 103
102 168 95
101 164 91
107 168 94
100 162 92
101 165 94
103 167 95
105 171 100
105 171 99
104 170 95
109 175 99
105 167 93
102 163 92
106 169 98
102 165 93
104 169 96
107 173 96
107 172 97
107 172 97
110 177 101
106 168 95
102 165 94
109 173 99
102 163 91
100 163 92
105 167 98
98 159 90
105 170 96
99 163 93
106 172 99
109 170 96
106 169 97
104 163 94
106 165 93
103 164 93
100 161 90
105 170 97
101 164 94
105 165 96
105 170 96
105 168 97
106 171 99
104 166 97
102 165 94
101 161 93
101 161 91
109 174 97
104 165 93
99 158 90
105 169 98
105 168 98
108 168 96
103 162 92
108 170 95
102 164 96
102 166 95
104 168 96
101 159 91
104 168 97
104 167 94
106 166 96
107 172 97
104 169 95
103 164 95
102 166 95
101 164 93
108 173 101
105 165 94
106 171 99
102 164 93
104 162 92
109 167 96
107 170 98
103 164 96
108 171 99
103 165 93
103 165 94
102 160 94
104 167 96
101 160 93
109 174 100
105 165 95
100 157 89
105 160 92
100 158 91
101 158 90
110 164 93
102 154 89
108 169 97
104 165 91
104 159 93
101 159 93
107 168 97
98 150 87
107 168 97
109 165 96
103 161 94
109 168 96
106 163 93
104 160 91
101 158 90
101 157 90
100 156 91
108 168 96
108 170 97
101 152 88
108 165 95
114 176 99
106 166 97
107 166 93
107 165 93
102 156 90
107 166 94
103 163 94
109 169 96
102 155 89
107 166 95
104 158 90
102 158 92
108 164 94
108 163 95
101 159 91
110 165 95
102 150 87
105 165 96
106 160 93
106 164 95
109 168 97
105 161 93
109 170 97
111 171 98
108 163 93
98 149 85
104 160 93
105 160 92
97 149 86
106 160 92
108 160 92
105 161 93
103 159 92
108 162 94
102 156 89
107 163 94
99 151 86
108 167 97
108 164 94
106 162 93
107 159 90
108 164 94
107 165 95
103 158 90
105 152 88
106 161 93
102 153 88
104 148 85
108 154 88
104 154 88
107 163 94
107 162 93
104 155 88
104 152 88
101 148 85
104 154 87
108 156 90
106 156 88
107 155 88
102 150 86
109 156 88
111 161 92
104 156 88
108 157 89
101 147 83
107 150 86
108 153 88
109 162 93
104 157 90
111 165 94
106 158 90
106 155 88
109 160 91
108 163 94
108 150 87
106 148 84
108 160 92
104 152 87
105 158 90
108 154 88
109 155 87
107 149 85
106 152 85
112 158 90
102 144 82
107 145 82
107 156 89
107 156 89
109 153 88
110 163 93
107 156 89
109 155 87
108 150 86
109 156 89
105 151 86
104 139 79
109 150 86
107 154 86
109 155 88
110 155 88
106 145 83
106 155 89
105 151 86
109 155 88
112 153 87
108 155 88
107 147 84
106 148 84
100 130 73
115 161 92
112 163 92
109 148 84
108 153 87
104 144 82
106 152 86
110 154 88
109 150 86
108 177 85
108 180 86
107 180 86
110 182 88
105 175 84
108 178 87
106 177 83
109 179 89
111 183 93
102 170 81
104 173 81
107 178 85
109 180 88
105 177 84
106 175 85
110 183 91
106 175 88
106 175 82
107 177 87
101 170 85
104 173 84
110 181 89
107 177 87
103 173 83
106 175 78
107 176 89
104 175 78
107 176 86
110 178 87
109 180 92
103 172 81
105 176 83
106 173 87
107 176 90
100 168 81
111 180 84
111 182 92
101 167 83
111 178 94
102 171 84
106 176 83
107 176 88
104 172 84
110 180 94
104 172 82
109 178 90
111 181 94
107 174 84
107 176 89
108 178 89
105 173 81
109 177 90
104 171 85
101 169 84
106 170 82
107 176 92
103 171 87
100 167 84
108 178 96
102 170 87
104 171 90
107 175 90
110 179 90
100 166 84
105 171 88
104 171 80
105 174 91
109 180 95
104 172 86
108 176 89
110 182 94
107 175 93
108 180 93
105 172 91
108 176 92
109 177 92
108 178 97
104 169 85
105 173 91
105 173 87
108 176 93
103 169 90
103 171 89
104 170 87
104 171 90
108 177 93
106 174 92
106 176 91
103 171 89
107 174 96
106 174 93
103 169 87
109 178 95
109 178 92
104 172 92
105 174 91
104 170 92
109 179 98
101 167 86
102 167 88
107 174 97
109 176 97
104 169 92
102 167 92
103 167 92
106 171 91
107 175 98
104 169 90
107 175 95
108 177 94
104 170 94
100 167 89
105 171 91
97 164 88
107 175 97
104 173 92
104 170 94
105 171 91
108 175 95
102 168 92
99 162 84
103 167 94
104 171 96
108 175 97
104 171 93
103 171 96
106 172 93
109 176 95
100 165 90
101 166 91
107 174 94
103 167 89
104 170 94
98 161 89
106 172 95
110 178 100
103 167 94
106 170 94
104 172 98
109 176 98
104 171 94
108 174 98
108 176 98
105 170 96
103 168 92
104 170 97
107 173 98
103 167 95
108 178 100
104 170 95
104 167 94
105 169 92
106 173 98
108 177 99
101 164 92
101 165 93
104 168 95
102 167 96
104 169 91
103 165 93
109 176 100
104 170 95
107 175 101
107 173 97
107 169 94
101 161 88
106 170 95
100 162 91
110 177 99
108 171 97
99 165 93
106 170 97
106 171 95
96 160 91
105 170 95
100 163 93
102 165 94
108 175 98
106 174 98
108 177 100
102 168 93
106 169 95
106 171 99
104 168 93
105 170 95
102 164 93
108 175 100
98 160 91
103 168 98
99 164 94
105 167 98
100 163 92
98 161 92
108 174 99
110 177 98
108 175 99
101 161 91
104 168 94
101 164 93
109 175 99
98 157 88
108 177 101
104 166 95
110 175 98
103 166 94
98 159 92
100 164 95
100 161 91
103 165 95
101 161 92
101 162 94
102 161 90
105 162 91
99 160 92
100 162 93
102 163 94
105 167 96
100 161 93
105 169 98
104 164 92
99 160 92
104 164 93
104 163 93
105 167 97
107 172 97
105 171 97
102 160 92
107 169 97
106 168 94
101 161 93
101 164 94
108 170 98
101 162 93
102 159 90
108 173 100
105 169 98
106 170 97
105 167 95
103 160 93
106 167 96
102 163 94
109 172 97
105 165 95
105 165 94
109 172 99
101 159 91
101 160 92
104 164 95
106 169 99
101 162 95
105 166 95
108 166 93
107 170 98
112 174 99
105 166 96
101 159 92
100 154 88
103 164 94
103 161 92
108 168 96
108 173 101
101 161 91
110 172 98
105 167 97
111 173 99
103 166 95
105 169 97
107 163 93
103 162 93
107 169 97
109 167 96
107 170 98
106 166 96
107 166 97
108 167 95
107 170 97
106 166 95
103 165 96
99 157 91
107 165 95
109 170 97
105 163 95
103 163 93
104 157 90
110 175 101
106 168 95
106 169 98
108 171 98
105 163 95
101 155 91
103 160 92
100 159 93
109 162 92
108 169 98
107 163 94
105 158 91
102 161 93
103 163 95
102 157 91
101 157 91
109 161 92
107 164 95
108 167 95
107 163 94
107 168 97
110 167 95
104 156 90
104 157 90
104 157 90
107 157 90
109 161 93
107 165 94
105 158 90
109 166 97
104 149 86
105 159 92
108 167 96
101 148 84
111 175 101
111 165 94
108 163 95
105 156 91
108 157 91
110 165 95
109 166 96
110 159 92
105 155 89
106 153 88
102 153 88
109 162 93
107 162 91
106 163 94
103 146 84
102 148 84
106 157 90
109 158 91
105 158 92
103 152 86
107 163 94
103 151 87
107 154 88
105 151 87
109 160 91
102 150 86
106 160 91
105 147 85
113 168 97
109 156 87
105 152 85
106 159 91
110 157 90
108 161 92
112 163 93
107 155 89
111 161 93
106 151 87
112 167 96
103 146 83
101 154 88
107 155 90
105 151 86
109 163 93
106 150 86
108 152 86
104 145 82
107 158 90
112 160 92
106 155 88
107 160 91
101 142 82
104 152 87
105 146 83
108 158 91
103 146 82
107 152 87
108 159 91
108 156 89
105 143 80
105 150 85
102 139 78
105 146 83
110 160 92
108 156 89
108 155 89
107 154 88
109 151 87
105 148 82
109 148 84
100 134 76
108 161 91
109 160 93
109 156 89
108 150 85
110 154 87
106 148 83
112 159 91
107 155 88
105 145 82
107 151 87
105 155 87
108 180 87
109 180 85
105 177 87
111 182 88
106 177 86
105 173 81
108 180 89
108 179 83
103 172 85
107 178 88
108 180 87
106 176 85
107 179 86
112 184 90
108 176 84
110 180 86
103 173 85
108 178 91
111 182 93
103 174 87
109 179 87
112 183 92
107 176 89
103 170 85
108 180 90
106 177 90
108 179 88
105 173 87
105 173 82
107 178 90
105 175 87
108 181 88
108 176 88
105 172 82
106 176 85
103 172 88
106 174 88
106 175 89
103 170 86
109 179 87
108 177 90
104 173 84
109 177 92
107 177 89
104 173 85
109 179 93
108 176 90
106 175 88
108 177 90
101 169 82
106 172 89
107 176 90
106 175 89
103 171 80
106 173 91
108 177 92
105 171 89
105 174 84
107 176 93
102 171 86
104 171 90
106 175 93
102 172 85
103 171 89
105 174 90
105 171 84
101 167 81
107 176 90
103 170 90
107 177 92
106 170 86
111 178 96
108 177 94
111 181 96
108 176 94
109 177 94
103 168 89
106 169 90
110 178 94
106 176 92
105 174 87
103 169 87
105 172 84
104 172 87
106 174 92
107 176 95
104 170 88
107 174 94
104 170 89
106 174 93
100 167 88
106 172 94
107 176 94
106 173 95
107 174 91
104 169 94
103 169 90
107 173 95
103 167 90
106 172 93
103 171 90
102 169 92
101 167 90
106 172 93
106 174 93
105 170 93
99 162 89
102 167 90
108 175 92
104 170 90
104 170 92
106 172 95
104 172 93
113 184 102
103 168 92
109 178 96
107 178 95
106 174 96
109 177 99
101 166 90
110 180 96
110 177 99
106 171 94
97 161 85
109 174 97
105 170 95
106 172 93
104 170 92
103 171 96
103 167 92
101 167 92
109 178 99
106 170 97
104 168 95
109 177 100
106 173 95
104 167 91
105 172 99
106 174 94
107 171 95
111 177 97
102 171 94
110 178 99
106 172 96
105 173 96
105 170 91
99 163 88
105 168 93
106 169 93
104 169 97
105 171 96
102 169 92
103 167 94
106 172 97
102 166 94
106 172 95
105 172 96
104 171 95
104 164 93
98 160 90
102 165 93
108 175 97
107 173 96
101 165 95
102 165 93
107 170 96
107 174 99
101 166 94
98 164 91
109 177 101
106 171 97
101 165 94
103 167 93
105 171 99
103 162 91
100 163 93
102 165 94
104 168 97
108 176 101
106 172 96
103 165 92
106 170 100
107 173 98
108 174 101
101 164 92
105 172 96
104 168 94
105 170 96
107 171 95
100 162 91
104 167 95
112 181 103
103 167 94
102 168 96
103 163 92
102 167 92
100 158 91
103 168 93
100 160 90
100 160 91
106 172 97
105 165 94
101 164 92
104 169 98
101 163 89
111 174 99
106 168 95
103 169 97
108 171 97
104 169 96
108 172 99
105 169 98
107 171 95
106 169 97
102 164 95
105 170 96
102 161 93
104 167 96
104 166 96
106 171 97
101 163 91
106 172 98
105 167 95
111 177 101
103 165 95
105 169 95
106 169 95
106 168 95
96 159 92
103 166 96
107 169 96
99 158 92
102 162 94
105 166 95
100 159 91
101 162 95
110 171 98
104 168 97
110 173 96
96 154 89
110 174 99
106 163 89
106 167 97
105 165 95
100 162 94
95 148 85
111 174 101
107 172 97
102 160 92
105 163 95
102 159 92
109 172 99
105 166 95
103 161 93
103 163 92
99 151 88
102 156 90
105 168 98
107 166 96
108 168 95
106 165 94
105 161 94
105 168 96
101 155 90
105 165 93
105 166 95
104 163 95
107 170 97
109 171 98
107 169 98
102 161 93
107 165 96
108 168 96
105 160 92
104 159 91
109 169 98
106 164 95
106 162 93
106 165 96
109 173 101
101 160 91
102 163 95
107 164 95
102 160 92
107 165 96
108 165 95
103 157 90
110 173 100
102 155 90
106 161 94
104 160 93
107 166 97
107 169 98
110 167 95
102 153 89
105 162 94
109 165 96
107 164 95
103 159 90
111 170 97
106 160 92
109 165 95
106 163 96
108 171 99
111 171 98
108 163 94
110 160 92
98 147 84
102 157 91
108 161 93
106 160 93
105 163 94
107 162 93
106 162 93
110 166 96
107 160 91
105 162 93
110 169 97
110 171 98
104 158 92
104 159 91
105 153 87
106 158 91
104 155 90
108 159 92
108 163 94
104 149 85
108 164 94
112 169 97
109 162 94
105 157 90
109 158 90
104 158 90
102 150 87
109 161 92
109 159 91
109 160 92
108 164 94
106 159 91
107 162 92
110 165 94
107 155 88
108 161 92
108 162 93
100 152 88
108 161 92
102 148 86
107 155 89
108 156 89
110 162 92
111 163 93
108 156 91
105 155 89
106 154 90
105 155 89
108 161 93
109 163 93
106 156 88
105 154 88
105 152 86
106 155 90
105 144 82
104 147 85
109 156 90
108 163 93
106 156 88
106 154 88
108 154 88
104 152 87
112 163 93
110 158 91
108 159 91
105 151 87
102 143 83
107 148 84
109 153 88
103 144 82
105 148 85
109 152 87
106 159 91
111 160 91
106 153 88
106 147 83
110 161 93
111 158 89
108 155 88
107 157 89
105 141 81
108 160 92
106 152 88
108 155 89
109 156 89
111 161 92
112 158 90
109 149 84
108 155 89
110 155 88
106 138 77
111 162 92
105 150 86
106 177 89
108 179 88
107 177 82
110 181 87
111 180 84
104 175 83
110 181 88
108 178 90
112 184 93
108 179 89
105 177 86
105 174 84
107 179 86
102 170 82
102 169 80
106 176 82
109 179 90
108 178 86
109 180 91
102 172 82
106 174 84
106 176 87
107 178 88
108 178 90
107 175 86
104 173 83
106 177 90
103 172 85
107 175 85
108 178 91
108 178 87
100 168 81
105 176 84
108 180 88
107 176 84
108 179 89
106 176 86
112 183 93
108 178 87
106 175 82
105 173 89
106 175 88
109 178 93
109 179 93
106 176 89
109 179 92
111 180 96
107 176 90
104 172 85
109 177 91
106 175 87
105 174 93
103 169 80
106 174 88
97 163 83
108 176 92
104 173 85
106 173 89
103 171 84
105 174 89
106 175 86
108 178 93
106 176 90
110 180 96
101 166 87
102 171 88
106 174 91
106 176 92
112 183 94
106 172 90
110 179 92
109 180 93
102 167 88
108 175 95
106 173 89
110 181 98
107 177 89
103 170 90
108 177 93
105 172 88
108 177 96
107 176 93
103 169 87
106 175 90
106 173 95
106 174 95
105 172 93
108 178 93
107 175 90
108 176 96
104 171 90
106 173 92
108 178 95
106 172 93
104 168 90
105 175 96
105 171 94
108 175 98
109 177 98
106 174 97
106 172 94
101 167 90
105 171 91
101 166 91
103 171 95
103 169 91
104 170 94
108 176 98
106 171 94
106 176 96
101 168 89
98 163 89
105 172 90
102 168 93
102 168 89
106 175 94
104 170 90
110 180 97
99 163 82
108 177 98
106 172 94
106 174 94
109 177 97
103 170 95
107 176 96
109 177 97
108 177 96
102 166 91
108 176 94
106 174 95
103 166 91
103 171 89
108 175 97
110 179 95
109 176 94
108 176 98
107 175 98
107 174 96
103 170 97
108 177 97
105 171 96
106 171 91
101 164 92
104 169 94
108 178 99
106 173 97
103 169 92
98 161 93
101 165 95
106 173 92
106 174 98
107 170 96
104 168 93
102 167 93
109 177 99
103 165 92
104 171 97
105 173 98
106 171 95
106 174 97
109 174 98
103 167 93
110 179 101
103 169 92
105 169 96
108 177 100
102 166 96
101 165 94
110 174 98
105 169 96
109 175 100
105 171 98
105 171 98
103 169 97
106 169 95
101 162 91
103 168 93
99 160 92
98 156 89
99 159 89
106 172 95
101 160 90
103 167 94
105 171 95
107 170 96
107 171 98
105 166 94
106 172 96
103 164 93
106 172 98
103 166 94
103 168 97
107 170 94
107 172 99
107 168 95
101 163 92
107 172 97
107 172 96
108 172 98
104 169 95
104 165 94
107 174 98
101 164 94
100 162 93
113 182 105
99 159 91
100 161 92
95 155 87
109 172 96
105 165 94
106 169 97
108 173 100
103 165 92
108 168 95
109 173 98
104 167 95
110 173 99
106 170 97
101 158 90
107 164 93
105 166 95
110 171 98
107 167 95
108 170 96
104 167 96
108 172 100
103 164 94
102 158 89
107 173 98
107 169 97
106 168 96
109 174 98
107 171 96
106 168 97
105 169 95
106 171 98
105 169 98
103 165 96
104 165 93
103 166 96
110 174 99
111 175 100
105 169 98
106 173 100
102 161 92
104 162 94
104 166 94
104 166 95
109 173 100
103 163 94
103 166 96
107 166 95
103 163 94
103 158 90
105 168 95
105 165 94
104 166 96
99 157 91
110 175 100
110 174 100
104 163 94
101 160 92
105 165 96
104 163 94
108 173 99
105 165 95
108 172 100
98 155 90
109 167 96
105 163 92
103 164 95
105 159 91
107 168 98
102 162 95
98 155 90
106 164 95
109 166 95
108 164 95
110 166 94
105 164 92
103 158 90
106 167 97
107 165 96
103 161 93
111 176 102
108 168 97
103 160 92
108 166 95
107 167 96
111 170 98
105 165 95
103 163 92
106 166 96
105 165 94
107 168 96
109 167 96
107 167 96
109 169 96
108 160 92
108 163 94
105 158 90
106 164 95
104 160 92
102 162 92
106 162 94
109 170 97
108 167 96
106 159 91
105 163 93
107 165 96
105 160 93
111 168 96
107 161 91
107 166 94
106 163 92
108 165 95
102 160 93
110 169 98
103 152 87
107 159 92
108 157 90
99 148 85
105 157 88
110 168 97
102 157 90
103 155 90
108 159 92
100 152 88
106 156 90
107 162 92
104 153 89
108 155 89
103 148 86
108 162 92
105 157 90
103 153 87
105 153 89
108 165 95
105 153 88
104 149 85
108 162 93
104 150 87
108 161 91
106 159 92
105 152 87
108 161 93
109 162 93
109 160 91
110 166 95
109 155 89
107 157 90
101 145 82
109 161 92
104 154 88
103 150 86
108 159 91
110 162 94
110 160 92
105 159 91
111 163 93
108 154 88
104 155 89
109 158 90
103 145 84
104 157 90
106 155 87
109 157 90
106 152 87
111 164 94
104 151 85
103 149 85
108 155 89
105 155 87
106 150 86
110 162 93
109 153 87
106 150 85
112 159 91
110 161 92
109 155 88
108 161 92
106 149 83
105 152 87
106 157 89
108 158 90
111 165 94
106 151 86
107 156 89
109 159 90
109 155 89
110 160 91
105 152 88
107 157 89
106 151 86
108 151 87
110 153 86
107 151 86
112 157 89
104 147 84
110 156 88
108 181 91
107 176 87
109 179 85
111 183 92
107 177 82
107 179 86
108 178 86
103 172 83
107 179 90
108 179 89
103 171 81
110 181 86
110 181 89
108 178 89
113 181 91
112 182 95
107 177 88
107 176 87
109 179 89
107 177 85
106 175 85
102 172 83
110 180 94
103 172 86
106 175 84
107 176 89
109 181 88
107 175 86
109 179 91
105 175 84
103 172 86
104 173 86
107 178 89
114 185 97
106 176 88
110 175 89
106 176 91
108 177 91
108 175 90
108 177 91
106 173 91
105 174 88
107 175 85
105 173 88
110 180 90
107 176 89
104 173 86
107 175 91
103 170 86
110 178 89
105 172 83
106 176 89
105 172 87
106 176 92
110 179 92
107 177 90
104 171 90
101 168 89
100 166 86
104 172 90
107 175 90
107 175 95
106 175 92
104 171 92
107 177 94
108 179 94
96 162 81
101 166 89
110 177 90
103 171 86
109 179 93
109 177 91
108 173 90
106 175 94
110 180 99
106 174 89
110 180 93
106 174 92
106 173 92
105 171 93
109 178 93
110 180 97
104 173 88
110 178 97
105 172 94
113 183 97
104 171 95
105 173 88
104 172 91
103 170 90
109 178 98
104 170 92
105 173 95
105 172 93
110 177 95
108 176 91
105 169 92
113 185 101
106 175 94
110 178 95
105 171 94
101 165 89
107 175 93
104 171 93
109 178 98
106 172 92
109 179 97
108 176 97
106 172 92
103 169 88
111 177 96
104 170 91
105 174 90
109 177 98
111 177 98
103 169 92
107 175 96
101 163 90
107 175 97
108 175 98
110 179 98
107 173 93
105 172 94
107 173 98
104 171 95
105 172 95
109 177 95
107 172 91
109 178 98
107 173 95
107 174 96
101 167 91
107 174 98
101 166 90
105 172 93
105 173 96
106 171 97
102 167 90
109 176 102
105 172 94
108 176 98
104 170 96
104 168 93
99 163 91
109 175 96
104 170 97
106 172 96
102 166 94
106 170 94
105 171 94
107 173 97
107 174 97
107 172 98
100 164 91
100 164 92
109 175 96
105 172 94
105 169 94
106 170 94
106 174 99
100 160 87
105 172 95
106 170 93
97 157 88
107 173 96
107 174 97
102 168 95
107 172 98
109 173 97
105 170 96
106 169 96
108 177 99
101 166 93
108 173 100
104 167 94
106 171 97
102 166 93
110 176 102
103 167 92
104 167 97
104 168 96
108 175 100
110 174 98
105 169 97
107 171 97
102 169 94
107 170 95
107 173 100
104 171 97
103 167 95
104 167 97
103 164 91
108 175 99
106 170 97
107 171 96
107 172 97
103 166 95
103 167 95
100 163 93
107 170 98
109 171 98
103 163 93
104 166 94
107 174 100
99 160 90
103 166 95
108 175 97
102 161 93
103 166 94
101 164 92
106 171 95
104 162 93
100 162 91
107 169 96
104 166 97
105 169 96
107 173 98
103 167 96
103 161 90
102 163 94
103 164 94
107 173 99
106 171 97
107 170 96
107 173 99
104 165 91
103 166 95
105 170 97
103 162 92
105 160 93
104 168 96
102 161 93
104 165 95
106 170 98
105 165 95
104 166 94
108 173 101
106 169 96
104 165 95
107 171 96
99 156 89
107 169 97
107 170 99
106 170 97
107 172 98
105 168 97
103 164 96
104 168 97
105 171 97
110 172 97
109 170 98
106 165 95
103 164 94
108 173 99
95 153 87
106 169 98
105 160 93
106 168 96
106 162 93
106 167 95
104 168 95
109 172 100
110 172 100
106 159 92
107 166 94
102 160 91
106 166 94
111 176 102
112 178 101
110 171 99
101 161 91
108 165 95
106 169 94
102 161 93
109 165 95
105 164 94
108 172 97
105 162 93
112 172 99
109 169 96
101 155 88
100 158 92
105 166 96
104 161 93
110 172 97
110 170 97
105 165 96
105 162 92
105 163 94
108 161 92
100 155 90
106 160 93
106 165 93
105 162 95
109 169 98
104 162 93
109 171 98
105 156 90
106 163 93
107 163 94
110 166 95
112 171 98
105 163 94
106 159 92
105 163 95
110 171 98
106 163 94
109 169 98
104 157 89
108 162 93
106 157 89
104 159 92
106 164 94
104 162 93
107 164 95
104 160 91
109 169 97
107 159 92
102 149 86
103 156 91
105 161 92
109 166 96
107 163 94
106 163 93
105 160 92
107 156 90
110 171 98
107 159 92
110 164 93
109 163 94
107 163 92
108 164 94
106 158 90
103 157 91
109 159 92
108 158 91
105 155 89
103 152 85
109 161 93
110 165 95
105 151 86
104 155 90
108 160 90
108 158 91
104 154 87
110 159 92
105 156 90
106 162 93
112 162 92
103 148 86
105 154 86
101 151 88
102 142 83
104 151 87
104 157 90
110 162 92
109 165 95
105 154 88
104 149 84
103 152 88
109 160 92
107 156 89
106 155 89
114 168 96
107 156 89
105 157 90
112 160 91
107 151 86
99 145 84
108 157 90
108 164 93
105 145 82
104 156 87
107 153 86
107 154 89
109 158 90
109 161 93
110 158 90
112 165 94
109 157 89
106 155 89
107 150 85
106 152 87
109 154 88
105 150 85
107 153 87
106 156 90
109 154 87
109 157 89
110 156 89
108 154 87
105 151 86
106 155 89
110 164 93
112 164 92
107 144 81
106 148 84
109 155 88
106 155 89
106 151 86
110 180 89
109 182 89
107 179 87
107 178 84
107 177 84
109 178 87
109 181 89
107 178 85
106 175 87
107 178 85
108 175 88
112 182 93
110 178 89
110 181 91
110 182 90
110 180 88
110 182 95
110 180 91
106 176 88
105 174 83
108 177 93
106 174 88
108 178 91
105 174 85
106 176 94
106 176 88
103 172 85
106 175 83
103 172 85
104 171 89
112 184 91
111 180 92
108 178 91
106 175 83
111 181 91
114 185 96
110 180 87
103 171 81
110 181 93
106 177 86
109 179 91
108 178 89
109 179 89
110 180 93
104 172 86
106 175 94
108 177 91
107 174 88
111 181 95
110 180 93
110 180 91
103 171 86
106 174 92
107 174 90
106 175 93
109 179 94
107 174 88
106 174 90
108 174 92
106 173 90
107 176 93
104 171 89
106 176 91
110 180 93
111 182 96
108 177 92
110 180 97
108 175 94
104 172 91
106 175 91
107 176 90
105 172 88
106 176 90
104 170 87
106 176 92
108 174 88
110 178 95
108 177 92
106 175 93
107 175 93
108 177 97
100 164 87
106 174 91
105 172 94
108 176 90
102 168 90
108 177 92
106 175 92
106 175 95
105 172 90
110 180 97
108 177 95
113 185 103
107 174 93
104 171 93
109 180 94
107 175 97
104 170 88
108 177 94
105 172 92
106 173 94
107 174 94
107 175 93
105 173 91
105 172 90
104 169 90
110 176 101
109 176 96
106 175 96
106 173 98
106 171 97
104 169 92
105 171 93
106 173 98
107 173 95
105 173 96
109 177 98
105 171 96
107 175 97
111 180 97
105 170 92
112 181 101
110 177 96
105 171 91
107 175 99
104 168 92
109 177 100
106 172 94
107 173 97
111 179 100
103 169 96
102 166 93
107 174 93
107 175 96
111 180 99
104 169 92
106 171 95
103 169 93
106 173 96
110 178 99
103 166 92
104 170 94
103 168 90
108 175 98
103 168 95
111 181 101
104 168 93
100 164 94
104 167 92
106 171 96
110 179 100
105 169 94
109 175 99
104 167 93
104 170 94
111 177 100
106 172 94
103 169 90
112 178 99
103 168 96
106 171 97
104 169 93
106 172 97
104 170 96
97 158 89
98 159 90
106 172 95
105 167 94
105 170 97
109 173 98
104 169 94
104 170 98
106 172 97
105 171 96
102 165 95
103 169 96
100 165 94
106 167 94
106 174 99
107 175 97
105 173 95
101 161 92
104 166 96
104 170 95
101 166 96
106 168 96
108 172 97
106 170 99
104 169 96
101 163 93
103 166 95
104 168 96
102 165 91
106 174 96
106 169 96
105 165 94
106 168 96
101 166 95
106 169 97
109 173 97
108 170 97
101 159 91
103 167 94
101 161 92
108 172 97
106 173 98
107 170 97
103 168 99
104 164 95
106 172 98
108 168 96
106 170 96
107 171 100
104 167 96
106 170 97
113 181 104
105 170 97
105 168 94
110 172 98
106 170 97
103 165 93
98 160 93
106 168 97
105 168 93
108 175 102
100 159 92
106 167 96
103 164 94
105 168 97
106 169 96
100 163 94
106 171 98
106 167 94
107 173 99
111 174 100
103 163 94
103 165 94
105 165 95
107 170 97
102 162 93
107 169 97
104 167 96
106 170 97
101 161 93
112 181 105
106 166 95
104 162 92
103 164 94
106 167 96
104 163 92
108 172 97
104 168 97
110 173 100
106 168 96
110 172 100
106 169 98
103 163 95
104 159 92
108 170 98
104 161 92
107 167 95
109 176 102
106 166 95
105 165 95
108 161 93
106 169 97
104 163 94
108 170 98
108 170 95
106 167 95
105 167 96
110 168 97
114 177 100
111 174 99
113 174 101
109 171 98
102 159 90
102 154 87
102 159 92
111 168 96
110 175 100
108 164 94
106 163 94
110 175 101
102 161 93
105 162 92
105 161 92
106 163 94
106 161 93
105 162 94
106 161 92
107 166 95
107 165 95
105 165 95
107 166 94
110 174 100
107 166 96
110 165 95
105 162 92
105 165 95
106 161 93
106 161 93
106 167 96
104 161 94
108 170 99
102 150 86
111 166 95
108 170 99
108 164 94
107 163 92
105 154 89
110 168 96
106 166 95
105 161 92
108 161 92
106 161 93
110 169 97
107 162 93
106 162 93
105 157 90
108 167 95
108 158 91
109 163 93
107 163 94
105 159 92
105 154 88
109 162 93
109 163 94
105 152 87
111 165 94
112 168 95
109 164 94
104 148 86
108 153 88
112 162 93
108 166 96
108 163 95
109 162 93
105 156 90
106 161 92
113 169 97
108 159 92
111 170 98
105 161 92
103 154 90
103 154 88
111 166 97
108 149 85
113 169 97
107 154 89
109 163 92
107 151 86
107 159 92
108 159 91
103 151 87
110 165 95
109 163 92
110 156 88
111 165 93
110 158 91
109 162 93
103 155 89
110 164 94
107 155 88
110 166 95
111 166 96
108 152 86
110 160 92
106 150 87
109 159 89
105 149 84
107 160 92
109 155 88
110 162 91
103 146 84
104 146 83
109 157 90
108 163 94
109 160 92
104 149 84
109 167 96
109 156 89
107 153 88
109 158 91
109 157 90
111 163 93
108 162 92
110 162 92
111 161 92
108 155 88
109 153 88
110 164 94
108 154 88
112 158 90
108 156 89
109 158 90
107 157 89
110 159 90
105 149 85
107 146 83
107 177 85
110 181 88
106 176 90
106 175 81
107 176 82
109 178 90
109 178 89
105 175 89
110 180 85
108 176 90
103 171 86
106 174 88
113 186 96
106 175 83
105 172 87
105 175 89
106 177 83
104 176 87
108 178 84
105 176 84
108 179 89
106 176 84
105 175 85
104 174 86
108 178 90
107 173 86
106 175 87
104 172 87
110 179 91
110 180 93
107 177 93
111 182 93
113 185 97
109 180 93
104 174 88
108 179 90
107 177 92
110 180 90
105 174 88
106 175 85
105 176 88
111 179 91
108 176 84
102 171 84
106 173 91
105 175 88
109 178 93
106 173 91
102 170 88
112 182 93
107 176 86
107 175 93
108 179 91
105 171 92
112 182 95
111 181 98
104 173 89
106 177 87
105 174 92
109 178 91
110 180 95
107 176 91
102 168 90
103 171 86
109 179 93
105 175 92
109 176 92
107 176 91
107 176 96
109 177 95
110 180 97
109 177 92
107 175 89
105 171 93
106 175 93
109 177 92
107 174 91
102 168 86
104 171 90
108 177 93
107 174 95
111 181 95
111 180 94
111 180 96
110 180 98
108 176 96
106 174 94
104 171 94
113 182 97
109 180 95
108 175 95
105 174 90
105 172 93
110 177 96
100 165 85
105 171 94
111 180 96
107 174 94
101 166 87
111 179 99
104 171 94
106 175 96
104 171 92
105 172 96
106 174 93
107 174 97
111 180 98
103 169 92
102 166 90
102 170 89
105 172 95
108 175 96
104 170 93
108 174 96
108 175 97
104 172 92
112 182 102
110 179 96
103 170 93
108 176 96
104 169 92
108 177 95
105 169 92
98 163 90
111 179 100
106 173 99
109 178 97
108 176 97
102 167 94
104 171 95
104 170 93
108 177 99
104 171 97
107 173 94
107 173 96
109 176 99
108 174 98
109 178 98
103 167 93
110 178 100
103 169 94
105 169 95
108 174 97
103 169 94
109 179 101
111 179 99
104 170 92
111 178 103
108 174 98
106 174 97
110 179 95
107 174 97
101 167 93
106 172 93
107 172 96
105 170 96
100 165 92
106 173 98
100 162 92
108 176 100
105 171 95
112 181 102
104 170 94
100 163 93
107 175 99
99 162 91
104 169 95
107 175 96
106 172 99
106 169 95
100 162 89
107 172 99
102 165 90
108 174 96
102 165 91
101 166 93
105 170 97
101 164 92
102 166 95
105 170 95
104 167 97
107 171 98
107 167 94
105 169 97
108 174 98
105 170 97
110 176 98
100 163 93
109 174 98
104 167 95
107 175 100
102 165 95
100 166 95
98 160 90
107 172 100
106 169 97
107 170 96
109 173 99
99 162 90
105 169 96
105 170 97
106 171 98
109 175 98
107 174 98
106 172 95
102 164 94
108 174 102
111 176 100
104 168 95
105 167 94
109 172 98
104 166 95
103 162 94
105 167 96
100 158 90
98 157 90
103 169 98
105 171 98
103 166 95
101 163 92
110 175 99
99 158 90
100 160 91
110 176 101
109 175 99
108 170 98
105 167 96
104 166 95
110 176 101
106 171 98
106 170 96
109 172 98
104 163 93
108 170 97
109 172 98
108 171 100
109 172 96
107 168 96
109 173 100
108 175 100
105 167 95
105 166 95
105 171 99
100 161 93
105 165 95
107 169 98
103 165 95
104 164 95
104 166 95
106 170 99
109 173 98
104 164 94
104 168 95
105 166 96
105 168 96
110 173 98
107 171 99
111 177 101
104 164 93
103 163 93
107 172 99
109 166 95
104 163 93
101 159 92
108 170 99
108 170 99
108 172 99
107 170 98
99 160 93
106 166 95
108 169 96
100 153 88
109 171 97
110 171 98
110 171 98
110 172 99
109 169 97
101 159 93
106 163 93
102 156 89
105 164 94
106 167 95
105 168 97
106 165 95
104 163 94
109 171 97
106 164 94
107 167 95
106 162 93
107 168 97
110 171 99
107 166 96
104 164 94
108 170 98
106 159 91
107 164 95
107 171 98
112 173 100
108 161 93
107 161 91
106 166 94
109 166 96
102 158 92
108 169 97
115 180 103
110 167 97
102 156 89
109 169 98
112 171 98
102 158 91
103 155 91
105 159 92
103 160 92
107 163 93
110 172 99
109 167 95
111 166 97
108 166 96
109 164 95
109 162 93
111 171 98
103 161 92
102 153 88
112 172 99
113 174 99
106 164 95
105 157 91
106 161 92
108 161 93
107 163 94
108 166 96
103 157 91
103 156 91
108 161 93
111 165 95
105 162 94
107 161 93
109 164 94
106 155 89
109 167 96
105 153 87
105 154 89
105 156 88
109 161 93
104 152 87
104 149 85
106 158 92
104 151 87
111 169 97
105 157 90
107 159 92
104 152 87
107 155 89
110 160 92
109 161 93
108 158 91
108 164 94
103 148 85
110 168 97
110 159 91
105 155 89
106 156 88
108 163 93
109 155 89
108 158 91
107 166 96
105 151 87
107 149 84
110 160 92
108 159 90
106 154 88
107 160 91
106 157 90
111 165 95
106 155 89
106 151 87
110 165 95
109 161 93
108 153 87
107 155 89
106 152 85
109 152 87
109 158 91
110 161 92
110 155 88
104 152 87
110 157 89
108 156 89
105 152 87
112 161 92
108 157 90
102 142 81
108 158 91
105 150 86
103 153 87
107 158 91
113 168 97
108 158 90
110 153 87
109 160 91
108 178 87
109 179 88
111 183 91
106 177 90
107 178 85
107 179 87
109 180 88
108 180 89
110 182 88
107 177 89
106 176 90
113 183 96
106 179 86
109 178 89
108 180 91
107 176 88
110 180 88
103 173 83
114 185 99
109 180 91
107 177 90
102 171 82
112 182 93
110 181 89
108 178 89
109 180 86
109 181 91
111 183 93
109 177 94
104 173 88
109 178 90
110 180 95
108 178 92
106 176 87
112 183 96
106 175 91
109 181 93
108 176 87
110 179 90
106 176 92
107 178 93
108 176 93
110 179 89
107 177 86
110 179 93
105 173 87
107 175 85
107 177 86
102 171 91
107 175 91
111 181 91
106 175 92
107 177 91
108 178 86
106 176 88
109 179 93
110 180 92
109 178 95
104 172 91
110 178 96
109 177 95
109 173 94
107 177 95
112 181 99
104 171 91
111 183 97
108 177 99
105 174 91
107 175 92
110 180 98
103 172 90
104 172 83
105 172 91
106 173 94
106 175 91
104 172 89
111 181 99
111 181 94
105 171 93
107 176 97
104 170 89
110 178 99
104 172 90
107 176 96
107 175 92
106 174 91
103 169 95
109 179 95
109 178 95
110 179 95
105 172 88
104 171 91
107 174 97
109 179 97
106 172 94
102 168 85
106 174 93
108 176 96
101 166 91
110 179 97
106 173 95
106 173 94
107 173 92
107 175 95
99 164 87
101 166 90
107 172 96
111 178 100
105 169 90
106 175 95
107 175 99
110 178 98
108 176 98
108 177 95
104 169 92
108 175 96
105 170 95
105 173 95
105 173 95
112 182 99
109 178 99
108 175 96
104 171 93
104 169 96
106 173 97
108 175 97
104 172 93
106 173 92
100 166 92
105 173 96
107 174 97
105 171 95
105 171 97
104 170 93
110 180 98
107 173 97
104 169 93
109 176 99
105 171 93
107 169 95
108 175 96
107 173 97
101 166 93
101 167 94
101 163 92
109 176 99
105 171 96
106 174 98
105 168 96
103 169 94
101 166 94
108 177 100
111 179 100
107 174 96
105 171 96
108 174 97
105 171 95
106 173 95
105 169 97
104 170 97
106 172 93
103 166 93
107 173 96
102 166 95
99 161 89
104 170 94
112 180 103
110 176 101
107 171 97
108 173 98
107 169 97
107 173 99
98 160 92
107 172 98
107 173 99
107 172 98
102 163 94
106 170 94
107 171 97
101 166 96
109 175 100
108 178 99
108 174 97
106 173 100
105 172 98
103 169 95
100 160 91
104 168 94
102 167 94
110 177 101
109 174 100
105 168 95
103 167 93
107 173 99
106 168 96
105 165 94
100 166 97
108 173 98
103 165 95
110 176 101
106 169 96
103 166 95
102 164 93
105 170 97
105 172 98
106 171 99
106 173 97
109 175 98
104 170 97
110 176 100
108 173 101
104 162 93
106 170 96
104 164 94
106 167 96
107 172 98
102 166 95
105 172 96
107 166 94
103 164 96
102 162 92
106 170 98
102 165 94
109 176 100
103 164 95
106 169 94
110 175 99
105 170 97
110 172 100
107 171 98
105 170 97
103 164 94
101 163 92
109 177 101
105 167 96
100 160 90
108 172 99
107 167 96
105 165 95
107 171 98
103 165 96
108 173 99
106 164 94
110 175 101
104 167 97
103 166 97
108 169 98
101 162 95
109 172 99
104 165 95
104 164 93
104 161 92
108 172 98
108 165 94
107 169 97
106 169 99
109 175 101
107 171 99
108 173 100
110 173 98
105 167 97
109 170 97
108 172 99
103 163 93
103 165 93
110 174 98
106 167 96
106 165 94
108 169 97
108 171 99
107 170 98
105 165 96
112 174 100
104 163 91
109 170 96
104 161 92
105 161 92
111 173 100
105 161 93
109 169 97
107 167 96
110 174 99
105 162 94
108 166 94
107 166 95
105 160 93
105 164 93
107 164 95
106 169 95
109 169 97
107 160 92
105 167 96
109 167 96
108 162 94
106 165 95
106 163 94
109 171 99
103 156 90
109 169 96
106 159 92
110 171 99
111 172 99
107 165 95
104 159 91
110 165 96
107 163 94
108 167 96
107 166 96
110 164 95
101 154 88
105 162 93
108 163 93
109 166 95
105 163 94
103 156 90
111 170 98
110 168 97
107 164 94
110 165 94
102 156 89
109 166 95
109 162 92
110 164 94
108 164 94
107 153 89
103 157 91
110 167 96
107 160 93
109 167 96
107 163 93
106 163 93
107 161 92
111 166 95
109 166 96
106 160 92
109 158 91
105 159 91
112 175 100
110 168 96
109 161 92
108 154 88
107 159 92
107 155 89
107 159 92
104 155 89
104 155 88
105 156 90
109 159 91
107 155 89
107 159 90
109 162 92
106 153 88
106 158 91
112 164 94
110 165 95
108 162 93
108 157 91
108 158 91
107 161 92
112 163 94
107 156 90
107 157 89
109 159 91
107 157 91
111 163 94
110 160 91
108 165 95
108 163 94
110 162 93
107 159 91
107 160 92
109 162 92
108 161 92
109 164 94
107 152 88
109 164 94
107 155 87
104 150 86
102 149 85
109 156 89
109 158 90
109 150 85
105 154 88
111 161 92
111 165 93
113 167 96
111 163 93
110 158 90
110 163 93
108 157 90
110 158 89
110 163 93
111 158 90
110 161 91
108 157 90
110 160 92
110 155 89
106 157 91
104 148 83
110 160 90
103 176 80
109 180 89
109 180 91
113 185 95
106 176 86
105 175 85
104 172 83
107 176 85
111 181 86
107 179 87
107 176 91
103 172 79
109 180 89
107 178 90
106 176 91
111 183 95
103 172 86
97 165 79
108 176 92
110 180 89
110 180 93
107 178 92
105 176 89
108 178 91
106 174 89
110 181 97
108 179 92
101 168 83
110 180 93
110 178 92
111 180 96
110 180 92
108 176 89
108 177 93
107 176 87
103 171 86
107 176 87
111 181 97
105 174 85
109 178 90
109 180 94
107 175 90
107 175 93
107 175 91
109 176 89
105 175 89
105 173 91
108 179 94
107 177 91
109 179 92
109 178 93
101 169 85
110 179 96
109 179 92
109 178 92
105 172 90
108 178 94
106 175 92
109 177 96
106 176 92
110 180 98
103 170 90
108 178 93
110 179 98
102 167 86
107 175 91
107 175 93
106 174 92
109 177 96
107 177 95
107 176 90
107 174 90
109 177 95
108 175 93
109 177 94
110 179 96
112 181 98
110 177 95
108 172 96
104 169 91
108 177 94
107 174 98
109 178 99
107 175 95
106 173 90
110 178 96
105 173 92
104 170 94
110 178 96
99 164 87
109 175 94
107 176 95
107 175 95
111 180 96
109 178 97
106 173 94
107 175 93
108 173 94
114 181 100
98 162 89
108 176 95
109 178 98
107 177 95
107 172 89
102 167 89
106 173 91
103 170 93
108 174 97
106 175 98
113 184 99
106 172 93
107 174 97
111 182 100
107 174 94
104 171 92
112 181 100
106 174 94
104 173 96
107 175 92
108 173 95
105 172 94
107 175 95
110 179 100
112 180 99
107 177 98
103 169 93
105 172 97
106 170 93
108 176 100
108 176 96
103 168 92
107 173 98
104 169 92
109 174 98
104 170 94
107 174 99
107 173 96
106 170 95
106 175 97
103 168 93
106 173 95
104 170 93
103 167 91
105 172 97
101 166 93
108 176 99
108 176 99
103 167 95
103 167 92
107 173 97
105 169 94
105 171 99
106 169 96
110 177 99
109 177 100
107 174 99
105 171 95
111 178 99
106 172 97
106 174 96
110 178 100
102 166 92
104 169 98
107 173 96
110 179 103
110 178 100
112 179 100
104 168 95
103 166 95
100 162 93
108 174 98
105 168 95
111 178 100
112 181 103
105 172 98
111 180 100
102 168 95
105 170 95
102 168 93
110 177 102
112 177 101
99 161 90
100 162 92
109 175 100
110 177 101
104 169 95
102 166 92
106 169 96
101 160 91
103 166 97
106 169 97
105 165 92
109 174 100
104 171 96
105 170 95
106 171 99
108 173 98
107 171 97
104 168 96
105 170 97
103 166 93
109 173 97
107 172 98
104 167 96
104 169 97
106 172 97
108 176 101
104 168 96
108 174 100
107 170 96
103 162 92
100 163 94
109 173 99
105 165 94
103 167 93
106 168 97
103 169 97
106 168 95
103 162 92
109 175 101
100 159 90
108 171 97
107 171 99
106 170 98
108 165 95
107 167 95
110 176 100
100 163 92
104 164 94
101 160 90
108 174 101
104 166 96
110 172 96
104 165 95
106 169 96
101 161 92
106 169 97
108 170 98
105 168 95
106 168 98
107 167 97
107 168 96
105 168 96
107 169 98
104 167 96
104 166 95
101 164 94
105 166 97
106 169 96
106 171 100
108 170 98
106 169 94
111 176 100
107 170 99
103 162 93
106 171 98
106 163 94
104 165 96
107 166 95
105 165 94
109 174 100
104 163 94
111 175 100
111 174 98
107 170 98
110 174 101
106 163 95
107 169 97
105 167 95
105 162 94
106 168 97
105 160 91
104 163 93
108 166 95
108 167 96
98 154 88
104 162 93
108 169 96
106 169 95
110 176 102
105 167 96
106 166 94
106 166 96
101 159 91
106 170 98
108 170 97
108 170 98
104 165 95
113 177 101
109 168 95
103 161 94
106 166 94
106 164 95
106 164 95
108 166 95
109 167 96
102 163 94
108 169 95
107 163 93
114 173 100
107 166 95
109 166 97
108 170 97
103 156 89
112 175 100
107 160 93
112 178 102
104 154 88
107 165 95
106 161 92
109 165 95
108 167 96
103 159 92
107 165 95
108 168 97
105 158 91
110 171 98
103 156 90
103 157 90
106 165 95
112 172 99
109 166 96
103 153 88
111 166 96
109 164 95
111 169 97
108 162 93
106 159 91
108 158 91
105 158 90
108 163 94
108 161 91
111 171 99
108 154 88
108 166 95
103 156 90
113 171 97
109 163 93
107 159 91
111 165 95
106 150 85
108 160 93
105 155 90
110 167 97
112 165 94
105 156 89
109 163 93
108 163 93
109 162 91
110 164 93
107 163 94
108 158 90
108 162 93
112 167 96
109 166 95
109 162 93
110 158 91
107 161 92
103 158 90
103 150 85
110 158 91
112 164 95
111 162 93
114 171 98
108 161 93
106 154 88
111 164 94
107 154 88
107 157 91
109 154 89
114 174 99
110 161 92
107 157 90
103 146 84
109 158 90
106 156 89
114 171 98
110 161 92
106 153 87
110 158 90
106 155 89
107 159 91
107 156 90
112 160 92
110 162 92
106 154 88
110 166 95
107 155 89
110 156 88
110 165 94
108 158 91
107 154 88
106 151 87
110 161 91
109 158 90
110 164 95
113 168 96
108 146 82
105 150 86
109 155 89
107 178 86
107 179 83
104 172 82
103 172 85
111 180 91
109 180 91
110 182 90
106 177 92
107 176 91
108 177 90
111 184 94
105 173 90
109 181 87
107 178 86
110 180 91
113 184 91
105 173 88
108 175 89
112 180 97
109 177 88
105 174 87
108 179 91
111 181 91
105 174 87
106 175 86
111 181 94
106 175 87
105 176 89
109 181 94
109 175 90
111 182 98
105 176 88
107 177 91
104 172 86
112 181 95
102 170 82
106 174 89
113 185 100
104 174 91
107 174 92
110 180 95
112 182 98
107 176 90
107 177 89
103 168 87
105 173 84
107 176 90
109 177 94
105 172 89
108 180 93
108 177 94
107 174 90
104 170 92
114 185 98
109 178 94
111 182 96
109 179 92
110 176 93
108 176 93
109 179 94
109 179 96
107 176 91
110 181 94
107 175 93
104 171 90
112 180 92
106 175 93
108 176 92
107 175 89
113 183 99
107 175 95
108 177 93
102 167 87
107 176 96
110 179 93
103 167 87
112 184 98
106 175 94
105 171 91
106 175 94
106 173 97
108 177 95
105 173 95
108 176 95
109 180 99
107 175 99
103 171 89
106 174 93
105 173 95
104 171 89
105 173 91
111 180 96
109 177 98
98 163 85
104 171 97
106 173 92
106 172 99
113 183 100
102 167 89
104 172 93
108 177 99
109 179 97
102 168 92
109 176 97
104 169 93
107 174 100
109 178 98
106 174 96
106 173 95
108 175 97
106 173 95
110 180 100
106 173 95
108 176 99
104 170 96
107 175 97
110 179 99
109 177 96
105 174 94
108 177 98
106 172 94
112 180 100
108 175 98
105 171 94
108 174 93
106 172 95
109 174 95
107 173 97
101 167 88
104 169 92
102 168 96
105 171 94
105 170 95
110 177 99
107 175 95
99 161 90
106 174 97
106 173 96
100 164 88
102 165 90
101 166 94
108 176 98
106 175 100
103 169 95
106 173 97
107 171 97
110 176 99
103 169 95
109 175 99
106 169 94
104 170 98
109 176 100
104 169 94
110 179 103
103 167 95
104 171 98
101 164 91
109 174 98
107 174 99
113 180 103
106 171 96
104 171 95
107 175 99
105 172 97
109 176 100
101 162 93
111 179 101
105 172 96
107 176 101
108 176 97
105 170 97
104 169 95
104 172 98
104 170 96
104 169 95
107 170 97
108 176 99
106 173 98
100 165 90
102 166 95
105 168 92
103 166 93
108 173 99
108 173 100
100 163 92
106 171 98
106 170 97
107 172 97
108 174 98
107 173 99
105 167 95
97 161 92
101 165 95
106 170 97
109 177 103
106 172 98
103 164 94
108 175 100
104 172 98
107 173 98
102 167 94
107 171 98
104 167 94
106 173 100
111 176 100
106 173 100
103 162 91
109 175 100
106 173 100
106 165 93
100 163 91
108 172 99
106 171 97
108 170 98
106 169 97
102 166 95
107 171 99
105 171 97
104 168 97
109 173 99
106 167 96
104 167 97
109 171 97
108 170 98
107 173 99
103 165 96
108 173 99
109 173 99
105 166 94
105 169 97
109 174 100
101 160 93
103 164 92
106 170 97
105 168 95
106 171 97
102 163 95
106 168 96
111 177 103
109 176 100
105 162 93
104 162 92
103 159 91
107 170 98
109 172 98
106 167 95
106 166 96
108 171 100
108 174 102
107 167 95
106 169 96
101 156 88
104 164 93
103 162 94
98 155 91
111 174 100
107 168 96
106 166 94
106 166 95
104 165 96
107 172 101
110 174 100
107 168 93
105 169 98
105 160 92
106 166 96
110 174 101
110 174 100
111 174 100
108 170 98
103 160 90
105 165 94
101 160 93
99 158 90
104 164 93
107 171 100
103 165 95
109 170 98
110 170 96
111 173 99
101 158 92
108 169 98
107 165 95
111 172 100
108 165 95
103 163 95
108 166 96
109 170 97
106 167 98
108 168 97
108 167 95
110 174 100
106 166 95
110 168 95
112 175 99
106 162 94
106 167 97
105 164 94
109 172 99
107 166 96
112 171 99
105 161 92
111 166 95
103 156 91
110 171 98
108 171 99
107 164 95
110 167 96
108 166 96
107 162 94
108 166 95
109 168 96
110 163 92
110 171 98
109 167 96
107 164 95
106 165 95
107 163 95
109 170 97
105 158 92
108 164 94
107 161 93
99 149 87
111 171 99
103 157 92
106 162 95
109 165 94
107 165 96
109 161 93
105 163 94
108 161 92
107 166 96
104 155 89
111 170 99
108 160 92
111 170 98
109 168 96
109 164 94
106 159 92
106 162 93
111 167 96
109 163 94
106 159 91
104 157 90
110 169 97
104 155 90
105 155 89
111 165 94
112 166 95
108 164 95
113 165 94
105 165 96
107 156 89
109 168 96
110 171 99
106 157 91
110 162 93
105 151 86
111 162 93
109 162 92
112 171 97
107 163 94
110 162 93
109 163 93
110 158 90
106 157 90
106 163 94
111 158 90
102 146 84
110 164 94
108 160 92
107 155 90
107 157 90
108 154 87
107 155 88
107 159 91
108 157 90
108 162 93
104 153 87
113 169 97
105 153 88
109 161 93
110 161 92
107 149 85
111 161 93
103 147 83
112 167 96
110 160 92
107 156 90
109 161 92
110 162 93
111 166 95
113 168 96
111 161 92
103 150 84
114 167 95
107 155 89
112 163 93
112 157 90
110 157 89
